(G-CODE GENERATED BY FLATCAM v8.991 - www.flatcam.org - Version Date: 2019/12/27)

(Name: Contour_ext_iso_cnc_1)
(Type: G-code from Geometry)
(Units: MM)

(Created on Saturday, 28 September 2024 at 13:04)

(TOOL DIAMETER: 2.0 mm)
(Feedrate: 200.0 mm/min)
(Feedrate_Z: 100.0 mm/min)
(Feedrate rapids 1500.0 mm/min)

(Z_Cut: -10.2 mm)
(DepthPerCut: 0.4 mm <=>26 passes)
(Z_Move: 2.0 mm)
(Z Toolchange: 15.0 mm)
(X,Y Toolchange: 0.00, 0.00 mm)
(Z Start: None mm)
(Z End: 5.0 mm)
(Steps per circle: 64)
(Preprocessor Geometry: default)

(X range:    0.9000 ...  160.1000  mm)
(Y range:    0.9000 ...   94.1000  mm)

(Spindle Speed: None RPM)
G21
G90
G94




G01 F200.00
G00 Z2.0000

M03
G00 X0.9012 Y1.9509
G01 F100.00
G01 Z-0.4000
G01 F200.00
G01 X0.9000 Y2.0000
G01 X0.9000 Y93.0000
G01 X0.9016 Y93.0589
G01 X0.9113 Y93.1565
G01 X0.9127 Y93.1662
G01 X0.9318 Y93.2625
G01 X0.9342 Y93.2720
G01 X0.9627 Y93.3659
G01 X0.9660 Y93.3752
G01 X1.0036 Y93.4658
G01 X1.0078 Y93.4747
G01 X1.0540 Y93.5613
G01 X1.0591 Y93.5697
G01 X1.1136 Y93.6513
G01 X1.1195 Y93.6592
G01 X1.1817 Y93.7350
G01 X1.1883 Y93.7423
G01 X1.2577 Y93.8117
G01 X1.2650 Y93.8183
G01 X1.3408 Y93.8805
G01 X1.3487 Y93.8864
G01 X1.4303 Y93.9409
G01 X1.4387 Y93.9460
G01 X1.5253 Y93.9922
G01 X1.5342 Y93.9964
G01 X1.6248 Y94.0340
G01 X1.6341 Y94.0373
G01 X1.7280 Y94.0658
G01 X1.7375 Y94.0682
G01 X1.8338 Y94.0873
G01 X1.8435 Y94.0887
G01 X1.9411 Y94.0984
G01 X2.0000 Y94.1000
G01 X159.0000 Y94.1000
G01 X159.0589 Y94.0984
G01 X159.1565 Y94.0887
G01 X159.1662 Y94.0873
G01 X159.2625 Y94.0682
G01 X159.2720 Y94.0658
G01 X159.3659 Y94.0373
G01 X159.3752 Y94.0340
G01 X159.4658 Y93.9964
G01 X159.4747 Y93.9922
G01 X159.5613 Y93.9460
G01 X159.5697 Y93.9409
G01 X159.6513 Y93.8864
G01 X159.6592 Y93.8805
G01 X159.7350 Y93.8183
G01 X159.7423 Y93.8117
G01 X159.8117 Y93.7423
G01 X159.8183 Y93.7350
G01 X159.8805 Y93.6592
G01 X159.8864 Y93.6513
G01 X159.9409 Y93.5697
G01 X159.9460 Y93.5613
G01 X159.9922 Y93.4747
G01 X159.9964 Y93.4658
G01 X160.0340 Y93.3752
G01 X160.0373 Y93.3659
G01 X160.0658 Y93.2720
G01 X160.0682 Y93.2625
G01 X160.0873 Y93.1662
G01 X160.0887 Y93.1565
G01 X160.0984 Y93.0589
G01 X160.1000 Y93.0000
G01 X160.1000 Y2.0000
G01 X160.0984 Y1.9411
G01 X160.0887 Y1.8435
G01 X160.0873 Y1.8338
G01 X160.0682 Y1.7375
G01 X160.0658 Y1.7280
G01 X160.0373 Y1.6341
G01 X160.0340 Y1.6248
G01 X159.9964 Y1.5342
G01 X159.9922 Y1.5253
G01 X159.9460 Y1.4387
G01 X159.9409 Y1.4303
G01 X159.8864 Y1.3487
G01 X159.8805 Y1.3408
G01 X159.8183 Y1.2650
G01 X159.8117 Y1.2577
G01 X159.7423 Y1.1883
G01 X159.7350 Y1.1817
G01 X159.6592 Y1.1195
G01 X159.6513 Y1.1136
G01 X159.5697 Y1.0591
G01 X159.5613 Y1.0540
G01 X159.4747 Y1.0078
G01 X159.4658 Y1.0036
G01 X159.3752 Y0.9660
G01 X159.3659 Y0.9627
G01 X159.2720 Y0.9342
G01 X159.2625 Y0.9318
G01 X159.1662 Y0.9127
G01 X159.1565 Y0.9113
G01 X159.0589 Y0.9016
G01 X159.0000 Y0.9000
G01 X2.0000 Y0.9000
G01 X1.9411 Y0.9016
G01 X1.8435 Y0.9113
G01 X1.8338 Y0.9127
G01 X1.7375 Y0.9318
G01 X1.7280 Y0.9342
G01 X1.6341 Y0.9627
G01 X1.6248 Y0.9660
G01 X1.5342 Y1.0036
G01 X1.5253 Y1.0078
G01 X1.4387 Y1.0540
G01 X1.4303 Y1.0591
G01 X1.3487 Y1.1136
G01 X1.3408 Y1.1195
G01 X1.2650 Y1.1817
G01 X1.2577 Y1.1883
G01 X1.1883 Y1.2577
G01 X1.1817 Y1.2650
G01 X1.1195 Y1.3408
G01 X1.1136 Y1.3487
G01 X1.0591 Y1.4303
G01 X1.0540 Y1.4387
G01 X1.0078 Y1.5253
G01 X1.0036 Y1.5342
G01 X0.9660 Y1.6248
G01 X0.9627 Y1.6341
G01 X0.9342 Y1.7280
G01 X0.9318 Y1.7375
G01 X0.9127 Y1.8338
G01 X0.9113 Y1.8435
G01 X0.9016 Y1.9411
G01 X0.9012 Y1.9509
G00 X0.9012 Y1.9509
G01 F100.00
G01 Z-0.8000
G01 F200.00
G01 X0.9000 Y2.0000
G01 X0.9000 Y93.0000
G01 X0.9016 Y93.0589
G01 X0.9113 Y93.1565
G01 X0.9127 Y93.1662
G01 X0.9318 Y93.2625
G01 X0.9342 Y93.2720
G01 X0.9627 Y93.3659
G01 X0.9660 Y93.3752
G01 X1.0036 Y93.4658
G01 X1.0078 Y93.4747
G01 X1.0540 Y93.5613
G01 X1.0591 Y93.5697
G01 X1.1136 Y93.6513
G01 X1.1195 Y93.6592
G01 X1.1817 Y93.7350
G01 X1.1883 Y93.7423
G01 X1.2577 Y93.8117
G01 X1.2650 Y93.8183
G01 X1.3408 Y93.8805
G01 X1.3487 Y93.8864
G01 X1.4303 Y93.9409
G01 X1.4387 Y93.9460
G01 X1.5253 Y93.9922
G01 X1.5342 Y93.9964
G01 X1.6248 Y94.0340
G01 X1.6341 Y94.0373
G01 X1.7280 Y94.0658
G01 X1.7375 Y94.0682
G01 X1.8338 Y94.0873
G01 X1.8435 Y94.0887
G01 X1.9411 Y94.0984
G01 X2.0000 Y94.1000
G01 X159.0000 Y94.1000
G01 X159.0589 Y94.0984
G01 X159.1565 Y94.0887
G01 X159.1662 Y94.0873
G01 X159.2625 Y94.0682
G01 X159.2720 Y94.0658
G01 X159.3659 Y94.0373
G01 X159.3752 Y94.0340
G01 X159.4658 Y93.9964
G01 X159.4747 Y93.9922
G01 X159.5613 Y93.9460
G01 X159.5697 Y93.9409
G01 X159.6513 Y93.8864
G01 X159.6592 Y93.8805
G01 X159.7350 Y93.8183
G01 X159.7423 Y93.8117
G01 X159.8117 Y93.7423
G01 X159.8183 Y93.7350
G01 X159.8805 Y93.6592
G01 X159.8864 Y93.6513
G01 X159.9409 Y93.5697
G01 X159.9460 Y93.5613
G01 X159.9922 Y93.4747
G01 X159.9964 Y93.4658
G01 X160.0340 Y93.3752
G01 X160.0373 Y93.3659
G01 X160.0658 Y93.2720
G01 X160.0682 Y93.2625
G01 X160.0873 Y93.1662
G01 X160.0887 Y93.1565
G01 X160.0984 Y93.0589
G01 X160.1000 Y93.0000
G01 X160.1000 Y2.0000
G01 X160.0984 Y1.9411
G01 X160.0887 Y1.8435
G01 X160.0873 Y1.8338
G01 X160.0682 Y1.7375
G01 X160.0658 Y1.7280
G01 X160.0373 Y1.6341
G01 X160.0340 Y1.6248
G01 X159.9964 Y1.5342
G01 X159.9922 Y1.5253
G01 X159.9460 Y1.4387
G01 X159.9409 Y1.4303
G01 X159.8864 Y1.3487
G01 X159.8805 Y1.3408
G01 X159.8183 Y1.2650
G01 X159.8117 Y1.2577
G01 X159.7423 Y1.1883
G01 X159.7350 Y1.1817
G01 X159.6592 Y1.1195
G01 X159.6513 Y1.1136
G01 X159.5697 Y1.0591
G01 X159.5613 Y1.0540
G01 X159.4747 Y1.0078
G01 X159.4658 Y1.0036
G01 X159.3752 Y0.9660
G01 X159.3659 Y0.9627
G01 X159.2720 Y0.9342
G01 X159.2625 Y0.9318
G01 X159.1662 Y0.9127
G01 X159.1565 Y0.9113
G01 X159.0589 Y0.9016
G01 X159.0000 Y0.9000
G01 X2.0000 Y0.9000
G01 X1.9411 Y0.9016
G01 X1.8435 Y0.9113
G01 X1.8338 Y0.9127
G01 X1.7375 Y0.9318
G01 X1.7280 Y0.9342
G01 X1.6341 Y0.9627
G01 X1.6248 Y0.9660
G01 X1.5342 Y1.0036
G01 X1.5253 Y1.0078
G01 X1.4387 Y1.0540
G01 X1.4303 Y1.0591
G01 X1.3487 Y1.1136
G01 X1.3408 Y1.1195
G01 X1.2650 Y1.1817
G01 X1.2577 Y1.1883
G01 X1.1883 Y1.2577
G01 X1.1817 Y1.2650
G01 X1.1195 Y1.3408
G01 X1.1136 Y1.3487
G01 X1.0591 Y1.4303
G01 X1.0540 Y1.4387
G01 X1.0078 Y1.5253
G01 X1.0036 Y1.5342
G01 X0.9660 Y1.6248
G01 X0.9627 Y1.6341
G01 X0.9342 Y1.7280
G01 X0.9318 Y1.7375
G01 X0.9127 Y1.8338
G01 X0.9113 Y1.8435
G01 X0.9016 Y1.9411
G01 X0.9012 Y1.9509
G00 X0.9012 Y1.9509
G01 F100.00
G01 Z-1.2000
G01 F200.00
G01 X0.9000 Y2.0000
G01 X0.9000 Y93.0000
G01 X0.9016 Y93.0589
G01 X0.9113 Y93.1565
G01 X0.9127 Y93.1662
G01 X0.9318 Y93.2625
G01 X0.9342 Y93.2720
G01 X0.9627 Y93.3659
G01 X0.9660 Y93.3752
G01 X1.0036 Y93.4658
G01 X1.0078 Y93.4747
G01 X1.0540 Y93.5613
G01 X1.0591 Y93.5697
G01 X1.1136 Y93.6513
G01 X1.1195 Y93.6592
G01 X1.1817 Y93.7350
G01 X1.1883 Y93.7423
G01 X1.2577 Y93.8117
G01 X1.2650 Y93.8183
G01 X1.3408 Y93.8805
G01 X1.3487 Y93.8864
G01 X1.4303 Y93.9409
G01 X1.4387 Y93.9460
G01 X1.5253 Y93.9922
G01 X1.5342 Y93.9964
G01 X1.6248 Y94.0340
G01 X1.6341 Y94.0373
G01 X1.7280 Y94.0658
G01 X1.7375 Y94.0682
G01 X1.8338 Y94.0873
G01 X1.8435 Y94.0887
G01 X1.9411 Y94.0984
G01 X2.0000 Y94.1000
G01 X159.0000 Y94.1000
G01 X159.0589 Y94.0984
G01 X159.1565 Y94.0887
G01 X159.1662 Y94.0873
G01 X159.2625 Y94.0682
G01 X159.2720 Y94.0658
G01 X159.3659 Y94.0373
G01 X159.3752 Y94.0340
G01 X159.4658 Y93.9964
G01 X159.4747 Y93.9922
G01 X159.5613 Y93.9460
G01 X159.5697 Y93.9409
G01 X159.6513 Y93.8864
G01 X159.6592 Y93.8805
G01 X159.7350 Y93.8183
G01 X159.7423 Y93.8117
G01 X159.8117 Y93.7423
G01 X159.8183 Y93.7350
G01 X159.8805 Y93.6592
G01 X159.8864 Y93.6513
G01 X159.9409 Y93.5697
G01 X159.9460 Y93.5613
G01 X159.9922 Y93.4747
G01 X159.9964 Y93.4658
G01 X160.0340 Y93.3752
G01 X160.0373 Y93.3659
G01 X160.0658 Y93.2720
G01 X160.0682 Y93.2625
G01 X160.0873 Y93.1662
G01 X160.0887 Y93.1565
G01 X160.0984 Y93.0589
G01 X160.1000 Y93.0000
G01 X160.1000 Y2.0000
G01 X160.0984 Y1.9411
G01 X160.0887 Y1.8435
G01 X160.0873 Y1.8338
G01 X160.0682 Y1.7375
G01 X160.0658 Y1.7280
G01 X160.0373 Y1.6341
G01 X160.0340 Y1.6248
G01 X159.9964 Y1.5342
G01 X159.9922 Y1.5253
G01 X159.9460 Y1.4387
G01 X159.9409 Y1.4303
G01 X159.8864 Y1.3487
G01 X159.8805 Y1.3408
G01 X159.8183 Y1.2650
G01 X159.8117 Y1.2577
G01 X159.7423 Y1.1883
G01 X159.7350 Y1.1817
G01 X159.6592 Y1.1195
G01 X159.6513 Y1.1136
G01 X159.5697 Y1.0591
G01 X159.5613 Y1.0540
G01 X159.4747 Y1.0078
G01 X159.4658 Y1.0036
G01 X159.3752 Y0.9660
G01 X159.3659 Y0.9627
G01 X159.2720 Y0.9342
G01 X159.2625 Y0.9318
G01 X159.1662 Y0.9127
G01 X159.1565 Y0.9113
G01 X159.0589 Y0.9016
G01 X159.0000 Y0.9000
G01 X2.0000 Y0.9000
G01 X1.9411 Y0.9016
G01 X1.8435 Y0.9113
G01 X1.8338 Y0.9127
G01 X1.7375 Y0.9318
G01 X1.7280 Y0.9342
G01 X1.6341 Y0.9627
G01 X1.6248 Y0.9660
G01 X1.5342 Y1.0036
G01 X1.5253 Y1.0078
G01 X1.4387 Y1.0540
G01 X1.4303 Y1.0591
G01 X1.3487 Y1.1136
G01 X1.3408 Y1.1195
G01 X1.2650 Y1.1817
G01 X1.2577 Y1.1883
G01 X1.1883 Y1.2577
G01 X1.1817 Y1.2650
G01 X1.1195 Y1.3408
G01 X1.1136 Y1.3487
G01 X1.0591 Y1.4303
G01 X1.0540 Y1.4387
G01 X1.0078 Y1.5253
G01 X1.0036 Y1.5342
G01 X0.9660 Y1.6248
G01 X0.9627 Y1.6341
G01 X0.9342 Y1.7280
G01 X0.9318 Y1.7375
G01 X0.9127 Y1.8338
G01 X0.9113 Y1.8435
G01 X0.9016 Y1.9411
G01 X0.9012 Y1.9509
G00 X0.9012 Y1.9509
G01 F100.00
G01 Z-1.6000
G01 F200.00
G01 X0.9000 Y2.0000
G01 X0.9000 Y93.0000
G01 X0.9016 Y93.0589
G01 X0.9113 Y93.1565
G01 X0.9127 Y93.1662
G01 X0.9318 Y93.2625
G01 X0.9342 Y93.2720
G01 X0.9627 Y93.3659
G01 X0.9660 Y93.3752
G01 X1.0036 Y93.4658
G01 X1.0078 Y93.4747
G01 X1.0540 Y93.5613
G01 X1.0591 Y93.5697
G01 X1.1136 Y93.6513
G01 X1.1195 Y93.6592
G01 X1.1817 Y93.7350
G01 X1.1883 Y93.7423
G01 X1.2577 Y93.8117
G01 X1.2650 Y93.8183
G01 X1.3408 Y93.8805
G01 X1.3487 Y93.8864
G01 X1.4303 Y93.9409
G01 X1.4387 Y93.9460
G01 X1.5253 Y93.9922
G01 X1.5342 Y93.9964
G01 X1.6248 Y94.0340
G01 X1.6341 Y94.0373
G01 X1.7280 Y94.0658
G01 X1.7375 Y94.0682
G01 X1.8338 Y94.0873
G01 X1.8435 Y94.0887
G01 X1.9411 Y94.0984
G01 X2.0000 Y94.1000
G01 X159.0000 Y94.1000
G01 X159.0589 Y94.0984
G01 X159.1565 Y94.0887
G01 X159.1662 Y94.0873
G01 X159.2625 Y94.0682
G01 X159.2720 Y94.0658
G01 X159.3659 Y94.0373
G01 X159.3752 Y94.0340
G01 X159.4658 Y93.9964
G01 X159.4747 Y93.9922
G01 X159.5613 Y93.9460
G01 X159.5697 Y93.9409
G01 X159.6513 Y93.8864
G01 X159.6592 Y93.8805
G01 X159.7350 Y93.8183
G01 X159.7423 Y93.8117
G01 X159.8117 Y93.7423
G01 X159.8183 Y93.7350
G01 X159.8805 Y93.6592
G01 X159.8864 Y93.6513
G01 X159.9409 Y93.5697
G01 X159.9460 Y93.5613
G01 X159.9922 Y93.4747
G01 X159.9964 Y93.4658
G01 X160.0340 Y93.3752
G01 X160.0373 Y93.3659
G01 X160.0658 Y93.2720
G01 X160.0682 Y93.2625
G01 X160.0873 Y93.1662
G01 X160.0887 Y93.1565
G01 X160.0984 Y93.0589
G01 X160.1000 Y93.0000
G01 X160.1000 Y2.0000
G01 X160.0984 Y1.9411
G01 X160.0887 Y1.8435
G01 X160.0873 Y1.8338
G01 X160.0682 Y1.7375
G01 X160.0658 Y1.7280
G01 X160.0373 Y1.6341
G01 X160.0340 Y1.6248
G01 X159.9964 Y1.5342
G01 X159.9922 Y1.5253
G01 X159.9460 Y1.4387
G01 X159.9409 Y1.4303
G01 X159.8864 Y1.3487
G01 X159.8805 Y1.3408
G01 X159.8183 Y1.2650
G01 X159.8117 Y1.2577
G01 X159.7423 Y1.1883
G01 X159.7350 Y1.1817
G01 X159.6592 Y1.1195
G01 X159.6513 Y1.1136
G01 X159.5697 Y1.0591
G01 X159.5613 Y1.0540
G01 X159.4747 Y1.0078
G01 X159.4658 Y1.0036
G01 X159.3752 Y0.9660
G01 X159.3659 Y0.9627
G01 X159.2720 Y0.9342
G01 X159.2625 Y0.9318
G01 X159.1662 Y0.9127
G01 X159.1565 Y0.9113
G01 X159.0589 Y0.9016
G01 X159.0000 Y0.9000
G01 X2.0000 Y0.9000
G01 X1.9411 Y0.9016
G01 X1.8435 Y0.9113
G01 X1.8338 Y0.9127
G01 X1.7375 Y0.9318
G01 X1.7280 Y0.9342
G01 X1.6341 Y0.9627
G01 X1.6248 Y0.9660
G01 X1.5342 Y1.0036
G01 X1.5253 Y1.0078
G01 X1.4387 Y1.0540
G01 X1.4303 Y1.0591
G01 X1.3487 Y1.1136
G01 X1.3408 Y1.1195
G01 X1.2650 Y1.1817
G01 X1.2577 Y1.1883
G01 X1.1883 Y1.2577
G01 X1.1817 Y1.2650
G01 X1.1195 Y1.3408
G01 X1.1136 Y1.3487
G01 X1.0591 Y1.4303
G01 X1.0540 Y1.4387
G01 X1.0078 Y1.5253
G01 X1.0036 Y1.5342
G01 X0.9660 Y1.6248
G01 X0.9627 Y1.6341
G01 X0.9342 Y1.7280
G01 X0.9318 Y1.7375
G01 X0.9127 Y1.8338
G01 X0.9113 Y1.8435
G01 X0.9016 Y1.9411
G01 X0.9012 Y1.9509
G00 X0.9012 Y1.9509
G01 F100.00
G01 Z-2.0000
G01 F200.00
G01 X0.9000 Y2.0000
G01 X0.9000 Y93.0000
G01 X0.9016 Y93.0589
G01 X0.9113 Y93.1565
G01 X0.9127 Y93.1662
G01 X0.9318 Y93.2625
G01 X0.9342 Y93.2720
G01 X0.9627 Y93.3659
G01 X0.9660 Y93.3752
G01 X1.0036 Y93.4658
G01 X1.0078 Y93.4747
G01 X1.0540 Y93.5613
G01 X1.0591 Y93.5697
G01 X1.1136 Y93.6513
G01 X1.1195 Y93.6592
G01 X1.1817 Y93.7350
G01 X1.1883 Y93.7423
G01 X1.2577 Y93.8117
G01 X1.2650 Y93.8183
G01 X1.3408 Y93.8805
G01 X1.3487 Y93.8864
G01 X1.4303 Y93.9409
G01 X1.4387 Y93.9460
G01 X1.5253 Y93.9922
G01 X1.5342 Y93.9964
G01 X1.6248 Y94.0340
G01 X1.6341 Y94.0373
G01 X1.7280 Y94.0658
G01 X1.7375 Y94.0682
G01 X1.8338 Y94.0873
G01 X1.8435 Y94.0887
G01 X1.9411 Y94.0984
G01 X2.0000 Y94.1000
G01 X159.0000 Y94.1000
G01 X159.0589 Y94.0984
G01 X159.1565 Y94.0887
G01 X159.1662 Y94.0873
G01 X159.2625 Y94.0682
G01 X159.2720 Y94.0658
G01 X159.3659 Y94.0373
G01 X159.3752 Y94.0340
G01 X159.4658 Y93.9964
G01 X159.4747 Y93.9922
G01 X159.5613 Y93.9460
G01 X159.5697 Y93.9409
G01 X159.6513 Y93.8864
G01 X159.6592 Y93.8805
G01 X159.7350 Y93.8183
G01 X159.7423 Y93.8117
G01 X159.8117 Y93.7423
G01 X159.8183 Y93.7350
G01 X159.8805 Y93.6592
G01 X159.8864 Y93.6513
G01 X159.9409 Y93.5697
G01 X159.9460 Y93.5613
G01 X159.9922 Y93.4747
G01 X159.9964 Y93.4658
G01 X160.0340 Y93.3752
G01 X160.0373 Y93.3659
G01 X160.0658 Y93.2720
G01 X160.0682 Y93.2625
G01 X160.0873 Y93.1662
G01 X160.0887 Y93.1565
G01 X160.0984 Y93.0589
G01 X160.1000 Y93.0000
G01 X160.1000 Y2.0000
G01 X160.0984 Y1.9411
G01 X160.0887 Y1.8435
G01 X160.0873 Y1.8338
G01 X160.0682 Y1.7375
G01 X160.0658 Y1.7280
G01 X160.0373 Y1.6341
G01 X160.0340 Y1.6248
G01 X159.9964 Y1.5342
G01 X159.9922 Y1.5253
G01 X159.9460 Y1.4387
G01 X159.9409 Y1.4303
G01 X159.8864 Y1.3487
G01 X159.8805 Y1.3408
G01 X159.8183 Y1.2650
G01 X159.8117 Y1.2577
G01 X159.7423 Y1.1883
G01 X159.7350 Y1.1817
G01 X159.6592 Y1.1195
G01 X159.6513 Y1.1136
G01 X159.5697 Y1.0591
G01 X159.5613 Y1.0540
G01 X159.4747 Y1.0078
G01 X159.4658 Y1.0036
G01 X159.3752 Y0.9660
G01 X159.3659 Y0.9627
G01 X159.2720 Y0.9342
G01 X159.2625 Y0.9318
G01 X159.1662 Y0.9127
G01 X159.1565 Y0.9113
G01 X159.0589 Y0.9016
G01 X159.0000 Y0.9000
G01 X2.0000 Y0.9000
G01 X1.9411 Y0.9016
G01 X1.8435 Y0.9113
G01 X1.8338 Y0.9127
G01 X1.7375 Y0.9318
G01 X1.7280 Y0.9342
G01 X1.6341 Y0.9627
G01 X1.6248 Y0.9660
G01 X1.5342 Y1.0036
G01 X1.5253 Y1.0078
G01 X1.4387 Y1.0540
G01 X1.4303 Y1.0591
G01 X1.3487 Y1.1136
G01 X1.3408 Y1.1195
G01 X1.2650 Y1.1817
G01 X1.2577 Y1.1883
G01 X1.1883 Y1.2577
G01 X1.1817 Y1.2650
G01 X1.1195 Y1.3408
G01 X1.1136 Y1.3487
G01 X1.0591 Y1.4303
G01 X1.0540 Y1.4387
G01 X1.0078 Y1.5253
G01 X1.0036 Y1.5342
G01 X0.9660 Y1.6248
G01 X0.9627 Y1.6341
G01 X0.9342 Y1.7280
G01 X0.9318 Y1.7375
G01 X0.9127 Y1.8338
G01 X0.9113 Y1.8435
G01 X0.9016 Y1.9411
G01 X0.9012 Y1.9509
G00 X0.9012 Y1.9509
G01 F100.00
G01 Z-2.4000
G01 F200.00
G01 X0.9000 Y2.0000
G01 X0.9000 Y93.0000
G01 X0.9016 Y93.0589
G01 X0.9113 Y93.1565
G01 X0.9127 Y93.1662
G01 X0.9318 Y93.2625
G01 X0.9342 Y93.2720
G01 X0.9627 Y93.3659
G01 X0.9660 Y93.3752
G01 X1.0036 Y93.4658
G01 X1.0078 Y93.4747
G01 X1.0540 Y93.5613
G01 X1.0591 Y93.5697
G01 X1.1136 Y93.6513
G01 X1.1195 Y93.6592
G01 X1.1817 Y93.7350
G01 X1.1883 Y93.7423
G01 X1.2577 Y93.8117
G01 X1.2650 Y93.8183
G01 X1.3408 Y93.8805
G01 X1.3487 Y93.8864
G01 X1.4303 Y93.9409
G01 X1.4387 Y93.9460
G01 X1.5253 Y93.9922
G01 X1.5342 Y93.9964
G01 X1.6248 Y94.0340
G01 X1.6341 Y94.0373
G01 X1.7280 Y94.0658
G01 X1.7375 Y94.0682
G01 X1.8338 Y94.0873
G01 X1.8435 Y94.0887
G01 X1.9411 Y94.0984
G01 X2.0000 Y94.1000
G01 X159.0000 Y94.1000
G01 X159.0589 Y94.0984
G01 X159.1565 Y94.0887
G01 X159.1662 Y94.0873
G01 X159.2625 Y94.0682
G01 X159.2720 Y94.0658
G01 X159.3659 Y94.0373
G01 X159.3752 Y94.0340
G01 X159.4658 Y93.9964
G01 X159.4747 Y93.9922
G01 X159.5613 Y93.9460
G01 X159.5697 Y93.9409
G01 X159.6513 Y93.8864
G01 X159.6592 Y93.8805
G01 X159.7350 Y93.8183
G01 X159.7423 Y93.8117
G01 X159.8117 Y93.7423
G01 X159.8183 Y93.7350
G01 X159.8805 Y93.6592
G01 X159.8864 Y93.6513
G01 X159.9409 Y93.5697
G01 X159.9460 Y93.5613
G01 X159.9922 Y93.4747
G01 X159.9964 Y93.4658
G01 X160.0340 Y93.3752
G01 X160.0373 Y93.3659
G01 X160.0658 Y93.2720
G01 X160.0682 Y93.2625
G01 X160.0873 Y93.1662
G01 X160.0887 Y93.1565
G01 X160.0984 Y93.0589
G01 X160.1000 Y93.0000
G01 X160.1000 Y2.0000
G01 X160.0984 Y1.9411
G01 X160.0887 Y1.8435
G01 X160.0873 Y1.8338
G01 X160.0682 Y1.7375
G01 X160.0658 Y1.7280
G01 X160.0373 Y1.6341
G01 X160.0340 Y1.6248
G01 X159.9964 Y1.5342
G01 X159.9922 Y1.5253
G01 X159.9460 Y1.4387
G01 X159.9409 Y1.4303
G01 X159.8864 Y1.3487
G01 X159.8805 Y1.3408
G01 X159.8183 Y1.2650
G01 X159.8117 Y1.2577
G01 X159.7423 Y1.1883
G01 X159.7350 Y1.1817
G01 X159.6592 Y1.1195
G01 X159.6513 Y1.1136
G01 X159.5697 Y1.0591
G01 X159.5613 Y1.0540
G01 X159.4747 Y1.0078
G01 X159.4658 Y1.0036
G01 X159.3752 Y0.9660
G01 X159.3659 Y0.9627
G01 X159.2720 Y0.9342
G01 X159.2625 Y0.9318
G01 X159.1662 Y0.9127
G01 X159.1565 Y0.9113
G01 X159.0589 Y0.9016
G01 X159.0000 Y0.9000
G01 X2.0000 Y0.9000
G01 X1.9411 Y0.9016
G01 X1.8435 Y0.9113
G01 X1.8338 Y0.9127
G01 X1.7375 Y0.9318
G01 X1.7280 Y0.9342
G01 X1.6341 Y0.9627
G01 X1.6248 Y0.9660
G01 X1.5342 Y1.0036
G01 X1.5253 Y1.0078
G01 X1.4387 Y1.0540
G01 X1.4303 Y1.0591
G01 X1.3487 Y1.1136
G01 X1.3408 Y1.1195
G01 X1.2650 Y1.1817
G01 X1.2577 Y1.1883
G01 X1.1883 Y1.2577
G01 X1.1817 Y1.2650
G01 X1.1195 Y1.3408
G01 X1.1136 Y1.3487
G01 X1.0591 Y1.4303
G01 X1.0540 Y1.4387
G01 X1.0078 Y1.5253
G01 X1.0036 Y1.5342
G01 X0.9660 Y1.6248
G01 X0.9627 Y1.6341
G01 X0.9342 Y1.7280
G01 X0.9318 Y1.7375
G01 X0.9127 Y1.8338
G01 X0.9113 Y1.8435
G01 X0.9016 Y1.9411
G01 X0.9012 Y1.9509
G00 X0.9012 Y1.9509
G01 F100.00
G01 Z-2.8000
G01 F200.00
G01 X0.9000 Y2.0000
G01 X0.9000 Y93.0000
G01 X0.9016 Y93.0589
G01 X0.9113 Y93.1565
G01 X0.9127 Y93.1662
G01 X0.9318 Y93.2625
G01 X0.9342 Y93.2720
G01 X0.9627 Y93.3659
G01 X0.9660 Y93.3752
G01 X1.0036 Y93.4658
G01 X1.0078 Y93.4747
G01 X1.0540 Y93.5613
G01 X1.0591 Y93.5697
G01 X1.1136 Y93.6513
G01 X1.1195 Y93.6592
G01 X1.1817 Y93.7350
G01 X1.1883 Y93.7423
G01 X1.2577 Y93.8117
G01 X1.2650 Y93.8183
G01 X1.3408 Y93.8805
G01 X1.3487 Y93.8864
G01 X1.4303 Y93.9409
G01 X1.4387 Y93.9460
G01 X1.5253 Y93.9922
G01 X1.5342 Y93.9964
G01 X1.6248 Y94.0340
G01 X1.6341 Y94.0373
G01 X1.7280 Y94.0658
G01 X1.7375 Y94.0682
G01 X1.8338 Y94.0873
G01 X1.8435 Y94.0887
G01 X1.9411 Y94.0984
G01 X2.0000 Y94.1000
G01 X159.0000 Y94.1000
G01 X159.0589 Y94.0984
G01 X159.1565 Y94.0887
G01 X159.1662 Y94.0873
G01 X159.2625 Y94.0682
G01 X159.2720 Y94.0658
G01 X159.3659 Y94.0373
G01 X159.3752 Y94.0340
G01 X159.4658 Y93.9964
G01 X159.4747 Y93.9922
G01 X159.5613 Y93.9460
G01 X159.5697 Y93.9409
G01 X159.6513 Y93.8864
G01 X159.6592 Y93.8805
G01 X159.7350 Y93.8183
G01 X159.7423 Y93.8117
G01 X159.8117 Y93.7423
G01 X159.8183 Y93.7350
G01 X159.8805 Y93.6592
G01 X159.8864 Y93.6513
G01 X159.9409 Y93.5697
G01 X159.9460 Y93.5613
G01 X159.9922 Y93.4747
G01 X159.9964 Y93.4658
G01 X160.0340 Y93.3752
G01 X160.0373 Y93.3659
G01 X160.0658 Y93.2720
G01 X160.0682 Y93.2625
G01 X160.0873 Y93.1662
G01 X160.0887 Y93.1565
G01 X160.0984 Y93.0589
G01 X160.1000 Y93.0000
G01 X160.1000 Y2.0000
G01 X160.0984 Y1.9411
G01 X160.0887 Y1.8435
G01 X160.0873 Y1.8338
G01 X160.0682 Y1.7375
G01 X160.0658 Y1.7280
G01 X160.0373 Y1.6341
G01 X160.0340 Y1.6248
G01 X159.9964 Y1.5342
G01 X159.9922 Y1.5253
G01 X159.9460 Y1.4387
G01 X159.9409 Y1.4303
G01 X159.8864 Y1.3487
G01 X159.8805 Y1.3408
G01 X159.8183 Y1.2650
G01 X159.8117 Y1.2577
G01 X159.7423 Y1.1883
G01 X159.7350 Y1.1817
G01 X159.6592 Y1.1195
G01 X159.6513 Y1.1136
G01 X159.5697 Y1.0591
G01 X159.5613 Y1.0540
G01 X159.4747 Y1.0078
G01 X159.4658 Y1.0036
G01 X159.3752 Y0.9660
G01 X159.3659 Y0.9627
G01 X159.2720 Y0.9342
G01 X159.2625 Y0.9318
G01 X159.1662 Y0.9127
G01 X159.1565 Y0.9113
G01 X159.0589 Y0.9016
G01 X159.0000 Y0.9000
G01 X2.0000 Y0.9000
G01 X1.9411 Y0.9016
G01 X1.8435 Y0.9113
G01 X1.8338 Y0.9127
G01 X1.7375 Y0.9318
G01 X1.7280 Y0.9342
G01 X1.6341 Y0.9627
G01 X1.6248 Y0.9660
G01 X1.5342 Y1.0036
G01 X1.5253 Y1.0078
G01 X1.4387 Y1.0540
G01 X1.4303 Y1.0591
G01 X1.3487 Y1.1136
G01 X1.3408 Y1.1195
G01 X1.2650 Y1.1817
G01 X1.2577 Y1.1883
G01 X1.1883 Y1.2577
G01 X1.1817 Y1.2650
G01 X1.1195 Y1.3408
G01 X1.1136 Y1.3487
G01 X1.0591 Y1.4303
G01 X1.0540 Y1.4387
G01 X1.0078 Y1.5253
G01 X1.0036 Y1.5342
G01 X0.9660 Y1.6248
G01 X0.9627 Y1.6341
G01 X0.9342 Y1.7280
G01 X0.9318 Y1.7375
G01 X0.9127 Y1.8338
G01 X0.9113 Y1.8435
G01 X0.9016 Y1.9411
G01 X0.9012 Y1.9509
G00 X0.9012 Y1.9509
G01 F100.00
G01 Z-3.2000
G01 F200.00
G01 X0.9000 Y2.0000
G01 X0.9000 Y93.0000
G01 X0.9016 Y93.0589
G01 X0.9113 Y93.1565
G01 X0.9127 Y93.1662
G01 X0.9318 Y93.2625
G01 X0.9342 Y93.2720
G01 X0.9627 Y93.3659
G01 X0.9660 Y93.3752
G01 X1.0036 Y93.4658
G01 X1.0078 Y93.4747
G01 X1.0540 Y93.5613
G01 X1.0591 Y93.5697
G01 X1.1136 Y93.6513
G01 X1.1195 Y93.6592
G01 X1.1817 Y93.7350
G01 X1.1883 Y93.7423
G01 X1.2577 Y93.8117
G01 X1.2650 Y93.8183
G01 X1.3408 Y93.8805
G01 X1.3487 Y93.8864
G01 X1.4303 Y93.9409
G01 X1.4387 Y93.9460
G01 X1.5253 Y93.9922
G01 X1.5342 Y93.9964
G01 X1.6248 Y94.0340
G01 X1.6341 Y94.0373
G01 X1.7280 Y94.0658
G01 X1.7375 Y94.0682
G01 X1.8338 Y94.0873
G01 X1.8435 Y94.0887
G01 X1.9411 Y94.0984
G01 X2.0000 Y94.1000
G01 X159.0000 Y94.1000
G01 X159.0589 Y94.0984
G01 X159.1565 Y94.0887
G01 X159.1662 Y94.0873
G01 X159.2625 Y94.0682
G01 X159.2720 Y94.0658
G01 X159.3659 Y94.0373
G01 X159.3752 Y94.0340
G01 X159.4658 Y93.9964
G01 X159.4747 Y93.9922
G01 X159.5613 Y93.9460
G01 X159.5697 Y93.9409
G01 X159.6513 Y93.8864
G01 X159.6592 Y93.8805
G01 X159.7350 Y93.8183
G01 X159.7423 Y93.8117
G01 X159.8117 Y93.7423
G01 X159.8183 Y93.7350
G01 X159.8805 Y93.6592
G01 X159.8864 Y93.6513
G01 X159.9409 Y93.5697
G01 X159.9460 Y93.5613
G01 X159.9922 Y93.4747
G01 X159.9964 Y93.4658
G01 X160.0340 Y93.3752
G01 X160.0373 Y93.3659
G01 X160.0658 Y93.2720
G01 X160.0682 Y93.2625
G01 X160.0873 Y93.1662
G01 X160.0887 Y93.1565
G01 X160.0984 Y93.0589
G01 X160.1000 Y93.0000
G01 X160.1000 Y2.0000
G01 X160.0984 Y1.9411
G01 X160.0887 Y1.8435
G01 X160.0873 Y1.8338
G01 X160.0682 Y1.7375
G01 X160.0658 Y1.7280
G01 X160.0373 Y1.6341
G01 X160.0340 Y1.6248
G01 X159.9964 Y1.5342
G01 X159.9922 Y1.5253
G01 X159.9460 Y1.4387
G01 X159.9409 Y1.4303
G01 X159.8864 Y1.3487
G01 X159.8805 Y1.3408
G01 X159.8183 Y1.2650
G01 X159.8117 Y1.2577
G01 X159.7423 Y1.1883
G01 X159.7350 Y1.1817
G01 X159.6592 Y1.1195
G01 X159.6513 Y1.1136
G01 X159.5697 Y1.0591
G01 X159.5613 Y1.0540
G01 X159.4747 Y1.0078
G01 X159.4658 Y1.0036
G01 X159.3752 Y0.9660
G01 X159.3659 Y0.9627
G01 X159.2720 Y0.9342
G01 X159.2625 Y0.9318
G01 X159.1662 Y0.9127
G01 X159.1565 Y0.9113
G01 X159.0589 Y0.9016
G01 X159.0000 Y0.9000
G01 X2.0000 Y0.9000
G01 X1.9411 Y0.9016
G01 X1.8435 Y0.9113
G01 X1.8338 Y0.9127
G01 X1.7375 Y0.9318
G01 X1.7280 Y0.9342
G01 X1.6341 Y0.9627
G01 X1.6248 Y0.9660
G01 X1.5342 Y1.0036
G01 X1.5253 Y1.0078
G01 X1.4387 Y1.0540
G01 X1.4303 Y1.0591
G01 X1.3487 Y1.1136
G01 X1.3408 Y1.1195
G01 X1.2650 Y1.1817
G01 X1.2577 Y1.1883
G01 X1.1883 Y1.2577
G01 X1.1817 Y1.2650
G01 X1.1195 Y1.3408
G01 X1.1136 Y1.3487
G01 X1.0591 Y1.4303
G01 X1.0540 Y1.4387
G01 X1.0078 Y1.5253
G01 X1.0036 Y1.5342
G01 X0.9660 Y1.6248
G01 X0.9627 Y1.6341
G01 X0.9342 Y1.7280
G01 X0.9318 Y1.7375
G01 X0.9127 Y1.8338
G01 X0.9113 Y1.8435
G01 X0.9016 Y1.9411
G01 X0.9012 Y1.9509
G00 X0.9012 Y1.9509
G01 F100.00
G01 Z-3.6000
G01 F200.00
G01 X0.9000 Y2.0000
G01 X0.9000 Y93.0000
G01 X0.9016 Y93.0589
G01 X0.9113 Y93.1565
G01 X0.9127 Y93.1662
G01 X0.9318 Y93.2625
G01 X0.9342 Y93.2720
G01 X0.9627 Y93.3659
G01 X0.9660 Y93.3752
G01 X1.0036 Y93.4658
G01 X1.0078 Y93.4747
G01 X1.0540 Y93.5613
G01 X1.0591 Y93.5697
G01 X1.1136 Y93.6513
G01 X1.1195 Y93.6592
G01 X1.1817 Y93.7350
G01 X1.1883 Y93.7423
G01 X1.2577 Y93.8117
G01 X1.2650 Y93.8183
G01 X1.3408 Y93.8805
G01 X1.3487 Y93.8864
G01 X1.4303 Y93.9409
G01 X1.4387 Y93.9460
G01 X1.5253 Y93.9922
G01 X1.5342 Y93.9964
G01 X1.6248 Y94.0340
G01 X1.6341 Y94.0373
G01 X1.7280 Y94.0658
G01 X1.7375 Y94.0682
G01 X1.8338 Y94.0873
G01 X1.8435 Y94.0887
G01 X1.9411 Y94.0984
G01 X2.0000 Y94.1000
G01 X159.0000 Y94.1000
G01 X159.0589 Y94.0984
G01 X159.1565 Y94.0887
G01 X159.1662 Y94.0873
G01 X159.2625 Y94.0682
G01 X159.2720 Y94.0658
G01 X159.3659 Y94.0373
G01 X159.3752 Y94.0340
G01 X159.4658 Y93.9964
G01 X159.4747 Y93.9922
G01 X159.5613 Y93.9460
G01 X159.5697 Y93.9409
G01 X159.6513 Y93.8864
G01 X159.6592 Y93.8805
G01 X159.7350 Y93.8183
G01 X159.7423 Y93.8117
G01 X159.8117 Y93.7423
G01 X159.8183 Y93.7350
G01 X159.8805 Y93.6592
G01 X159.8864 Y93.6513
G01 X159.9409 Y93.5697
G01 X159.9460 Y93.5613
G01 X159.9922 Y93.4747
G01 X159.9964 Y93.4658
G01 X160.0340 Y93.3752
G01 X160.0373 Y93.3659
G01 X160.0658 Y93.2720
G01 X160.0682 Y93.2625
G01 X160.0873 Y93.1662
G01 X160.0887 Y93.1565
G01 X160.0984 Y93.0589
G01 X160.1000 Y93.0000
G01 X160.1000 Y2.0000
G01 X160.0984 Y1.9411
G01 X160.0887 Y1.8435
G01 X160.0873 Y1.8338
G01 X160.0682 Y1.7375
G01 X160.0658 Y1.7280
G01 X160.0373 Y1.6341
G01 X160.0340 Y1.6248
G01 X159.9964 Y1.5342
G01 X159.9922 Y1.5253
G01 X159.9460 Y1.4387
G01 X159.9409 Y1.4303
G01 X159.8864 Y1.3487
G01 X159.8805 Y1.3408
G01 X159.8183 Y1.2650
G01 X159.8117 Y1.2577
G01 X159.7423 Y1.1883
G01 X159.7350 Y1.1817
G01 X159.6592 Y1.1195
G01 X159.6513 Y1.1136
G01 X159.5697 Y1.0591
G01 X159.5613 Y1.0540
G01 X159.4747 Y1.0078
G01 X159.4658 Y1.0036
G01 X159.3752 Y0.9660
G01 X159.3659 Y0.9627
G01 X159.2720 Y0.9342
G01 X159.2625 Y0.9318
G01 X159.1662 Y0.9127
G01 X159.1565 Y0.9113
G01 X159.0589 Y0.9016
G01 X159.0000 Y0.9000
G01 X2.0000 Y0.9000
G01 X1.9411 Y0.9016
G01 X1.8435 Y0.9113
G01 X1.8338 Y0.9127
G01 X1.7375 Y0.9318
G01 X1.7280 Y0.9342
G01 X1.6341 Y0.9627
G01 X1.6248 Y0.9660
G01 X1.5342 Y1.0036
G01 X1.5253 Y1.0078
G01 X1.4387 Y1.0540
G01 X1.4303 Y1.0591
G01 X1.3487 Y1.1136
G01 X1.3408 Y1.1195
G01 X1.2650 Y1.1817
G01 X1.2577 Y1.1883
G01 X1.1883 Y1.2577
G01 X1.1817 Y1.2650
G01 X1.1195 Y1.3408
G01 X1.1136 Y1.3487
G01 X1.0591 Y1.4303
G01 X1.0540 Y1.4387
G01 X1.0078 Y1.5253
G01 X1.0036 Y1.5342
G01 X0.9660 Y1.6248
G01 X0.9627 Y1.6341
G01 X0.9342 Y1.7280
G01 X0.9318 Y1.7375
G01 X0.9127 Y1.8338
G01 X0.9113 Y1.8435
G01 X0.9016 Y1.9411
G01 X0.9012 Y1.9509
G00 X0.9012 Y1.9509
G01 F100.00
G01 Z-4.0000
G01 F200.00
G01 X0.9000 Y2.0000
G01 X0.9000 Y93.0000
G01 X0.9016 Y93.0589
G01 X0.9113 Y93.1565
G01 X0.9127 Y93.1662
G01 X0.9318 Y93.2625
G01 X0.9342 Y93.2720
G01 X0.9627 Y93.3659
G01 X0.9660 Y93.3752
G01 X1.0036 Y93.4658
G01 X1.0078 Y93.4747
G01 X1.0540 Y93.5613
G01 X1.0591 Y93.5697
G01 X1.1136 Y93.6513
G01 X1.1195 Y93.6592
G01 X1.1817 Y93.7350
G01 X1.1883 Y93.7423
G01 X1.2577 Y93.8117
G01 X1.2650 Y93.8183
G01 X1.3408 Y93.8805
G01 X1.3487 Y93.8864
G01 X1.4303 Y93.9409
G01 X1.4387 Y93.9460
G01 X1.5253 Y93.9922
G01 X1.5342 Y93.9964
G01 X1.6248 Y94.0340
G01 X1.6341 Y94.0373
G01 X1.7280 Y94.0658
G01 X1.7375 Y94.0682
G01 X1.8338 Y94.0873
G01 X1.8435 Y94.0887
G01 X1.9411 Y94.0984
G01 X2.0000 Y94.1000
G01 X159.0000 Y94.1000
G01 X159.0589 Y94.0984
G01 X159.1565 Y94.0887
G01 X159.1662 Y94.0873
G01 X159.2625 Y94.0682
G01 X159.2720 Y94.0658
G01 X159.3659 Y94.0373
G01 X159.3752 Y94.0340
G01 X159.4658 Y93.9964
G01 X159.4747 Y93.9922
G01 X159.5613 Y93.9460
G01 X159.5697 Y93.9409
G01 X159.6513 Y93.8864
G01 X159.6592 Y93.8805
G01 X159.7350 Y93.8183
G01 X159.7423 Y93.8117
G01 X159.8117 Y93.7423
G01 X159.8183 Y93.7350
G01 X159.8805 Y93.6592
G01 X159.8864 Y93.6513
G01 X159.9409 Y93.5697
G01 X159.9460 Y93.5613
G01 X159.9922 Y93.4747
G01 X159.9964 Y93.4658
G01 X160.0340 Y93.3752
G01 X160.0373 Y93.3659
G01 X160.0658 Y93.2720
G01 X160.0682 Y93.2625
G01 X160.0873 Y93.1662
G01 X160.0887 Y93.1565
G01 X160.0984 Y93.0589
G01 X160.1000 Y93.0000
G01 X160.1000 Y2.0000
G01 X160.0984 Y1.9411
G01 X160.0887 Y1.8435
G01 X160.0873 Y1.8338
G01 X160.0682 Y1.7375
G01 X160.0658 Y1.7280
G01 X160.0373 Y1.6341
G01 X160.0340 Y1.6248
G01 X159.9964 Y1.5342
G01 X159.9922 Y1.5253
G01 X159.9460 Y1.4387
G01 X159.9409 Y1.4303
G01 X159.8864 Y1.3487
G01 X159.8805 Y1.3408
G01 X159.8183 Y1.2650
G01 X159.8117 Y1.2577
G01 X159.7423 Y1.1883
G01 X159.7350 Y1.1817
G01 X159.6592 Y1.1195
G01 X159.6513 Y1.1136
G01 X159.5697 Y1.0591
G01 X159.5613 Y1.0540
G01 X159.4747 Y1.0078
G01 X159.4658 Y1.0036
G01 X159.3752 Y0.9660
G01 X159.3659 Y0.9627
G01 X159.2720 Y0.9342
G01 X159.2625 Y0.9318
G01 X159.1662 Y0.9127
G01 X159.1565 Y0.9113
G01 X159.0589 Y0.9016
G01 X159.0000 Y0.9000
G01 X2.0000 Y0.9000
G01 X1.9411 Y0.9016
G01 X1.8435 Y0.9113
G01 X1.8338 Y0.9127
G01 X1.7375 Y0.9318
G01 X1.7280 Y0.9342
G01 X1.6341 Y0.9627
G01 X1.6248 Y0.9660
G01 X1.5342 Y1.0036
G01 X1.5253 Y1.0078
G01 X1.4387 Y1.0540
G01 X1.4303 Y1.0591
G01 X1.3487 Y1.1136
G01 X1.3408 Y1.1195
G01 X1.2650 Y1.1817
G01 X1.2577 Y1.1883
G01 X1.1883 Y1.2577
G01 X1.1817 Y1.2650
G01 X1.1195 Y1.3408
G01 X1.1136 Y1.3487
G01 X1.0591 Y1.4303
G01 X1.0540 Y1.4387
G01 X1.0078 Y1.5253
G01 X1.0036 Y1.5342
G01 X0.9660 Y1.6248
G01 X0.9627 Y1.6341
G01 X0.9342 Y1.7280
G01 X0.9318 Y1.7375
G01 X0.9127 Y1.8338
G01 X0.9113 Y1.8435
G01 X0.9016 Y1.9411
G01 X0.9012 Y1.9509
G00 X0.9012 Y1.9509
G01 F100.00
G01 Z-4.4000
G01 F200.00
G01 X0.9000 Y2.0000
G01 X0.9000 Y93.0000
G01 X0.9016 Y93.0589
G01 X0.9113 Y93.1565
G01 X0.9127 Y93.1662
G01 X0.9318 Y93.2625
G01 X0.9342 Y93.2720
G01 X0.9627 Y93.3659
G01 X0.9660 Y93.3752
G01 X1.0036 Y93.4658
G01 X1.0078 Y93.4747
G01 X1.0540 Y93.5613
G01 X1.0591 Y93.5697
G01 X1.1136 Y93.6513
G01 X1.1195 Y93.6592
G01 X1.1817 Y93.7350
G01 X1.1883 Y93.7423
G01 X1.2577 Y93.8117
G01 X1.2650 Y93.8183
G01 X1.3408 Y93.8805
G01 X1.3487 Y93.8864
G01 X1.4303 Y93.9409
G01 X1.4387 Y93.9460
G01 X1.5253 Y93.9922
G01 X1.5342 Y93.9964
G01 X1.6248 Y94.0340
G01 X1.6341 Y94.0373
G01 X1.7280 Y94.0658
G01 X1.7375 Y94.0682
G01 X1.8338 Y94.0873
G01 X1.8435 Y94.0887
G01 X1.9411 Y94.0984
G01 X2.0000 Y94.1000
G01 X159.0000 Y94.1000
G01 X159.0589 Y94.0984
G01 X159.1565 Y94.0887
G01 X159.1662 Y94.0873
G01 X159.2625 Y94.0682
G01 X159.2720 Y94.0658
G01 X159.3659 Y94.0373
G01 X159.3752 Y94.0340
G01 X159.4658 Y93.9964
G01 X159.4747 Y93.9922
G01 X159.5613 Y93.9460
G01 X159.5697 Y93.9409
G01 X159.6513 Y93.8864
G01 X159.6592 Y93.8805
G01 X159.7350 Y93.8183
G01 X159.7423 Y93.8117
G01 X159.8117 Y93.7423
G01 X159.8183 Y93.7350
G01 X159.8805 Y93.6592
G01 X159.8864 Y93.6513
G01 X159.9409 Y93.5697
G01 X159.9460 Y93.5613
G01 X159.9922 Y93.4747
G01 X159.9964 Y93.4658
G01 X160.0340 Y93.3752
G01 X160.0373 Y93.3659
G01 X160.0658 Y93.2720
G01 X160.0682 Y93.2625
G01 X160.0873 Y93.1662
G01 X160.0887 Y93.1565
G01 X160.0984 Y93.0589
G01 X160.1000 Y93.0000
G01 X160.1000 Y2.0000
G01 X160.0984 Y1.9411
G01 X160.0887 Y1.8435
G01 X160.0873 Y1.8338
G01 X160.0682 Y1.7375
G01 X160.0658 Y1.7280
G01 X160.0373 Y1.6341
G01 X160.0340 Y1.6248
G01 X159.9964 Y1.5342
G01 X159.9922 Y1.5253
G01 X159.9460 Y1.4387
G01 X159.9409 Y1.4303
G01 X159.8864 Y1.3487
G01 X159.8805 Y1.3408
G01 X159.8183 Y1.2650
G01 X159.8117 Y1.2577
G01 X159.7423 Y1.1883
G01 X159.7350 Y1.1817
G01 X159.6592 Y1.1195
G01 X159.6513 Y1.1136
G01 X159.5697 Y1.0591
G01 X159.5613 Y1.0540
G01 X159.4747 Y1.0078
G01 X159.4658 Y1.0036
G01 X159.3752 Y0.9660
G01 X159.3659 Y0.9627
G01 X159.2720 Y0.9342
G01 X159.2625 Y0.9318
G01 X159.1662 Y0.9127
G01 X159.1565 Y0.9113
G01 X159.0589 Y0.9016
G01 X159.0000 Y0.9000
G01 X2.0000 Y0.9000
G01 X1.9411 Y0.9016
G01 X1.8435 Y0.9113
G01 X1.8338 Y0.9127
G01 X1.7375 Y0.9318
G01 X1.7280 Y0.9342
G01 X1.6341 Y0.9627
G01 X1.6248 Y0.9660
G01 X1.5342 Y1.0036
G01 X1.5253 Y1.0078
G01 X1.4387 Y1.0540
G01 X1.4303 Y1.0591
G01 X1.3487 Y1.1136
G01 X1.3408 Y1.1195
G01 X1.2650 Y1.1817
G01 X1.2577 Y1.1883
G01 X1.1883 Y1.2577
G01 X1.1817 Y1.2650
G01 X1.1195 Y1.3408
G01 X1.1136 Y1.3487
G01 X1.0591 Y1.4303
G01 X1.0540 Y1.4387
G01 X1.0078 Y1.5253
G01 X1.0036 Y1.5342
G01 X0.9660 Y1.6248
G01 X0.9627 Y1.6341
G01 X0.9342 Y1.7280
G01 X0.9318 Y1.7375
G01 X0.9127 Y1.8338
G01 X0.9113 Y1.8435
G01 X0.9016 Y1.9411
G01 X0.9012 Y1.9509
G00 X0.9012 Y1.9509
G01 F100.00
G01 Z-4.8000
G01 F200.00
G01 X0.9000 Y2.0000
G01 X0.9000 Y93.0000
G01 X0.9016 Y93.0589
G01 X0.9113 Y93.1565
G01 X0.9127 Y93.1662
G01 X0.9318 Y93.2625
G01 X0.9342 Y93.2720
G01 X0.9627 Y93.3659
G01 X0.9660 Y93.3752
G01 X1.0036 Y93.4658
G01 X1.0078 Y93.4747
G01 X1.0540 Y93.5613
G01 X1.0591 Y93.5697
G01 X1.1136 Y93.6513
G01 X1.1195 Y93.6592
G01 X1.1817 Y93.7350
G01 X1.1883 Y93.7423
G01 X1.2577 Y93.8117
G01 X1.2650 Y93.8183
G01 X1.3408 Y93.8805
G01 X1.3487 Y93.8864
G01 X1.4303 Y93.9409
G01 X1.4387 Y93.9460
G01 X1.5253 Y93.9922
G01 X1.5342 Y93.9964
G01 X1.6248 Y94.0340
G01 X1.6341 Y94.0373
G01 X1.7280 Y94.0658
G01 X1.7375 Y94.0682
G01 X1.8338 Y94.0873
G01 X1.8435 Y94.0887
G01 X1.9411 Y94.0984
G01 X2.0000 Y94.1000
G01 X159.0000 Y94.1000
G01 X159.0589 Y94.0984
G01 X159.1565 Y94.0887
G01 X159.1662 Y94.0873
G01 X159.2625 Y94.0682
G01 X159.2720 Y94.0658
G01 X159.3659 Y94.0373
G01 X159.3752 Y94.0340
G01 X159.4658 Y93.9964
G01 X159.4747 Y93.9922
G01 X159.5613 Y93.9460
G01 X159.5697 Y93.9409
G01 X159.6513 Y93.8864
G01 X159.6592 Y93.8805
G01 X159.7350 Y93.8183
G01 X159.7423 Y93.8117
G01 X159.8117 Y93.7423
G01 X159.8183 Y93.7350
G01 X159.8805 Y93.6592
G01 X159.8864 Y93.6513
G01 X159.9409 Y93.5697
G01 X159.9460 Y93.5613
G01 X159.9922 Y93.4747
G01 X159.9964 Y93.4658
G01 X160.0340 Y93.3752
G01 X160.0373 Y93.3659
G01 X160.0658 Y93.2720
G01 X160.0682 Y93.2625
G01 X160.0873 Y93.1662
G01 X160.0887 Y93.1565
G01 X160.0984 Y93.0589
G01 X160.1000 Y93.0000
G01 X160.1000 Y2.0000
G01 X160.0984 Y1.9411
G01 X160.0887 Y1.8435
G01 X160.0873 Y1.8338
G01 X160.0682 Y1.7375
G01 X160.0658 Y1.7280
G01 X160.0373 Y1.6341
G01 X160.0340 Y1.6248
G01 X159.9964 Y1.5342
G01 X159.9922 Y1.5253
G01 X159.9460 Y1.4387
G01 X159.9409 Y1.4303
G01 X159.8864 Y1.3487
G01 X159.8805 Y1.3408
G01 X159.8183 Y1.2650
G01 X159.8117 Y1.2577
G01 X159.7423 Y1.1883
G01 X159.7350 Y1.1817
G01 X159.6592 Y1.1195
G01 X159.6513 Y1.1136
G01 X159.5697 Y1.0591
G01 X159.5613 Y1.0540
G01 X159.4747 Y1.0078
G01 X159.4658 Y1.0036
G01 X159.3752 Y0.9660
G01 X159.3659 Y0.9627
G01 X159.2720 Y0.9342
G01 X159.2625 Y0.9318
G01 X159.1662 Y0.9127
G01 X159.1565 Y0.9113
G01 X159.0589 Y0.9016
G01 X159.0000 Y0.9000
G01 X2.0000 Y0.9000
G01 X1.9411 Y0.9016
G01 X1.8435 Y0.9113
G01 X1.8338 Y0.9127
G01 X1.7375 Y0.9318
G01 X1.7280 Y0.9342
G01 X1.6341 Y0.9627
G01 X1.6248 Y0.9660
G01 X1.5342 Y1.0036
G01 X1.5253 Y1.0078
G01 X1.4387 Y1.0540
G01 X1.4303 Y1.0591
G01 X1.3487 Y1.1136
G01 X1.3408 Y1.1195
G01 X1.2650 Y1.1817
G01 X1.2577 Y1.1883
G01 X1.1883 Y1.2577
G01 X1.1817 Y1.2650
G01 X1.1195 Y1.3408
G01 X1.1136 Y1.3487
G01 X1.0591 Y1.4303
G01 X1.0540 Y1.4387
G01 X1.0078 Y1.5253
G01 X1.0036 Y1.5342
G01 X0.9660 Y1.6248
G01 X0.9627 Y1.6341
G01 X0.9342 Y1.7280
G01 X0.9318 Y1.7375
G01 X0.9127 Y1.8338
G01 X0.9113 Y1.8435
G01 X0.9016 Y1.9411
G01 X0.9012 Y1.9509
G00 X0.9012 Y1.9509
G01 F100.00
G01 Z-5.2000
G01 F200.00
G01 X0.9000 Y2.0000
G01 X0.9000 Y93.0000
G01 X0.9016 Y93.0589
G01 X0.9113 Y93.1565
G01 X0.9127 Y93.1662
G01 X0.9318 Y93.2625
G01 X0.9342 Y93.2720
G01 X0.9627 Y93.3659
G01 X0.9660 Y93.3752
G01 X1.0036 Y93.4658
G01 X1.0078 Y93.4747
G01 X1.0540 Y93.5613
G01 X1.0591 Y93.5697
G01 X1.1136 Y93.6513
G01 X1.1195 Y93.6592
G01 X1.1817 Y93.7350
G01 X1.1883 Y93.7423
G01 X1.2577 Y93.8117
G01 X1.2650 Y93.8183
G01 X1.3408 Y93.8805
G01 X1.3487 Y93.8864
G01 X1.4303 Y93.9409
G01 X1.4387 Y93.9460
G01 X1.5253 Y93.9922
G01 X1.5342 Y93.9964
G01 X1.6248 Y94.0340
G01 X1.6341 Y94.0373
G01 X1.7280 Y94.0658
G01 X1.7375 Y94.0682
G01 X1.8338 Y94.0873
G01 X1.8435 Y94.0887
G01 X1.9411 Y94.0984
G01 X2.0000 Y94.1000
G01 X159.0000 Y94.1000
G01 X159.0589 Y94.0984
G01 X159.1565 Y94.0887
G01 X159.1662 Y94.0873
G01 X159.2625 Y94.0682
G01 X159.2720 Y94.0658
G01 X159.3659 Y94.0373
G01 X159.3752 Y94.0340
G01 X159.4658 Y93.9964
G01 X159.4747 Y93.9922
G01 X159.5613 Y93.9460
G01 X159.5697 Y93.9409
G01 X159.6513 Y93.8864
G01 X159.6592 Y93.8805
G01 X159.7350 Y93.8183
G01 X159.7423 Y93.8117
G01 X159.8117 Y93.7423
G01 X159.8183 Y93.7350
G01 X159.8805 Y93.6592
G01 X159.8864 Y93.6513
G01 X159.9409 Y93.5697
G01 X159.9460 Y93.5613
G01 X159.9922 Y93.4747
G01 X159.9964 Y93.4658
G01 X160.0340 Y93.3752
G01 X160.0373 Y93.3659
G01 X160.0658 Y93.2720
G01 X160.0682 Y93.2625
G01 X160.0873 Y93.1662
G01 X160.0887 Y93.1565
G01 X160.0984 Y93.0589
G01 X160.1000 Y93.0000
G01 X160.1000 Y2.0000
G01 X160.0984 Y1.9411
G01 X160.0887 Y1.8435
G01 X160.0873 Y1.8338
G01 X160.0682 Y1.7375
G01 X160.0658 Y1.7280
G01 X160.0373 Y1.6341
G01 X160.0340 Y1.6248
G01 X159.9964 Y1.5342
G01 X159.9922 Y1.5253
G01 X159.9460 Y1.4387
G01 X159.9409 Y1.4303
G01 X159.8864 Y1.3487
G01 X159.8805 Y1.3408
G01 X159.8183 Y1.2650
G01 X159.8117 Y1.2577
G01 X159.7423 Y1.1883
G01 X159.7350 Y1.1817
G01 X159.6592 Y1.1195
G01 X159.6513 Y1.1136
G01 X159.5697 Y1.0591
G01 X159.5613 Y1.0540
G01 X159.4747 Y1.0078
G01 X159.4658 Y1.0036
G01 X159.3752 Y0.9660
G01 X159.3659 Y0.9627
G01 X159.2720 Y0.9342
G01 X159.2625 Y0.9318
G01 X159.1662 Y0.9127
G01 X159.1565 Y0.9113
G01 X159.0589 Y0.9016
G01 X159.0000 Y0.9000
G01 X2.0000 Y0.9000
G01 X1.9411 Y0.9016
G01 X1.8435 Y0.9113
G01 X1.8338 Y0.9127
G01 X1.7375 Y0.9318
G01 X1.7280 Y0.9342
G01 X1.6341 Y0.9627
G01 X1.6248 Y0.9660
G01 X1.5342 Y1.0036
G01 X1.5253 Y1.0078
G01 X1.4387 Y1.0540
G01 X1.4303 Y1.0591
G01 X1.3487 Y1.1136
G01 X1.3408 Y1.1195
G01 X1.2650 Y1.1817
G01 X1.2577 Y1.1883
G01 X1.1883 Y1.2577
G01 X1.1817 Y1.2650
G01 X1.1195 Y1.3408
G01 X1.1136 Y1.3487
G01 X1.0591 Y1.4303
G01 X1.0540 Y1.4387
G01 X1.0078 Y1.5253
G01 X1.0036 Y1.5342
G01 X0.9660 Y1.6248
G01 X0.9627 Y1.6341
G01 X0.9342 Y1.7280
G01 X0.9318 Y1.7375
G01 X0.9127 Y1.8338
G01 X0.9113 Y1.8435
G01 X0.9016 Y1.9411
G01 X0.9012 Y1.9509
G00 X0.9012 Y1.9509
G01 F100.00
G01 Z-5.6000
G01 F200.00
G01 X0.9000 Y2.0000
G01 X0.9000 Y93.0000
G01 X0.9016 Y93.0589
G01 X0.9113 Y93.1565
G01 X0.9127 Y93.1662
G01 X0.9318 Y93.2625
G01 X0.9342 Y93.2720
G01 X0.9627 Y93.3659
G01 X0.9660 Y93.3752
G01 X1.0036 Y93.4658
G01 X1.0078 Y93.4747
G01 X1.0540 Y93.5613
G01 X1.0591 Y93.5697
G01 X1.1136 Y93.6513
G01 X1.1195 Y93.6592
G01 X1.1817 Y93.7350
G01 X1.1883 Y93.7423
G01 X1.2577 Y93.8117
G01 X1.2650 Y93.8183
G01 X1.3408 Y93.8805
G01 X1.3487 Y93.8864
G01 X1.4303 Y93.9409
G01 X1.4387 Y93.9460
G01 X1.5253 Y93.9922
G01 X1.5342 Y93.9964
G01 X1.6248 Y94.0340
G01 X1.6341 Y94.0373
G01 X1.7280 Y94.0658
G01 X1.7375 Y94.0682
G01 X1.8338 Y94.0873
G01 X1.8435 Y94.0887
G01 X1.9411 Y94.0984
G01 X2.0000 Y94.1000
G01 X159.0000 Y94.1000
G01 X159.0589 Y94.0984
G01 X159.1565 Y94.0887
G01 X159.1662 Y94.0873
G01 X159.2625 Y94.0682
G01 X159.2720 Y94.0658
G01 X159.3659 Y94.0373
G01 X159.3752 Y94.0340
G01 X159.4658 Y93.9964
G01 X159.4747 Y93.9922
G01 X159.5613 Y93.9460
G01 X159.5697 Y93.9409
G01 X159.6513 Y93.8864
G01 X159.6592 Y93.8805
G01 X159.7350 Y93.8183
G01 X159.7423 Y93.8117
G01 X159.8117 Y93.7423
G01 X159.8183 Y93.7350
G01 X159.8805 Y93.6592
G01 X159.8864 Y93.6513
G01 X159.9409 Y93.5697
G01 X159.9460 Y93.5613
G01 X159.9922 Y93.4747
G01 X159.9964 Y93.4658
G01 X160.0340 Y93.3752
G01 X160.0373 Y93.3659
G01 X160.0658 Y93.2720
G01 X160.0682 Y93.2625
G01 X160.0873 Y93.1662
G01 X160.0887 Y93.1565
G01 X160.0984 Y93.0589
G01 X160.1000 Y93.0000
G01 X160.1000 Y2.0000
G01 X160.0984 Y1.9411
G01 X160.0887 Y1.8435
G01 X160.0873 Y1.8338
G01 X160.0682 Y1.7375
G01 X160.0658 Y1.7280
G01 X160.0373 Y1.6341
G01 X160.0340 Y1.6248
G01 X159.9964 Y1.5342
G01 X159.9922 Y1.5253
G01 X159.9460 Y1.4387
G01 X159.9409 Y1.4303
G01 X159.8864 Y1.3487
G01 X159.8805 Y1.3408
G01 X159.8183 Y1.2650
G01 X159.8117 Y1.2577
G01 X159.7423 Y1.1883
G01 X159.7350 Y1.1817
G01 X159.6592 Y1.1195
G01 X159.6513 Y1.1136
G01 X159.5697 Y1.0591
G01 X159.5613 Y1.0540
G01 X159.4747 Y1.0078
G01 X159.4658 Y1.0036
G01 X159.3752 Y0.9660
G01 X159.3659 Y0.9627
G01 X159.2720 Y0.9342
G01 X159.2625 Y0.9318
G01 X159.1662 Y0.9127
G01 X159.1565 Y0.9113
G01 X159.0589 Y0.9016
G01 X159.0000 Y0.9000
G01 X2.0000 Y0.9000
G01 X1.9411 Y0.9016
G01 X1.8435 Y0.9113
G01 X1.8338 Y0.9127
G01 X1.7375 Y0.9318
G01 X1.7280 Y0.9342
G01 X1.6341 Y0.9627
G01 X1.6248 Y0.9660
G01 X1.5342 Y1.0036
G01 X1.5253 Y1.0078
G01 X1.4387 Y1.0540
G01 X1.4303 Y1.0591
G01 X1.3487 Y1.1136
G01 X1.3408 Y1.1195
G01 X1.2650 Y1.1817
G01 X1.2577 Y1.1883
G01 X1.1883 Y1.2577
G01 X1.1817 Y1.2650
G01 X1.1195 Y1.3408
G01 X1.1136 Y1.3487
G01 X1.0591 Y1.4303
G01 X1.0540 Y1.4387
G01 X1.0078 Y1.5253
G01 X1.0036 Y1.5342
G01 X0.9660 Y1.6248
G01 X0.9627 Y1.6341
G01 X0.9342 Y1.7280
G01 X0.9318 Y1.7375
G01 X0.9127 Y1.8338
G01 X0.9113 Y1.8435
G01 X0.9016 Y1.9411
G01 X0.9012 Y1.9509
G00 X0.9012 Y1.9509
G01 F100.00
G01 Z-6.0000
G01 F200.00
G01 X0.9000 Y2.0000
G01 X0.9000 Y93.0000
G01 X0.9016 Y93.0589
G01 X0.9113 Y93.1565
G01 X0.9127 Y93.1662
G01 X0.9318 Y93.2625
G01 X0.9342 Y93.2720
G01 X0.9627 Y93.3659
G01 X0.9660 Y93.3752
G01 X1.0036 Y93.4658
G01 X1.0078 Y93.4747
G01 X1.0540 Y93.5613
G01 X1.0591 Y93.5697
G01 X1.1136 Y93.6513
G01 X1.1195 Y93.6592
G01 X1.1817 Y93.7350
G01 X1.1883 Y93.7423
G01 X1.2577 Y93.8117
G01 X1.2650 Y93.8183
G01 X1.3408 Y93.8805
G01 X1.3487 Y93.8864
G01 X1.4303 Y93.9409
G01 X1.4387 Y93.9460
G01 X1.5253 Y93.9922
G01 X1.5342 Y93.9964
G01 X1.6248 Y94.0340
G01 X1.6341 Y94.0373
G01 X1.7280 Y94.0658
G01 X1.7375 Y94.0682
G01 X1.8338 Y94.0873
G01 X1.8435 Y94.0887
G01 X1.9411 Y94.0984
G01 X2.0000 Y94.1000
G01 X159.0000 Y94.1000
G01 X159.0589 Y94.0984
G01 X159.1565 Y94.0887
G01 X159.1662 Y94.0873
G01 X159.2625 Y94.0682
G01 X159.2720 Y94.0658
G01 X159.3659 Y94.0373
G01 X159.3752 Y94.0340
G01 X159.4658 Y93.9964
G01 X159.4747 Y93.9922
G01 X159.5613 Y93.9460
G01 X159.5697 Y93.9409
G01 X159.6513 Y93.8864
G01 X159.6592 Y93.8805
G01 X159.7350 Y93.8183
G01 X159.7423 Y93.8117
G01 X159.8117 Y93.7423
G01 X159.8183 Y93.7350
G01 X159.8805 Y93.6592
G01 X159.8864 Y93.6513
G01 X159.9409 Y93.5697
G01 X159.9460 Y93.5613
G01 X159.9922 Y93.4747
G01 X159.9964 Y93.4658
G01 X160.0340 Y93.3752
G01 X160.0373 Y93.3659
G01 X160.0658 Y93.2720
G01 X160.0682 Y93.2625
G01 X160.0873 Y93.1662
G01 X160.0887 Y93.1565
G01 X160.0984 Y93.0589
G01 X160.1000 Y93.0000
G01 X160.1000 Y2.0000
G01 X160.0984 Y1.9411
G01 X160.0887 Y1.8435
G01 X160.0873 Y1.8338
G01 X160.0682 Y1.7375
G01 X160.0658 Y1.7280
G01 X160.0373 Y1.6341
G01 X160.0340 Y1.6248
G01 X159.9964 Y1.5342
G01 X159.9922 Y1.5253
G01 X159.9460 Y1.4387
G01 X159.9409 Y1.4303
G01 X159.8864 Y1.3487
G01 X159.8805 Y1.3408
G01 X159.8183 Y1.2650
G01 X159.8117 Y1.2577
G01 X159.7423 Y1.1883
G01 X159.7350 Y1.1817
G01 X159.6592 Y1.1195
G01 X159.6513 Y1.1136
G01 X159.5697 Y1.0591
G01 X159.5613 Y1.0540
G01 X159.4747 Y1.0078
G01 X159.4658 Y1.0036
G01 X159.3752 Y0.9660
G01 X159.3659 Y0.9627
G01 X159.2720 Y0.9342
G01 X159.2625 Y0.9318
G01 X159.1662 Y0.9127
G01 X159.1565 Y0.9113
G01 X159.0589 Y0.9016
G01 X159.0000 Y0.9000
G01 X2.0000 Y0.9000
G01 X1.9411 Y0.9016
G01 X1.8435 Y0.9113
G01 X1.8338 Y0.9127
G01 X1.7375 Y0.9318
G01 X1.7280 Y0.9342
G01 X1.6341 Y0.9627
G01 X1.6248 Y0.9660
G01 X1.5342 Y1.0036
G01 X1.5253 Y1.0078
G01 X1.4387 Y1.0540
G01 X1.4303 Y1.0591
G01 X1.3487 Y1.1136
G01 X1.3408 Y1.1195
G01 X1.2650 Y1.1817
G01 X1.2577 Y1.1883
G01 X1.1883 Y1.2577
G01 X1.1817 Y1.2650
G01 X1.1195 Y1.3408
G01 X1.1136 Y1.3487
G01 X1.0591 Y1.4303
G01 X1.0540 Y1.4387
G01 X1.0078 Y1.5253
G01 X1.0036 Y1.5342
G01 X0.9660 Y1.6248
G01 X0.9627 Y1.6341
G01 X0.9342 Y1.7280
G01 X0.9318 Y1.7375
G01 X0.9127 Y1.8338
G01 X0.9113 Y1.8435
G01 X0.9016 Y1.9411
G01 X0.9012 Y1.9509
G00 X0.9012 Y1.9509
G01 F100.00
G01 Z-6.4000
G01 F200.00
G01 X0.9000 Y2.0000
G01 X0.9000 Y93.0000
G01 X0.9016 Y93.0589
G01 X0.9113 Y93.1565
G01 X0.9127 Y93.1662
G01 X0.9318 Y93.2625
G01 X0.9342 Y93.2720
G01 X0.9627 Y93.3659
G01 X0.9660 Y93.3752
G01 X1.0036 Y93.4658
G01 X1.0078 Y93.4747
G01 X1.0540 Y93.5613
G01 X1.0591 Y93.5697
G01 X1.1136 Y93.6513
G01 X1.1195 Y93.6592
G01 X1.1817 Y93.7350
G01 X1.1883 Y93.7423
G01 X1.2577 Y93.8117
G01 X1.2650 Y93.8183
G01 X1.3408 Y93.8805
G01 X1.3487 Y93.8864
G01 X1.4303 Y93.9409
G01 X1.4387 Y93.9460
G01 X1.5253 Y93.9922
G01 X1.5342 Y93.9964
G01 X1.6248 Y94.0340
G01 X1.6341 Y94.0373
G01 X1.7280 Y94.0658
G01 X1.7375 Y94.0682
G01 X1.8338 Y94.0873
G01 X1.8435 Y94.0887
G01 X1.9411 Y94.0984
G01 X2.0000 Y94.1000
G01 X159.0000 Y94.1000
G01 X159.0589 Y94.0984
G01 X159.1565 Y94.0887
G01 X159.1662 Y94.0873
G01 X159.2625 Y94.0682
G01 X159.2720 Y94.0658
G01 X159.3659 Y94.0373
G01 X159.3752 Y94.0340
G01 X159.4658 Y93.9964
G01 X159.4747 Y93.9922
G01 X159.5613 Y93.9460
G01 X159.5697 Y93.9409
G01 X159.6513 Y93.8864
G01 X159.6592 Y93.8805
G01 X159.7350 Y93.8183
G01 X159.7423 Y93.8117
G01 X159.8117 Y93.7423
G01 X159.8183 Y93.7350
G01 X159.8805 Y93.6592
G01 X159.8864 Y93.6513
G01 X159.9409 Y93.5697
G01 X159.9460 Y93.5613
G01 X159.9922 Y93.4747
G01 X159.9964 Y93.4658
G01 X160.0340 Y93.3752
G01 X160.0373 Y93.3659
G01 X160.0658 Y93.2720
G01 X160.0682 Y93.2625
G01 X160.0873 Y93.1662
G01 X160.0887 Y93.1565
G01 X160.0984 Y93.0589
G01 X160.1000 Y93.0000
G01 X160.1000 Y2.0000
G01 X160.0984 Y1.9411
G01 X160.0887 Y1.8435
G01 X160.0873 Y1.8338
G01 X160.0682 Y1.7375
G01 X160.0658 Y1.7280
G01 X160.0373 Y1.6341
G01 X160.0340 Y1.6248
G01 X159.9964 Y1.5342
G01 X159.9922 Y1.5253
G01 X159.9460 Y1.4387
G01 X159.9409 Y1.4303
G01 X159.8864 Y1.3487
G01 X159.8805 Y1.3408
G01 X159.8183 Y1.2650
G01 X159.8117 Y1.2577
G01 X159.7423 Y1.1883
G01 X159.7350 Y1.1817
G01 X159.6592 Y1.1195
G01 X159.6513 Y1.1136
G01 X159.5697 Y1.0591
G01 X159.5613 Y1.0540
G01 X159.4747 Y1.0078
G01 X159.4658 Y1.0036
G01 X159.3752 Y0.9660
G01 X159.3659 Y0.9627
G01 X159.2720 Y0.9342
G01 X159.2625 Y0.9318
G01 X159.1662 Y0.9127
G01 X159.1565 Y0.9113
G01 X159.0589 Y0.9016
G01 X159.0000 Y0.9000
G01 X2.0000 Y0.9000
G01 X1.9411 Y0.9016
G01 X1.8435 Y0.9113
G01 X1.8338 Y0.9127
G01 X1.7375 Y0.9318
G01 X1.7280 Y0.9342
G01 X1.6341 Y0.9627
G01 X1.6248 Y0.9660
G01 X1.5342 Y1.0036
G01 X1.5253 Y1.0078
G01 X1.4387 Y1.0540
G01 X1.4303 Y1.0591
G01 X1.3487 Y1.1136
G01 X1.3408 Y1.1195
G01 X1.2650 Y1.1817
G01 X1.2577 Y1.1883
G01 X1.1883 Y1.2577
G01 X1.1817 Y1.2650
G01 X1.1195 Y1.3408
G01 X1.1136 Y1.3487
G01 X1.0591 Y1.4303
G01 X1.0540 Y1.4387
G01 X1.0078 Y1.5253
G01 X1.0036 Y1.5342
G01 X0.9660 Y1.6248
G01 X0.9627 Y1.6341
G01 X0.9342 Y1.7280
G01 X0.9318 Y1.7375
G01 X0.9127 Y1.8338
G01 X0.9113 Y1.8435
G01 X0.9016 Y1.9411
G01 X0.9012 Y1.9509
G00 X0.9012 Y1.9509
G01 F100.00
G01 Z-6.8000
G01 F200.00
G01 X0.9000 Y2.0000
G01 X0.9000 Y93.0000
G01 X0.9016 Y93.0589
G01 X0.9113 Y93.1565
G01 X0.9127 Y93.1662
G01 X0.9318 Y93.2625
G01 X0.9342 Y93.2720
G01 X0.9627 Y93.3659
G01 X0.9660 Y93.3752
G01 X1.0036 Y93.4658
G01 X1.0078 Y93.4747
G01 X1.0540 Y93.5613
G01 X1.0591 Y93.5697
G01 X1.1136 Y93.6513
G01 X1.1195 Y93.6592
G01 X1.1817 Y93.7350
G01 X1.1883 Y93.7423
G01 X1.2577 Y93.8117
G01 X1.2650 Y93.8183
G01 X1.3408 Y93.8805
G01 X1.3487 Y93.8864
G01 X1.4303 Y93.9409
G01 X1.4387 Y93.9460
G01 X1.5253 Y93.9922
G01 X1.5342 Y93.9964
G01 X1.6248 Y94.0340
G01 X1.6341 Y94.0373
G01 X1.7280 Y94.0658
G01 X1.7375 Y94.0682
G01 X1.8338 Y94.0873
G01 X1.8435 Y94.0887
G01 X1.9411 Y94.0984
G01 X2.0000 Y94.1000
G01 X159.0000 Y94.1000
G01 X159.0589 Y94.0984
G01 X159.1565 Y94.0887
G01 X159.1662 Y94.0873
G01 X159.2625 Y94.0682
G01 X159.2720 Y94.0658
G01 X159.3659 Y94.0373
G01 X159.3752 Y94.0340
G01 X159.4658 Y93.9964
G01 X159.4747 Y93.9922
G01 X159.5613 Y93.9460
G01 X159.5697 Y93.9409
G01 X159.6513 Y93.8864
G01 X159.6592 Y93.8805
G01 X159.7350 Y93.8183
G01 X159.7423 Y93.8117
G01 X159.8117 Y93.7423
G01 X159.8183 Y93.7350
G01 X159.8805 Y93.6592
G01 X159.8864 Y93.6513
G01 X159.9409 Y93.5697
G01 X159.9460 Y93.5613
G01 X159.9922 Y93.4747
G01 X159.9964 Y93.4658
G01 X160.0340 Y93.3752
G01 X160.0373 Y93.3659
G01 X160.0658 Y93.2720
G01 X160.0682 Y93.2625
G01 X160.0873 Y93.1662
G01 X160.0887 Y93.1565
G01 X160.0984 Y93.0589
G01 X160.1000 Y93.0000
G01 X160.1000 Y2.0000
G01 X160.0984 Y1.9411
G01 X160.0887 Y1.8435
G01 X160.0873 Y1.8338
G01 X160.0682 Y1.7375
G01 X160.0658 Y1.7280
G01 X160.0373 Y1.6341
G01 X160.0340 Y1.6248
G01 X159.9964 Y1.5342
G01 X159.9922 Y1.5253
G01 X159.9460 Y1.4387
G01 X159.9409 Y1.4303
G01 X159.8864 Y1.3487
G01 X159.8805 Y1.3408
G01 X159.8183 Y1.2650
G01 X159.8117 Y1.2577
G01 X159.7423 Y1.1883
G01 X159.7350 Y1.1817
G01 X159.6592 Y1.1195
G01 X159.6513 Y1.1136
G01 X159.5697 Y1.0591
G01 X159.5613 Y1.0540
G01 X159.4747 Y1.0078
G01 X159.4658 Y1.0036
G01 X159.3752 Y0.9660
G01 X159.3659 Y0.9627
G01 X159.2720 Y0.9342
G01 X159.2625 Y0.9318
G01 X159.1662 Y0.9127
G01 X159.1565 Y0.9113
G01 X159.0589 Y0.9016
G01 X159.0000 Y0.9000
G01 X2.0000 Y0.9000
G01 X1.9411 Y0.9016
G01 X1.8435 Y0.9113
G01 X1.8338 Y0.9127
G01 X1.7375 Y0.9318
G01 X1.7280 Y0.9342
G01 X1.6341 Y0.9627
G01 X1.6248 Y0.9660
G01 X1.5342 Y1.0036
G01 X1.5253 Y1.0078
G01 X1.4387 Y1.0540
G01 X1.4303 Y1.0591
G01 X1.3487 Y1.1136
G01 X1.3408 Y1.1195
G01 X1.2650 Y1.1817
G01 X1.2577 Y1.1883
G01 X1.1883 Y1.2577
G01 X1.1817 Y1.2650
G01 X1.1195 Y1.3408
G01 X1.1136 Y1.3487
G01 X1.0591 Y1.4303
G01 X1.0540 Y1.4387
G01 X1.0078 Y1.5253
G01 X1.0036 Y1.5342
G01 X0.9660 Y1.6248
G01 X0.9627 Y1.6341
G01 X0.9342 Y1.7280
G01 X0.9318 Y1.7375
G01 X0.9127 Y1.8338
G01 X0.9113 Y1.8435
G01 X0.9016 Y1.9411
G01 X0.9012 Y1.9509
G00 X0.9012 Y1.9509
G01 F100.00
G01 Z-7.2000
G01 F200.00
G01 X0.9000 Y2.0000
G01 X0.9000 Y93.0000
G01 X0.9016 Y93.0589
G01 X0.9113 Y93.1565
G01 X0.9127 Y93.1662
G01 X0.9318 Y93.2625
G01 X0.9342 Y93.2720
G01 X0.9627 Y93.3659
G01 X0.9660 Y93.3752
G01 X1.0036 Y93.4658
G01 X1.0078 Y93.4747
G01 X1.0540 Y93.5613
G01 X1.0591 Y93.5697
G01 X1.1136 Y93.6513
G01 X1.1195 Y93.6592
G01 X1.1817 Y93.7350
G01 X1.1883 Y93.7423
G01 X1.2577 Y93.8117
G01 X1.2650 Y93.8183
G01 X1.3408 Y93.8805
G01 X1.3487 Y93.8864
G01 X1.4303 Y93.9409
G01 X1.4387 Y93.9460
G01 X1.5253 Y93.9922
G01 X1.5342 Y93.9964
G01 X1.6248 Y94.0340
G01 X1.6341 Y94.0373
G01 X1.7280 Y94.0658
G01 X1.7375 Y94.0682
G01 X1.8338 Y94.0873
G01 X1.8435 Y94.0887
G01 X1.9411 Y94.0984
G01 X2.0000 Y94.1000
G01 X159.0000 Y94.1000
G01 X159.0589 Y94.0984
G01 X159.1565 Y94.0887
G01 X159.1662 Y94.0873
G01 X159.2625 Y94.0682
G01 X159.2720 Y94.0658
G01 X159.3659 Y94.0373
G01 X159.3752 Y94.0340
G01 X159.4658 Y93.9964
G01 X159.4747 Y93.9922
G01 X159.5613 Y93.9460
G01 X159.5697 Y93.9409
G01 X159.6513 Y93.8864
G01 X159.6592 Y93.8805
G01 X159.7350 Y93.8183
G01 X159.7423 Y93.8117
G01 X159.8117 Y93.7423
G01 X159.8183 Y93.7350
G01 X159.8805 Y93.6592
G01 X159.8864 Y93.6513
G01 X159.9409 Y93.5697
G01 X159.9460 Y93.5613
G01 X159.9922 Y93.4747
G01 X159.9964 Y93.4658
G01 X160.0340 Y93.3752
G01 X160.0373 Y93.3659
G01 X160.0658 Y93.2720
G01 X160.0682 Y93.2625
G01 X160.0873 Y93.1662
G01 X160.0887 Y93.1565
G01 X160.0984 Y93.0589
G01 X160.1000 Y93.0000
G01 X160.1000 Y2.0000
G01 X160.0984 Y1.9411
G01 X160.0887 Y1.8435
G01 X160.0873 Y1.8338
G01 X160.0682 Y1.7375
G01 X160.0658 Y1.7280
G01 X160.0373 Y1.6341
G01 X160.0340 Y1.6248
G01 X159.9964 Y1.5342
G01 X159.9922 Y1.5253
G01 X159.9460 Y1.4387
G01 X159.9409 Y1.4303
G01 X159.8864 Y1.3487
G01 X159.8805 Y1.3408
G01 X159.8183 Y1.2650
G01 X159.8117 Y1.2577
G01 X159.7423 Y1.1883
G01 X159.7350 Y1.1817
G01 X159.6592 Y1.1195
G01 X159.6513 Y1.1136
G01 X159.5697 Y1.0591
G01 X159.5613 Y1.0540
G01 X159.4747 Y1.0078
G01 X159.4658 Y1.0036
G01 X159.3752 Y0.9660
G01 X159.3659 Y0.9627
G01 X159.2720 Y0.9342
G01 X159.2625 Y0.9318
G01 X159.1662 Y0.9127
G01 X159.1565 Y0.9113
G01 X159.0589 Y0.9016
G01 X159.0000 Y0.9000
G01 X2.0000 Y0.9000
G01 X1.9411 Y0.9016
G01 X1.8435 Y0.9113
G01 X1.8338 Y0.9127
G01 X1.7375 Y0.9318
G01 X1.7280 Y0.9342
G01 X1.6341 Y0.9627
G01 X1.6248 Y0.9660
G01 X1.5342 Y1.0036
G01 X1.5253 Y1.0078
G01 X1.4387 Y1.0540
G01 X1.4303 Y1.0591
G01 X1.3487 Y1.1136
G01 X1.3408 Y1.1195
G01 X1.2650 Y1.1817
G01 X1.2577 Y1.1883
G01 X1.1883 Y1.2577
G01 X1.1817 Y1.2650
G01 X1.1195 Y1.3408
G01 X1.1136 Y1.3487
G01 X1.0591 Y1.4303
G01 X1.0540 Y1.4387
G01 X1.0078 Y1.5253
G01 X1.0036 Y1.5342
G01 X0.9660 Y1.6248
G01 X0.9627 Y1.6341
G01 X0.9342 Y1.7280
G01 X0.9318 Y1.7375
G01 X0.9127 Y1.8338
G01 X0.9113 Y1.8435
G01 X0.9016 Y1.9411
G01 X0.9012 Y1.9509
G00 X0.9012 Y1.9509
G01 F100.00
G01 Z-7.6000
G01 F200.00
G01 X0.9000 Y2.0000
G01 X0.9000 Y93.0000
G01 X0.9016 Y93.0589
G01 X0.9113 Y93.1565
G01 X0.9127 Y93.1662
G01 X0.9318 Y93.2625
G01 X0.9342 Y93.2720
G01 X0.9627 Y93.3659
G01 X0.9660 Y93.3752
G01 X1.0036 Y93.4658
G01 X1.0078 Y93.4747
G01 X1.0540 Y93.5613
G01 X1.0591 Y93.5697
G01 X1.1136 Y93.6513
G01 X1.1195 Y93.6592
G01 X1.1817 Y93.7350
G01 X1.1883 Y93.7423
G01 X1.2577 Y93.8117
G01 X1.2650 Y93.8183
G01 X1.3408 Y93.8805
G01 X1.3487 Y93.8864
G01 X1.4303 Y93.9409
G01 X1.4387 Y93.9460
G01 X1.5253 Y93.9922
G01 X1.5342 Y93.9964
G01 X1.6248 Y94.0340
G01 X1.6341 Y94.0373
G01 X1.7280 Y94.0658
G01 X1.7375 Y94.0682
G01 X1.8338 Y94.0873
G01 X1.8435 Y94.0887
G01 X1.9411 Y94.0984
G01 X2.0000 Y94.1000
G01 X159.0000 Y94.1000
G01 X159.0589 Y94.0984
G01 X159.1565 Y94.0887
G01 X159.1662 Y94.0873
G01 X159.2625 Y94.0682
G01 X159.2720 Y94.0658
G01 X159.3659 Y94.0373
G01 X159.3752 Y94.0340
G01 X159.4658 Y93.9964
G01 X159.4747 Y93.9922
G01 X159.5613 Y93.9460
G01 X159.5697 Y93.9409
G01 X159.6513 Y93.8864
G01 X159.6592 Y93.8805
G01 X159.7350 Y93.8183
G01 X159.7423 Y93.8117
G01 X159.8117 Y93.7423
G01 X159.8183 Y93.7350
G01 X159.8805 Y93.6592
G01 X159.8864 Y93.6513
G01 X159.9409 Y93.5697
G01 X159.9460 Y93.5613
G01 X159.9922 Y93.4747
G01 X159.9964 Y93.4658
G01 X160.0340 Y93.3752
G01 X160.0373 Y93.3659
G01 X160.0658 Y93.2720
G01 X160.0682 Y93.2625
G01 X160.0873 Y93.1662
G01 X160.0887 Y93.1565
G01 X160.0984 Y93.0589
G01 X160.1000 Y93.0000
G01 X160.1000 Y2.0000
G01 X160.0984 Y1.9411
G01 X160.0887 Y1.8435
G01 X160.0873 Y1.8338
G01 X160.0682 Y1.7375
G01 X160.0658 Y1.7280
G01 X160.0373 Y1.6341
G01 X160.0340 Y1.6248
G01 X159.9964 Y1.5342
G01 X159.9922 Y1.5253
G01 X159.9460 Y1.4387
G01 X159.9409 Y1.4303
G01 X159.8864 Y1.3487
G01 X159.8805 Y1.3408
G01 X159.8183 Y1.2650
G01 X159.8117 Y1.2577
G01 X159.7423 Y1.1883
G01 X159.7350 Y1.1817
G01 X159.6592 Y1.1195
G01 X159.6513 Y1.1136
G01 X159.5697 Y1.0591
G01 X159.5613 Y1.0540
G01 X159.4747 Y1.0078
G01 X159.4658 Y1.0036
G01 X159.3752 Y0.9660
G01 X159.3659 Y0.9627
G01 X159.2720 Y0.9342
G01 X159.2625 Y0.9318
G01 X159.1662 Y0.9127
G01 X159.1565 Y0.9113
G01 X159.0589 Y0.9016
G01 X159.0000 Y0.9000
G01 X2.0000 Y0.9000
G01 X1.9411 Y0.9016
G01 X1.8435 Y0.9113
G01 X1.8338 Y0.9127
G01 X1.7375 Y0.9318
G01 X1.7280 Y0.9342
G01 X1.6341 Y0.9627
G01 X1.6248 Y0.9660
G01 X1.5342 Y1.0036
G01 X1.5253 Y1.0078
G01 X1.4387 Y1.0540
G01 X1.4303 Y1.0591
G01 X1.3487 Y1.1136
G01 X1.3408 Y1.1195
G01 X1.2650 Y1.1817
G01 X1.2577 Y1.1883
G01 X1.1883 Y1.2577
G01 X1.1817 Y1.2650
G01 X1.1195 Y1.3408
G01 X1.1136 Y1.3487
G01 X1.0591 Y1.4303
G01 X1.0540 Y1.4387
G01 X1.0078 Y1.5253
G01 X1.0036 Y1.5342
G01 X0.9660 Y1.6248
G01 X0.9627 Y1.6341
G01 X0.9342 Y1.7280
G01 X0.9318 Y1.7375
G01 X0.9127 Y1.8338
G01 X0.9113 Y1.8435
G01 X0.9016 Y1.9411
G01 X0.9012 Y1.9509
G00 X0.9012 Y1.9509
G01 F100.00
G01 Z-8.0000
G01 F200.00
G01 X0.9000 Y2.0000
G01 X0.9000 Y93.0000
G01 X0.9016 Y93.0589
G01 X0.9113 Y93.1565
G01 X0.9127 Y93.1662
G01 X0.9318 Y93.2625
G01 X0.9342 Y93.2720
G01 X0.9627 Y93.3659
G01 X0.9660 Y93.3752
G01 X1.0036 Y93.4658
G01 X1.0078 Y93.4747
G01 X1.0540 Y93.5613
G01 X1.0591 Y93.5697
G01 X1.1136 Y93.6513
G01 X1.1195 Y93.6592
G01 X1.1817 Y93.7350
G01 X1.1883 Y93.7423
G01 X1.2577 Y93.8117
G01 X1.2650 Y93.8183
G01 X1.3408 Y93.8805
G01 X1.3487 Y93.8864
G01 X1.4303 Y93.9409
G01 X1.4387 Y93.9460
G01 X1.5253 Y93.9922
G01 X1.5342 Y93.9964
G01 X1.6248 Y94.0340
G01 X1.6341 Y94.0373
G01 X1.7280 Y94.0658
G01 X1.7375 Y94.0682
G01 X1.8338 Y94.0873
G01 X1.8435 Y94.0887
G01 X1.9411 Y94.0984
G01 X2.0000 Y94.1000
G01 X159.0000 Y94.1000
G01 X159.0589 Y94.0984
G01 X159.1565 Y94.0887
G01 X159.1662 Y94.0873
G01 X159.2625 Y94.0682
G01 X159.2720 Y94.0658
G01 X159.3659 Y94.0373
G01 X159.3752 Y94.0340
G01 X159.4658 Y93.9964
G01 X159.4747 Y93.9922
G01 X159.5613 Y93.9460
G01 X159.5697 Y93.9409
G01 X159.6513 Y93.8864
G01 X159.6592 Y93.8805
G01 X159.7350 Y93.8183
G01 X159.7423 Y93.8117
G01 X159.8117 Y93.7423
G01 X159.8183 Y93.7350
G01 X159.8805 Y93.6592
G01 X159.8864 Y93.6513
G01 X159.9409 Y93.5697
G01 X159.9460 Y93.5613
G01 X159.9922 Y93.4747
G01 X159.9964 Y93.4658
G01 X160.0340 Y93.3752
G01 X160.0373 Y93.3659
G01 X160.0658 Y93.2720
G01 X160.0682 Y93.2625
G01 X160.0873 Y93.1662
G01 X160.0887 Y93.1565
G01 X160.0984 Y93.0589
G01 X160.1000 Y93.0000
G01 X160.1000 Y2.0000
G01 X160.0984 Y1.9411
G01 X160.0887 Y1.8435
G01 X160.0873 Y1.8338
G01 X160.0682 Y1.7375
G01 X160.0658 Y1.7280
G01 X160.0373 Y1.6341
G01 X160.0340 Y1.6248
G01 X159.9964 Y1.5342
G01 X159.9922 Y1.5253
G01 X159.9460 Y1.4387
G01 X159.9409 Y1.4303
G01 X159.8864 Y1.3487
G01 X159.8805 Y1.3408
G01 X159.8183 Y1.2650
G01 X159.8117 Y1.2577
G01 X159.7423 Y1.1883
G01 X159.7350 Y1.1817
G01 X159.6592 Y1.1195
G01 X159.6513 Y1.1136
G01 X159.5697 Y1.0591
G01 X159.5613 Y1.0540
G01 X159.4747 Y1.0078
G01 X159.4658 Y1.0036
G01 X159.3752 Y0.9660
G01 X159.3659 Y0.9627
G01 X159.2720 Y0.9342
G01 X159.2625 Y0.9318
G01 X159.1662 Y0.9127
G01 X159.1565 Y0.9113
G01 X159.0589 Y0.9016
G01 X159.0000 Y0.9000
G01 X2.0000 Y0.9000
G01 X1.9411 Y0.9016
G01 X1.8435 Y0.9113
G01 X1.8338 Y0.9127
G01 X1.7375 Y0.9318
G01 X1.7280 Y0.9342
G01 X1.6341 Y0.9627
G01 X1.6248 Y0.9660
G01 X1.5342 Y1.0036
G01 X1.5253 Y1.0078
G01 X1.4387 Y1.0540
G01 X1.4303 Y1.0591
G01 X1.3487 Y1.1136
G01 X1.3408 Y1.1195
G01 X1.2650 Y1.1817
G01 X1.2577 Y1.1883
G01 X1.1883 Y1.2577
G01 X1.1817 Y1.2650
G01 X1.1195 Y1.3408
G01 X1.1136 Y1.3487
G01 X1.0591 Y1.4303
G01 X1.0540 Y1.4387
G01 X1.0078 Y1.5253
G01 X1.0036 Y1.5342
G01 X0.9660 Y1.6248
G01 X0.9627 Y1.6341
G01 X0.9342 Y1.7280
G01 X0.9318 Y1.7375
G01 X0.9127 Y1.8338
G01 X0.9113 Y1.8435
G01 X0.9016 Y1.9411
G01 X0.9012 Y1.9509
G00 X0.9012 Y1.9509
G01 F100.00
G01 Z-8.4000
G01 F200.00
G01 X0.9000 Y2.0000
G01 X0.9000 Y93.0000
G01 X0.9016 Y93.0589
G01 X0.9113 Y93.1565
G01 X0.9127 Y93.1662
G01 X0.9318 Y93.2625
G01 X0.9342 Y93.2720
G01 X0.9627 Y93.3659
G01 X0.9660 Y93.3752
G01 X1.0036 Y93.4658
G01 X1.0078 Y93.4747
G01 X1.0540 Y93.5613
G01 X1.0591 Y93.5697
G01 X1.1136 Y93.6513
G01 X1.1195 Y93.6592
G01 X1.1817 Y93.7350
G01 X1.1883 Y93.7423
G01 X1.2577 Y93.8117
G01 X1.2650 Y93.8183
G01 X1.3408 Y93.8805
G01 X1.3487 Y93.8864
G01 X1.4303 Y93.9409
G01 X1.4387 Y93.9460
G01 X1.5253 Y93.9922
G01 X1.5342 Y93.9964
G01 X1.6248 Y94.0340
G01 X1.6341 Y94.0373
G01 X1.7280 Y94.0658
G01 X1.7375 Y94.0682
G01 X1.8338 Y94.0873
G01 X1.8435 Y94.0887
G01 X1.9411 Y94.0984
G01 X2.0000 Y94.1000
G01 X159.0000 Y94.1000
G01 X159.0589 Y94.0984
G01 X159.1565 Y94.0887
G01 X159.1662 Y94.0873
G01 X159.2625 Y94.0682
G01 X159.2720 Y94.0658
G01 X159.3659 Y94.0373
G01 X159.3752 Y94.0340
G01 X159.4658 Y93.9964
G01 X159.4747 Y93.9922
G01 X159.5613 Y93.9460
G01 X159.5697 Y93.9409
G01 X159.6513 Y93.8864
G01 X159.6592 Y93.8805
G01 X159.7350 Y93.8183
G01 X159.7423 Y93.8117
G01 X159.8117 Y93.7423
G01 X159.8183 Y93.7350
G01 X159.8805 Y93.6592
G01 X159.8864 Y93.6513
G01 X159.9409 Y93.5697
G01 X159.9460 Y93.5613
G01 X159.9922 Y93.4747
G01 X159.9964 Y93.4658
G01 X160.0340 Y93.3752
G01 X160.0373 Y93.3659
G01 X160.0658 Y93.2720
G01 X160.0682 Y93.2625
G01 X160.0873 Y93.1662
G01 X160.0887 Y93.1565
G01 X160.0984 Y93.0589
G01 X160.1000 Y93.0000
G01 X160.1000 Y2.0000
G01 X160.0984 Y1.9411
G01 X160.0887 Y1.8435
G01 X160.0873 Y1.8338
G01 X160.0682 Y1.7375
G01 X160.0658 Y1.7280
G01 X160.0373 Y1.6341
G01 X160.0340 Y1.6248
G01 X159.9964 Y1.5342
G01 X159.9922 Y1.5253
G01 X159.9460 Y1.4387
G01 X159.9409 Y1.4303
G01 X159.8864 Y1.3487
G01 X159.8805 Y1.3408
G01 X159.8183 Y1.2650
G01 X159.8117 Y1.2577
G01 X159.7423 Y1.1883
G01 X159.7350 Y1.1817
G01 X159.6592 Y1.1195
G01 X159.6513 Y1.1136
G01 X159.5697 Y1.0591
G01 X159.5613 Y1.0540
G01 X159.4747 Y1.0078
G01 X159.4658 Y1.0036
G01 X159.3752 Y0.9660
G01 X159.3659 Y0.9627
G01 X159.2720 Y0.9342
G01 X159.2625 Y0.9318
G01 X159.1662 Y0.9127
G01 X159.1565 Y0.9113
G01 X159.0589 Y0.9016
G01 X159.0000 Y0.9000
G01 X2.0000 Y0.9000
G01 X1.9411 Y0.9016
G01 X1.8435 Y0.9113
G01 X1.8338 Y0.9127
G01 X1.7375 Y0.9318
G01 X1.7280 Y0.9342
G01 X1.6341 Y0.9627
G01 X1.6248 Y0.9660
G01 X1.5342 Y1.0036
G01 X1.5253 Y1.0078
G01 X1.4387 Y1.0540
G01 X1.4303 Y1.0591
G01 X1.3487 Y1.1136
G01 X1.3408 Y1.1195
G01 X1.2650 Y1.1817
G01 X1.2577 Y1.1883
G01 X1.1883 Y1.2577
G01 X1.1817 Y1.2650
G01 X1.1195 Y1.3408
G01 X1.1136 Y1.3487
G01 X1.0591 Y1.4303
G01 X1.0540 Y1.4387
G01 X1.0078 Y1.5253
G01 X1.0036 Y1.5342
G01 X0.9660 Y1.6248
G01 X0.9627 Y1.6341
G01 X0.9342 Y1.7280
G01 X0.9318 Y1.7375
G01 X0.9127 Y1.8338
G01 X0.9113 Y1.8435
G01 X0.9016 Y1.9411
G01 X0.9012 Y1.9509
G00 X0.9012 Y1.9509
G01 F100.00
G01 Z-8.8000
G01 F200.00
G01 X0.9000 Y2.0000
G01 X0.9000 Y93.0000
G01 X0.9016 Y93.0589
G01 X0.9113 Y93.1565
G01 X0.9127 Y93.1662
G01 X0.9318 Y93.2625
G01 X0.9342 Y93.2720
G01 X0.9627 Y93.3659
G01 X0.9660 Y93.3752
G01 X1.0036 Y93.4658
G01 X1.0078 Y93.4747
G01 X1.0540 Y93.5613
G01 X1.0591 Y93.5697
G01 X1.1136 Y93.6513
G01 X1.1195 Y93.6592
G01 X1.1817 Y93.7350
G01 X1.1883 Y93.7423
G01 X1.2577 Y93.8117
G01 X1.2650 Y93.8183
G01 X1.3408 Y93.8805
G01 X1.3487 Y93.8864
G01 X1.4303 Y93.9409
G01 X1.4387 Y93.9460
G01 X1.5253 Y93.9922
G01 X1.5342 Y93.9964
G01 X1.6248 Y94.0340
G01 X1.6341 Y94.0373
G01 X1.7280 Y94.0658
G01 X1.7375 Y94.0682
G01 X1.8338 Y94.0873
G01 X1.8435 Y94.0887
G01 X1.9411 Y94.0984
G01 X2.0000 Y94.1000
G01 X159.0000 Y94.1000
G01 X159.0589 Y94.0984
G01 X159.1565 Y94.0887
G01 X159.1662 Y94.0873
G01 X159.2625 Y94.0682
G01 X159.2720 Y94.0658
G01 X159.3659 Y94.0373
G01 X159.3752 Y94.0340
G01 X159.4658 Y93.9964
G01 X159.4747 Y93.9922
G01 X159.5613 Y93.9460
G01 X159.5697 Y93.9409
G01 X159.6513 Y93.8864
G01 X159.6592 Y93.8805
G01 X159.7350 Y93.8183
G01 X159.7423 Y93.8117
G01 X159.8117 Y93.7423
G01 X159.8183 Y93.7350
G01 X159.8805 Y93.6592
G01 X159.8864 Y93.6513
G01 X159.9409 Y93.5697
G01 X159.9460 Y93.5613
G01 X159.9922 Y93.4747
G01 X159.9964 Y93.4658
G01 X160.0340 Y93.3752
G01 X160.0373 Y93.3659
G01 X160.0658 Y93.2720
G01 X160.0682 Y93.2625
G01 X160.0873 Y93.1662
G01 X160.0887 Y93.1565
G01 X160.0984 Y93.0589
G01 X160.1000 Y93.0000
G01 X160.1000 Y2.0000
G01 X160.0984 Y1.9411
G01 X160.0887 Y1.8435
G01 X160.0873 Y1.8338
G01 X160.0682 Y1.7375
G01 X160.0658 Y1.7280
G01 X160.0373 Y1.6341
G01 X160.0340 Y1.6248
G01 X159.9964 Y1.5342
G01 X159.9922 Y1.5253
G01 X159.9460 Y1.4387
G01 X159.9409 Y1.4303
G01 X159.8864 Y1.3487
G01 X159.8805 Y1.3408
G01 X159.8183 Y1.2650
G01 X159.8117 Y1.2577
G01 X159.7423 Y1.1883
G01 X159.7350 Y1.1817
G01 X159.6592 Y1.1195
G01 X159.6513 Y1.1136
G01 X159.5697 Y1.0591
G01 X159.5613 Y1.0540
G01 X159.4747 Y1.0078
G01 X159.4658 Y1.0036
G01 X159.3752 Y0.9660
G01 X159.3659 Y0.9627
G01 X159.2720 Y0.9342
G01 X159.2625 Y0.9318
G01 X159.1662 Y0.9127
G01 X159.1565 Y0.9113
G01 X159.0589 Y0.9016
G01 X159.0000 Y0.9000
G01 X2.0000 Y0.9000
G01 X1.9411 Y0.9016
G01 X1.8435 Y0.9113
G01 X1.8338 Y0.9127
G01 X1.7375 Y0.9318
G01 X1.7280 Y0.9342
G01 X1.6341 Y0.9627
G01 X1.6248 Y0.9660
G01 X1.5342 Y1.0036
G01 X1.5253 Y1.0078
G01 X1.4387 Y1.0540
G01 X1.4303 Y1.0591
G01 X1.3487 Y1.1136
G01 X1.3408 Y1.1195
G01 X1.2650 Y1.1817
G01 X1.2577 Y1.1883
G01 X1.1883 Y1.2577
G01 X1.1817 Y1.2650
G01 X1.1195 Y1.3408
G01 X1.1136 Y1.3487
G01 X1.0591 Y1.4303
G01 X1.0540 Y1.4387
G01 X1.0078 Y1.5253
G01 X1.0036 Y1.5342
G01 X0.9660 Y1.6248
G01 X0.9627 Y1.6341
G01 X0.9342 Y1.7280
G01 X0.9318 Y1.7375
G01 X0.9127 Y1.8338
G01 X0.9113 Y1.8435
G01 X0.9016 Y1.9411
G01 X0.9012 Y1.9509
G00 X0.9012 Y1.9509
G01 F100.00
G01 Z-9.2000
G01 F200.00
G01 X0.9000 Y2.0000
G01 X0.9000 Y93.0000
G01 X0.9016 Y93.0589
G01 X0.9113 Y93.1565
G01 X0.9127 Y93.1662
G01 X0.9318 Y93.2625
G01 X0.9342 Y93.2720
G01 X0.9627 Y93.3659
G01 X0.9660 Y93.3752
G01 X1.0036 Y93.4658
G01 X1.0078 Y93.4747
G01 X1.0540 Y93.5613
G01 X1.0591 Y93.5697
G01 X1.1136 Y93.6513
G01 X1.1195 Y93.6592
G01 X1.1817 Y93.7350
G01 X1.1883 Y93.7423
G01 X1.2577 Y93.8117
G01 X1.2650 Y93.8183
G01 X1.3408 Y93.8805
G01 X1.3487 Y93.8864
G01 X1.4303 Y93.9409
G01 X1.4387 Y93.9460
G01 X1.5253 Y93.9922
G01 X1.5342 Y93.9964
G01 X1.6248 Y94.0340
G01 X1.6341 Y94.0373
G01 X1.7280 Y94.0658
G01 X1.7375 Y94.0682
G01 X1.8338 Y94.0873
G01 X1.8435 Y94.0887
G01 X1.9411 Y94.0984
G01 X2.0000 Y94.1000
G01 X159.0000 Y94.1000
G01 X159.0589 Y94.0984
G01 X159.1565 Y94.0887
G01 X159.1662 Y94.0873
G01 X159.2625 Y94.0682
G01 X159.2720 Y94.0658
G01 X159.3659 Y94.0373
G01 X159.3752 Y94.0340
G01 X159.4658 Y93.9964
G01 X159.4747 Y93.9922
G01 X159.5613 Y93.9460
G01 X159.5697 Y93.9409
G01 X159.6513 Y93.8864
G01 X159.6592 Y93.8805
G01 X159.7350 Y93.8183
G01 X159.7423 Y93.8117
G01 X159.8117 Y93.7423
G01 X159.8183 Y93.7350
G01 X159.8805 Y93.6592
G01 X159.8864 Y93.6513
G01 X159.9409 Y93.5697
G01 X159.9460 Y93.5613
G01 X159.9922 Y93.4747
G01 X159.9964 Y93.4658
G01 X160.0340 Y93.3752
G01 X160.0373 Y93.3659
G01 X160.0658 Y93.2720
G01 X160.0682 Y93.2625
G01 X160.0873 Y93.1662
G01 X160.0887 Y93.1565
G01 X160.0984 Y93.0589
G01 X160.1000 Y93.0000
G01 X160.1000 Y2.0000
G01 X160.0984 Y1.9411
G01 X160.0887 Y1.8435
G01 X160.0873 Y1.8338
G01 X160.0682 Y1.7375
G01 X160.0658 Y1.7280
G01 X160.0373 Y1.6341
G01 X160.0340 Y1.6248
G01 X159.9964 Y1.5342
G01 X159.9922 Y1.5253
G01 X159.9460 Y1.4387
G01 X159.9409 Y1.4303
G01 X159.8864 Y1.3487
G01 X159.8805 Y1.3408
G01 X159.8183 Y1.2650
G01 X159.8117 Y1.2577
G01 X159.7423 Y1.1883
G01 X159.7350 Y1.1817
G01 X159.6592 Y1.1195
G01 X159.6513 Y1.1136
G01 X159.5697 Y1.0591
G01 X159.5613 Y1.0540
G01 X159.4747 Y1.0078
G01 X159.4658 Y1.0036
G01 X159.3752 Y0.9660
G01 X159.3659 Y0.9627
G01 X159.2720 Y0.9342
G01 X159.2625 Y0.9318
G01 X159.1662 Y0.9127
G01 X159.1565 Y0.9113
G01 X159.0589 Y0.9016
G01 X159.0000 Y0.9000
G01 X2.0000 Y0.9000
G01 X1.9411 Y0.9016
G01 X1.8435 Y0.9113
G01 X1.8338 Y0.9127
G01 X1.7375 Y0.9318
G01 X1.7280 Y0.9342
G01 X1.6341 Y0.9627
G01 X1.6248 Y0.9660
G01 X1.5342 Y1.0036
G01 X1.5253 Y1.0078
G01 X1.4387 Y1.0540
G01 X1.4303 Y1.0591
G01 X1.3487 Y1.1136
G01 X1.3408 Y1.1195
G01 X1.2650 Y1.1817
G01 X1.2577 Y1.1883
G01 X1.1883 Y1.2577
G01 X1.1817 Y1.2650
G01 X1.1195 Y1.3408
G01 X1.1136 Y1.3487
G01 X1.0591 Y1.4303
G01 X1.0540 Y1.4387
G01 X1.0078 Y1.5253
G01 X1.0036 Y1.5342
G01 X0.9660 Y1.6248
G01 X0.9627 Y1.6341
G01 X0.9342 Y1.7280
G01 X0.9318 Y1.7375
G01 X0.9127 Y1.8338
G01 X0.9113 Y1.8435
G01 X0.9016 Y1.9411
G01 X0.9012 Y1.9509
G00 X0.9012 Y1.9509
G01 F100.00
G01 Z-9.6000
G01 F200.00
G01 X0.9000 Y2.0000
G01 X0.9000 Y93.0000
G01 X0.9016 Y93.0589
G01 X0.9113 Y93.1565
G01 X0.9127 Y93.1662
G01 X0.9318 Y93.2625
G01 X0.9342 Y93.2720
G01 X0.9627 Y93.3659
G01 X0.9660 Y93.3752
G01 X1.0036 Y93.4658
G01 X1.0078 Y93.4747
G01 X1.0540 Y93.5613
G01 X1.0591 Y93.5697
G01 X1.1136 Y93.6513
G01 X1.1195 Y93.6592
G01 X1.1817 Y93.7350
G01 X1.1883 Y93.7423
G01 X1.2577 Y93.8117
G01 X1.2650 Y93.8183
G01 X1.3408 Y93.8805
G01 X1.3487 Y93.8864
G01 X1.4303 Y93.9409
G01 X1.4387 Y93.9460
G01 X1.5253 Y93.9922
G01 X1.5342 Y93.9964
G01 X1.6248 Y94.0340
G01 X1.6341 Y94.0373
G01 X1.7280 Y94.0658
G01 X1.7375 Y94.0682
G01 X1.8338 Y94.0873
G01 X1.8435 Y94.0887
G01 X1.9411 Y94.0984
G01 X2.0000 Y94.1000
G01 X159.0000 Y94.1000
G01 X159.0589 Y94.0984
G01 X159.1565 Y94.0887
G01 X159.1662 Y94.0873
G01 X159.2625 Y94.0682
G01 X159.2720 Y94.0658
G01 X159.3659 Y94.0373
G01 X159.3752 Y94.0340
G01 X159.4658 Y93.9964
G01 X159.4747 Y93.9922
G01 X159.5613 Y93.9460
G01 X159.5697 Y93.9409
G01 X159.6513 Y93.8864
G01 X159.6592 Y93.8805
G01 X159.7350 Y93.8183
G01 X159.7423 Y93.8117
G01 X159.8117 Y93.7423
G01 X159.8183 Y93.7350
G01 X159.8805 Y93.6592
G01 X159.8864 Y93.6513
G01 X159.9409 Y93.5697
G01 X159.9460 Y93.5613
G01 X159.9922 Y93.4747
G01 X159.9964 Y93.4658
G01 X160.0340 Y93.3752
G01 X160.0373 Y93.3659
G01 X160.0658 Y93.2720
G01 X160.0682 Y93.2625
G01 X160.0873 Y93.1662
G01 X160.0887 Y93.1565
G01 X160.0984 Y93.0589
G01 X160.1000 Y93.0000
G01 X160.1000 Y2.0000
G01 X160.0984 Y1.9411
G01 X160.0887 Y1.8435
G01 X160.0873 Y1.8338
G01 X160.0682 Y1.7375
G01 X160.0658 Y1.7280
G01 X160.0373 Y1.6341
G01 X160.0340 Y1.6248
G01 X159.9964 Y1.5342
G01 X159.9922 Y1.5253
G01 X159.9460 Y1.4387
G01 X159.9409 Y1.4303
G01 X159.8864 Y1.3487
G01 X159.8805 Y1.3408
G01 X159.8183 Y1.2650
G01 X159.8117 Y1.2577
G01 X159.7423 Y1.1883
G01 X159.7350 Y1.1817
G01 X159.6592 Y1.1195
G01 X159.6513 Y1.1136
G01 X159.5697 Y1.0591
G01 X159.5613 Y1.0540
G01 X159.4747 Y1.0078
G01 X159.4658 Y1.0036
G01 X159.3752 Y0.9660
G01 X159.3659 Y0.9627
G01 X159.2720 Y0.9342
G01 X159.2625 Y0.9318
G01 X159.1662 Y0.9127
G01 X159.1565 Y0.9113
G01 X159.0589 Y0.9016
G01 X159.0000 Y0.9000
G01 X2.0000 Y0.9000
G01 X1.9411 Y0.9016
G01 X1.8435 Y0.9113
G01 X1.8338 Y0.9127
G01 X1.7375 Y0.9318
G01 X1.7280 Y0.9342
G01 X1.6341 Y0.9627
G01 X1.6248 Y0.9660
G01 X1.5342 Y1.0036
G01 X1.5253 Y1.0078
G01 X1.4387 Y1.0540
G01 X1.4303 Y1.0591
G01 X1.3487 Y1.1136
G01 X1.3408 Y1.1195
G01 X1.2650 Y1.1817
G01 X1.2577 Y1.1883
G01 X1.1883 Y1.2577
G01 X1.1817 Y1.2650
G01 X1.1195 Y1.3408
G01 X1.1136 Y1.3487
G01 X1.0591 Y1.4303
G01 X1.0540 Y1.4387
G01 X1.0078 Y1.5253
G01 X1.0036 Y1.5342
G01 X0.9660 Y1.6248
G01 X0.9627 Y1.6341
G01 X0.9342 Y1.7280
G01 X0.9318 Y1.7375
G01 X0.9127 Y1.8338
G01 X0.9113 Y1.8435
G01 X0.9016 Y1.9411
G01 X0.9012 Y1.9509
G00 X0.9012 Y1.9509
G01 F100.00
G01 Z-10.0000
G01 F200.00
G01 X0.9000 Y2.0000
G01 X0.9000 Y93.0000
G01 X0.9016 Y93.0589
G01 X0.9113 Y93.1565
G01 X0.9127 Y93.1662
G01 X0.9318 Y93.2625
G01 X0.9342 Y93.2720
G01 X0.9627 Y93.3659
G01 X0.9660 Y93.3752
G01 X1.0036 Y93.4658
G01 X1.0078 Y93.4747
G01 X1.0540 Y93.5613
G01 X1.0591 Y93.5697
G01 X1.1136 Y93.6513
G01 X1.1195 Y93.6592
G01 X1.1817 Y93.7350
G01 X1.1883 Y93.7423
G01 X1.2577 Y93.8117
G01 X1.2650 Y93.8183
G01 X1.3408 Y93.8805
G01 X1.3487 Y93.8864
G01 X1.4303 Y93.9409
G01 X1.4387 Y93.9460
G01 X1.5253 Y93.9922
G01 X1.5342 Y93.9964
G01 X1.6248 Y94.0340
G01 X1.6341 Y94.0373
G01 X1.7280 Y94.0658
G01 X1.7375 Y94.0682
G01 X1.8338 Y94.0873
G01 X1.8435 Y94.0887
G01 X1.9411 Y94.0984
G01 X2.0000 Y94.1000
G01 X159.0000 Y94.1000
G01 X159.0589 Y94.0984
G01 X159.1565 Y94.0887
G01 X159.1662 Y94.0873
G01 X159.2625 Y94.0682
G01 X159.2720 Y94.0658
G01 X159.3659 Y94.0373
G01 X159.3752 Y94.0340
G01 X159.4658 Y93.9964
G01 X159.4747 Y93.9922
G01 X159.5613 Y93.9460
G01 X159.5697 Y93.9409
G01 X159.6513 Y93.8864
G01 X159.6592 Y93.8805
G01 X159.7350 Y93.8183
G01 X159.7423 Y93.8117
G01 X159.8117 Y93.7423
G01 X159.8183 Y93.7350
G01 X159.8805 Y93.6592
G01 X159.8864 Y93.6513
G01 X159.9409 Y93.5697
G01 X159.9460 Y93.5613
G01 X159.9922 Y93.4747
G01 X159.9964 Y93.4658
G01 X160.0340 Y93.3752
G01 X160.0373 Y93.3659
G01 X160.0658 Y93.2720
G01 X160.0682 Y93.2625
G01 X160.0873 Y93.1662
G01 X160.0887 Y93.1565
G01 X160.0984 Y93.0589
G01 X160.1000 Y93.0000
G01 X160.1000 Y2.0000
G01 X160.0984 Y1.9411
G01 X160.0887 Y1.8435
G01 X160.0873 Y1.8338
G01 X160.0682 Y1.7375
G01 X160.0658 Y1.7280
G01 X160.0373 Y1.6341
G01 X160.0340 Y1.6248
G01 X159.9964 Y1.5342
G01 X159.9922 Y1.5253
G01 X159.9460 Y1.4387
G01 X159.9409 Y1.4303
G01 X159.8864 Y1.3487
G01 X159.8805 Y1.3408
G01 X159.8183 Y1.2650
G01 X159.8117 Y1.2577
G01 X159.7423 Y1.1883
G01 X159.7350 Y1.1817
G01 X159.6592 Y1.1195
G01 X159.6513 Y1.1136
G01 X159.5697 Y1.0591
G01 X159.5613 Y1.0540
G01 X159.4747 Y1.0078
G01 X159.4658 Y1.0036
G01 X159.3752 Y0.9660
G01 X159.3659 Y0.9627
G01 X159.2720 Y0.9342
G01 X159.2625 Y0.9318
G01 X159.1662 Y0.9127
G01 X159.1565 Y0.9113
G01 X159.0589 Y0.9016
G01 X159.0000 Y0.9000
G01 X2.0000 Y0.9000
G01 X1.9411 Y0.9016
G01 X1.8435 Y0.9113
G01 X1.8338 Y0.9127
G01 X1.7375 Y0.9318
G01 X1.7280 Y0.9342
G01 X1.6341 Y0.9627
G01 X1.6248 Y0.9660
G01 X1.5342 Y1.0036
G01 X1.5253 Y1.0078
G01 X1.4387 Y1.0540
G01 X1.4303 Y1.0591
G01 X1.3487 Y1.1136
G01 X1.3408 Y1.1195
G01 X1.2650 Y1.1817
G01 X1.2577 Y1.1883
G01 X1.1883 Y1.2577
G01 X1.1817 Y1.2650
G01 X1.1195 Y1.3408
G01 X1.1136 Y1.3487
G01 X1.0591 Y1.4303
G01 X1.0540 Y1.4387
G01 X1.0078 Y1.5253
G01 X1.0036 Y1.5342
G01 X0.9660 Y1.6248
G01 X0.9627 Y1.6341
G01 X0.9342 Y1.7280
G01 X0.9318 Y1.7375
G01 X0.9127 Y1.8338
G01 X0.9113 Y1.8435
G01 X0.9016 Y1.9411
G01 X0.9012 Y1.9509
G00 X0.9012 Y1.9509
G01 F100.00
G01 Z-10.2000
G01 F200.00
G01 X0.9000 Y2.0000
G01 X0.9000 Y93.0000
G01 X0.9016 Y93.0589
G01 X0.9113 Y93.1565
G01 X0.9127 Y93.1662
G01 X0.9318 Y93.2625
G01 X0.9342 Y93.2720
G01 X0.9627 Y93.3659
G01 X0.9660 Y93.3752
G01 X1.0036 Y93.4658
G01 X1.0078 Y93.4747
G01 X1.0540 Y93.5613
G01 X1.0591 Y93.5697
G01 X1.1136 Y93.6513
G01 X1.1195 Y93.6592
G01 X1.1817 Y93.7350
G01 X1.1883 Y93.7423
G01 X1.2577 Y93.8117
G01 X1.2650 Y93.8183
G01 X1.3408 Y93.8805
G01 X1.3487 Y93.8864
G01 X1.4303 Y93.9409
G01 X1.4387 Y93.9460
G01 X1.5253 Y93.9922
G01 X1.5342 Y93.9964
G01 X1.6248 Y94.0340
G01 X1.6341 Y94.0373
G01 X1.7280 Y94.0658
G01 X1.7375 Y94.0682
G01 X1.8338 Y94.0873
G01 X1.8435 Y94.0887
G01 X1.9411 Y94.0984
G01 X2.0000 Y94.1000
G01 X159.0000 Y94.1000
G01 X159.0589 Y94.0984
G01 X159.1565 Y94.0887
G01 X159.1662 Y94.0873
G01 X159.2625 Y94.0682
G01 X159.2720 Y94.0658
G01 X159.3659 Y94.0373
G01 X159.3752 Y94.0340
G01 X159.4658 Y93.9964
G01 X159.4747 Y93.9922
G01 X159.5613 Y93.9460
G01 X159.5697 Y93.9409
G01 X159.6513 Y93.8864
G01 X159.6592 Y93.8805
G01 X159.7350 Y93.8183
G01 X159.7423 Y93.8117
G01 X159.8117 Y93.7423
G01 X159.8183 Y93.7350
G01 X159.8805 Y93.6592
G01 X159.8864 Y93.6513
G01 X159.9409 Y93.5697
G01 X159.9460 Y93.5613
G01 X159.9922 Y93.4747
G01 X159.9964 Y93.4658
G01 X160.0340 Y93.3752
G01 X160.0373 Y93.3659
G01 X160.0658 Y93.2720
G01 X160.0682 Y93.2625
G01 X160.0873 Y93.1662
G01 X160.0887 Y93.1565
G01 X160.0984 Y93.0589
G01 X160.1000 Y93.0000
G01 X160.1000 Y2.0000
G01 X160.0984 Y1.9411
G01 X160.0887 Y1.8435
G01 X160.0873 Y1.8338
G01 X160.0682 Y1.7375
G01 X160.0658 Y1.7280
G01 X160.0373 Y1.6341
G01 X160.0340 Y1.6248
G01 X159.9964 Y1.5342
G01 X159.9922 Y1.5253
G01 X159.9460 Y1.4387
G01 X159.9409 Y1.4303
G01 X159.8864 Y1.3487
G01 X159.8805 Y1.3408
G01 X159.8183 Y1.2650
G01 X159.8117 Y1.2577
G01 X159.7423 Y1.1883
G01 X159.7350 Y1.1817
G01 X159.6592 Y1.1195
G01 X159.6513 Y1.1136
G01 X159.5697 Y1.0591
G01 X159.5613 Y1.0540
G01 X159.4747 Y1.0078
G01 X159.4658 Y1.0036
G01 X159.3752 Y0.9660
G01 X159.3659 Y0.9627
G01 X159.2720 Y0.9342
G01 X159.2625 Y0.9318
G01 X159.1662 Y0.9127
G01 X159.1565 Y0.9113
G01 X159.0589 Y0.9016
G01 X159.0000 Y0.9000
G01 X2.0000 Y0.9000
G01 X1.9411 Y0.9016
G01 X1.8435 Y0.9113
G01 X1.8338 Y0.9127
G01 X1.7375 Y0.9318
G01 X1.7280 Y0.9342
G01 X1.6341 Y0.9627
G01 X1.6248 Y0.9660
G01 X1.5342 Y1.0036
G01 X1.5253 Y1.0078
G01 X1.4387 Y1.0540
G01 X1.4303 Y1.0591
G01 X1.3487 Y1.1136
G01 X1.3408 Y1.1195
G01 X1.2650 Y1.1817
G01 X1.2577 Y1.1883
G01 X1.1883 Y1.2577
G01 X1.1817 Y1.2650
G01 X1.1195 Y1.3408
G01 X1.1136 Y1.3487
G01 X1.0591 Y1.4303
G01 X1.0540 Y1.4387
G01 X1.0078 Y1.5253
G01 X1.0036 Y1.5342
G01 X0.9660 Y1.6248
G01 X0.9627 Y1.6341
G01 X0.9342 Y1.7280
G01 X0.9318 Y1.7375
G01 X0.9127 Y1.8338
G01 X0.9113 Y1.8435
G01 X0.9016 Y1.9411
G01 X0.9012 Y1.9509
G00 Z2.0000
M05
G00 Z2.0000
G00 Z5.00
G00 X0.0 Y0.0

