(G-CODE GENERATED BY FLATCAM v8.991 - www.flatcam.org - Version Date: 2019/12/27)

(Name: Fentes_mill_slot_cnc_1)
(Type: G-code from Geometry)
(Units: MM)

(Created on Saturday, 28 September 2024 at 13:03)

(TOOL DIAMETER: 1.9 mm)
(Feedrate: 250.0 mm/min)
(Feedrate_Z: 100.0 mm/min)
(Feedrate rapids 1500.0 mm/min)

(Z_Cut: -10.2 mm)
(DepthPerCut: 0.4 mm <=>26 passes)
(Z_Move: 2.0 mm)
(Z Toolchange: 15.0 mm)
(X,Y Toolchange: 0.0000, 0.0000 mm)
(Z Start: None mm)
(Z End: 5.0 mm)
(Steps per circle: 64)
(Preprocessor Geometry: default)

(X range:   18.4501 ...   56.5503  mm)
(Y range:   33.4510 ...   61.5486  mm)

(Spindle Speed: 8000 RPM)
G21
G90
G94




G01 F250.00
G00 Z2.0000

M03 S8000
G00 X50.0008 Y33.5502
G01 F100.00
G01 Z-0.4000
G01 F250.00
G01 X50.0105 Y33.5492
G01 X50.0198 Y33.5464
G01 X50.0284 Y33.5418
G01 X50.0359 Y33.5357
G01 X50.0421 Y33.5281
G01 X50.0466 Y33.5196
G01 X50.0495 Y33.5103
G01 X50.0504 Y33.5006
G01 X50.0495 Y33.4909
G01 X50.0466 Y33.4816
G01 X50.0421 Y33.4730
G01 X50.0359 Y33.4655
G01 X50.0284 Y33.4593
G01 X50.0198 Y33.4548
G01 X50.0105 Y33.4519
G01 X50.0008 Y33.4510
G01 X24.9996 Y33.4510
G01 X24.9899 Y33.4519
G01 X24.9806 Y33.4548
G01 X24.9720 Y33.4593
G01 X24.9645 Y33.4655
G01 X24.9584 Y33.4730
G01 X24.9538 Y33.4816
G01 X24.9510 Y33.4909
G01 X24.9500 Y33.5006
G01 X24.9510 Y33.5103
G01 X24.9538 Y33.5196
G01 X24.9584 Y33.5281
G01 X24.9645 Y33.5357
G01 X24.9720 Y33.5418
G01 X24.9806 Y33.5464
G01 X24.9899 Y33.5492
G01 X24.9996 Y33.5502
G01 X50.0008 Y33.5502
G00 X50.0008 Y33.5502
G01 F100.00
G01 Z-0.8000
G01 F250.00
G01 X50.0105 Y33.5492
G01 X50.0198 Y33.5464
G01 X50.0284 Y33.5418
G01 X50.0359 Y33.5357
G01 X50.0421 Y33.5281
G01 X50.0466 Y33.5196
G01 X50.0495 Y33.5103
G01 X50.0504 Y33.5006
G01 X50.0495 Y33.4909
G01 X50.0466 Y33.4816
G01 X50.0421 Y33.4730
G01 X50.0359 Y33.4655
G01 X50.0284 Y33.4593
G01 X50.0198 Y33.4548
G01 X50.0105 Y33.4519
G01 X50.0008 Y33.4510
G01 X24.9996 Y33.4510
G01 X24.9899 Y33.4519
G01 X24.9806 Y33.4548
G01 X24.9720 Y33.4593
G01 X24.9645 Y33.4655
G01 X24.9584 Y33.4730
G01 X24.9538 Y33.4816
G01 X24.9510 Y33.4909
G01 X24.9500 Y33.5006
G01 X24.9510 Y33.5103
G01 X24.9538 Y33.5196
G01 X24.9584 Y33.5281
G01 X24.9645 Y33.5357
G01 X24.9720 Y33.5418
G01 X24.9806 Y33.5464
G01 X24.9899 Y33.5492
G01 X24.9996 Y33.5502
G01 X50.0008 Y33.5502
G00 X50.0008 Y33.5502
G01 F100.00
G01 Z-1.2000
G01 F250.00
G01 X50.0105 Y33.5492
G01 X50.0198 Y33.5464
G01 X50.0284 Y33.5418
G01 X50.0359 Y33.5357
G01 X50.0421 Y33.5281
G01 X50.0466 Y33.5196
G01 X50.0495 Y33.5103
G01 X50.0504 Y33.5006
G01 X50.0495 Y33.4909
G01 X50.0466 Y33.4816
G01 X50.0421 Y33.4730
G01 X50.0359 Y33.4655
G01 X50.0284 Y33.4593
G01 X50.0198 Y33.4548
G01 X50.0105 Y33.4519
G01 X50.0008 Y33.4510
G01 X24.9996 Y33.4510
G01 X24.9899 Y33.4519
G01 X24.9806 Y33.4548
G01 X24.9720 Y33.4593
G01 X24.9645 Y33.4655
G01 X24.9584 Y33.4730
G01 X24.9538 Y33.4816
G01 X24.9510 Y33.4909
G01 X24.9500 Y33.5006
G01 X24.9510 Y33.5103
G01 X24.9538 Y33.5196
G01 X24.9584 Y33.5281
G01 X24.9645 Y33.5357
G01 X24.9720 Y33.5418
G01 X24.9806 Y33.5464
G01 X24.9899 Y33.5492
G01 X24.9996 Y33.5502
G01 X50.0008 Y33.5502
G00 X50.0008 Y33.5502
G01 F100.00
G01 Z-1.6000
G01 F250.00
G01 X50.0105 Y33.5492
G01 X50.0198 Y33.5464
G01 X50.0284 Y33.5418
G01 X50.0359 Y33.5357
G01 X50.0421 Y33.5281
G01 X50.0466 Y33.5196
G01 X50.0495 Y33.5103
G01 X50.0504 Y33.5006
G01 X50.0495 Y33.4909
G01 X50.0466 Y33.4816
G01 X50.0421 Y33.4730
G01 X50.0359 Y33.4655
G01 X50.0284 Y33.4593
G01 X50.0198 Y33.4548
G01 X50.0105 Y33.4519
G01 X50.0008 Y33.4510
G01 X24.9996 Y33.4510
G01 X24.9899 Y33.4519
G01 X24.9806 Y33.4548
G01 X24.9720 Y33.4593
G01 X24.9645 Y33.4655
G01 X24.9584 Y33.4730
G01 X24.9538 Y33.4816
G01 X24.9510 Y33.4909
G01 X24.9500 Y33.5006
G01 X24.9510 Y33.5103
G01 X24.9538 Y33.5196
G01 X24.9584 Y33.5281
G01 X24.9645 Y33.5357
G01 X24.9720 Y33.5418
G01 X24.9806 Y33.5464
G01 X24.9899 Y33.5492
G01 X24.9996 Y33.5502
G01 X50.0008 Y33.5502
G00 X50.0008 Y33.5502
G01 F100.00
G01 Z-2.0000
G01 F250.00
G01 X50.0105 Y33.5492
G01 X50.0198 Y33.5464
G01 X50.0284 Y33.5418
G01 X50.0359 Y33.5357
G01 X50.0421 Y33.5281
G01 X50.0466 Y33.5196
G01 X50.0495 Y33.5103
G01 X50.0504 Y33.5006
G01 X50.0495 Y33.4909
G01 X50.0466 Y33.4816
G01 X50.0421 Y33.4730
G01 X50.0359 Y33.4655
G01 X50.0284 Y33.4593
G01 X50.0198 Y33.4548
G01 X50.0105 Y33.4519
G01 X50.0008 Y33.4510
G01 X24.9996 Y33.4510
G01 X24.9899 Y33.4519
G01 X24.9806 Y33.4548
G01 X24.9720 Y33.4593
G01 X24.9645 Y33.4655
G01 X24.9584 Y33.4730
G01 X24.9538 Y33.4816
G01 X24.9510 Y33.4909
G01 X24.9500 Y33.5006
G01 X24.9510 Y33.5103
G01 X24.9538 Y33.5196
G01 X24.9584 Y33.5281
G01 X24.9645 Y33.5357
G01 X24.9720 Y33.5418
G01 X24.9806 Y33.5464
G01 X24.9899 Y33.5492
G01 X24.9996 Y33.5502
G01 X50.0008 Y33.5502
G00 X50.0008 Y33.5502
G01 F100.00
G01 Z-2.4000
G01 F250.00
G01 X50.0105 Y33.5492
G01 X50.0198 Y33.5464
G01 X50.0284 Y33.5418
G01 X50.0359 Y33.5357
G01 X50.0421 Y33.5281
G01 X50.0466 Y33.5196
G01 X50.0495 Y33.5103
G01 X50.0504 Y33.5006
G01 X50.0495 Y33.4909
G01 X50.0466 Y33.4816
G01 X50.0421 Y33.4730
G01 X50.0359 Y33.4655
G01 X50.0284 Y33.4593
G01 X50.0198 Y33.4548
G01 X50.0105 Y33.4519
G01 X50.0008 Y33.4510
G01 X24.9996 Y33.4510
G01 X24.9899 Y33.4519
G01 X24.9806 Y33.4548
G01 X24.9720 Y33.4593
G01 X24.9645 Y33.4655
G01 X24.9584 Y33.4730
G01 X24.9538 Y33.4816
G01 X24.9510 Y33.4909
G01 X24.9500 Y33.5006
G01 X24.9510 Y33.5103
G01 X24.9538 Y33.5196
G01 X24.9584 Y33.5281
G01 X24.9645 Y33.5357
G01 X24.9720 Y33.5418
G01 X24.9806 Y33.5464
G01 X24.9899 Y33.5492
G01 X24.9996 Y33.5502
G01 X50.0008 Y33.5502
G00 X50.0008 Y33.5502
G01 F100.00
G01 Z-2.8000
G01 F250.00
G01 X50.0105 Y33.5492
G01 X50.0198 Y33.5464
G01 X50.0284 Y33.5418
G01 X50.0359 Y33.5357
G01 X50.0421 Y33.5281
G01 X50.0466 Y33.5196
G01 X50.0495 Y33.5103
G01 X50.0504 Y33.5006
G01 X50.0495 Y33.4909
G01 X50.0466 Y33.4816
G01 X50.0421 Y33.4730
G01 X50.0359 Y33.4655
G01 X50.0284 Y33.4593
G01 X50.0198 Y33.4548
G01 X50.0105 Y33.4519
G01 X50.0008 Y33.4510
G01 X24.9996 Y33.4510
G01 X24.9899 Y33.4519
G01 X24.9806 Y33.4548
G01 X24.9720 Y33.4593
G01 X24.9645 Y33.4655
G01 X24.9584 Y33.4730
G01 X24.9538 Y33.4816
G01 X24.9510 Y33.4909
G01 X24.9500 Y33.5006
G01 X24.9510 Y33.5103
G01 X24.9538 Y33.5196
G01 X24.9584 Y33.5281
G01 X24.9645 Y33.5357
G01 X24.9720 Y33.5418
G01 X24.9806 Y33.5464
G01 X24.9899 Y33.5492
G01 X24.9996 Y33.5502
G01 X50.0008 Y33.5502
G00 X50.0008 Y33.5502
G01 F100.00
G01 Z-3.2000
G01 F250.00
G01 X50.0105 Y33.5492
G01 X50.0198 Y33.5464
G01 X50.0284 Y33.5418
G01 X50.0359 Y33.5357
G01 X50.0421 Y33.5281
G01 X50.0466 Y33.5196
G01 X50.0495 Y33.5103
G01 X50.0504 Y33.5006
G01 X50.0495 Y33.4909
G01 X50.0466 Y33.4816
G01 X50.0421 Y33.4730
G01 X50.0359 Y33.4655
G01 X50.0284 Y33.4593
G01 X50.0198 Y33.4548
G01 X50.0105 Y33.4519
G01 X50.0008 Y33.4510
G01 X24.9996 Y33.4510
G01 X24.9899 Y33.4519
G01 X24.9806 Y33.4548
G01 X24.9720 Y33.4593
G01 X24.9645 Y33.4655
G01 X24.9584 Y33.4730
G01 X24.9538 Y33.4816
G01 X24.9510 Y33.4909
G01 X24.9500 Y33.5006
G01 X24.9510 Y33.5103
G01 X24.9538 Y33.5196
G01 X24.9584 Y33.5281
G01 X24.9645 Y33.5357
G01 X24.9720 Y33.5418
G01 X24.9806 Y33.5464
G01 X24.9899 Y33.5492
G01 X24.9996 Y33.5502
G01 X50.0008 Y33.5502
G00 X50.0008 Y33.5502
G01 F100.00
G01 Z-3.6000
G01 F250.00
G01 X50.0105 Y33.5492
G01 X50.0198 Y33.5464
G01 X50.0284 Y33.5418
G01 X50.0359 Y33.5357
G01 X50.0421 Y33.5281
G01 X50.0466 Y33.5196
G01 X50.0495 Y33.5103
G01 X50.0504 Y33.5006
G01 X50.0495 Y33.4909
G01 X50.0466 Y33.4816
G01 X50.0421 Y33.4730
G01 X50.0359 Y33.4655
G01 X50.0284 Y33.4593
G01 X50.0198 Y33.4548
G01 X50.0105 Y33.4519
G01 X50.0008 Y33.4510
G01 X24.9996 Y33.4510
G01 X24.9899 Y33.4519
G01 X24.9806 Y33.4548
G01 X24.9720 Y33.4593
G01 X24.9645 Y33.4655
G01 X24.9584 Y33.4730
G01 X24.9538 Y33.4816
G01 X24.9510 Y33.4909
G01 X24.9500 Y33.5006
G01 X24.9510 Y33.5103
G01 X24.9538 Y33.5196
G01 X24.9584 Y33.5281
G01 X24.9645 Y33.5357
G01 X24.9720 Y33.5418
G01 X24.9806 Y33.5464
G01 X24.9899 Y33.5492
G01 X24.9996 Y33.5502
G01 X50.0008 Y33.5502
G00 X50.0008 Y33.5502
G01 F100.00
G01 Z-4.0000
G01 F250.00
G01 X50.0105 Y33.5492
G01 X50.0198 Y33.5464
G01 X50.0284 Y33.5418
G01 X50.0359 Y33.5357
G01 X50.0421 Y33.5281
G01 X50.0466 Y33.5196
G01 X50.0495 Y33.5103
G01 X50.0504 Y33.5006
G01 X50.0495 Y33.4909
G01 X50.0466 Y33.4816
G01 X50.0421 Y33.4730
G01 X50.0359 Y33.4655
G01 X50.0284 Y33.4593
G01 X50.0198 Y33.4548
G01 X50.0105 Y33.4519
G01 X50.0008 Y33.4510
G01 X24.9996 Y33.4510
G01 X24.9899 Y33.4519
G01 X24.9806 Y33.4548
G01 X24.9720 Y33.4593
G01 X24.9645 Y33.4655
G01 X24.9584 Y33.4730
G01 X24.9538 Y33.4816
G01 X24.9510 Y33.4909
G01 X24.9500 Y33.5006
G01 X24.9510 Y33.5103
G01 X24.9538 Y33.5196
G01 X24.9584 Y33.5281
G01 X24.9645 Y33.5357
G01 X24.9720 Y33.5418
G01 X24.9806 Y33.5464
G01 X24.9899 Y33.5492
G01 X24.9996 Y33.5502
G01 X50.0008 Y33.5502
G00 X50.0008 Y33.5502
G01 F100.00
G01 Z-4.4000
G01 F250.00
G01 X50.0105 Y33.5492
G01 X50.0198 Y33.5464
G01 X50.0284 Y33.5418
G01 X50.0359 Y33.5357
G01 X50.0421 Y33.5281
G01 X50.0466 Y33.5196
G01 X50.0495 Y33.5103
G01 X50.0504 Y33.5006
G01 X50.0495 Y33.4909
G01 X50.0466 Y33.4816
G01 X50.0421 Y33.4730
G01 X50.0359 Y33.4655
G01 X50.0284 Y33.4593
G01 X50.0198 Y33.4548
G01 X50.0105 Y33.4519
G01 X50.0008 Y33.4510
G01 X24.9996 Y33.4510
G01 X24.9899 Y33.4519
G01 X24.9806 Y33.4548
G01 X24.9720 Y33.4593
G01 X24.9645 Y33.4655
G01 X24.9584 Y33.4730
G01 X24.9538 Y33.4816
G01 X24.9510 Y33.4909
G01 X24.9500 Y33.5006
G01 X24.9510 Y33.5103
G01 X24.9538 Y33.5196
G01 X24.9584 Y33.5281
G01 X24.9645 Y33.5357
G01 X24.9720 Y33.5418
G01 X24.9806 Y33.5464
G01 X24.9899 Y33.5492
G01 X24.9996 Y33.5502
G01 X50.0008 Y33.5502
G00 X50.0008 Y33.5502
G01 F100.00
G01 Z-4.8000
G01 F250.00
G01 X50.0105 Y33.5492
G01 X50.0198 Y33.5464
G01 X50.0284 Y33.5418
G01 X50.0359 Y33.5357
G01 X50.0421 Y33.5281
G01 X50.0466 Y33.5196
G01 X50.0495 Y33.5103
G01 X50.0504 Y33.5006
G01 X50.0495 Y33.4909
G01 X50.0466 Y33.4816
G01 X50.0421 Y33.4730
G01 X50.0359 Y33.4655
G01 X50.0284 Y33.4593
G01 X50.0198 Y33.4548
G01 X50.0105 Y33.4519
G01 X50.0008 Y33.4510
G01 X24.9996 Y33.4510
G01 X24.9899 Y33.4519
G01 X24.9806 Y33.4548
G01 X24.9720 Y33.4593
G01 X24.9645 Y33.4655
G01 X24.9584 Y33.4730
G01 X24.9538 Y33.4816
G01 X24.9510 Y33.4909
G01 X24.9500 Y33.5006
G01 X24.9510 Y33.5103
G01 X24.9538 Y33.5196
G01 X24.9584 Y33.5281
G01 X24.9645 Y33.5357
G01 X24.9720 Y33.5418
G01 X24.9806 Y33.5464
G01 X24.9899 Y33.5492
G01 X24.9996 Y33.5502
G01 X50.0008 Y33.5502
G00 X50.0008 Y33.5502
G01 F100.00
G01 Z-5.2000
G01 F250.00
G01 X50.0105 Y33.5492
G01 X50.0198 Y33.5464
G01 X50.0284 Y33.5418
G01 X50.0359 Y33.5357
G01 X50.0421 Y33.5281
G01 X50.0466 Y33.5196
G01 X50.0495 Y33.5103
G01 X50.0504 Y33.5006
G01 X50.0495 Y33.4909
G01 X50.0466 Y33.4816
G01 X50.0421 Y33.4730
G01 X50.0359 Y33.4655
G01 X50.0284 Y33.4593
G01 X50.0198 Y33.4548
G01 X50.0105 Y33.4519
G01 X50.0008 Y33.4510
G01 X24.9996 Y33.4510
G01 X24.9899 Y33.4519
G01 X24.9806 Y33.4548
G01 X24.9720 Y33.4593
G01 X24.9645 Y33.4655
G01 X24.9584 Y33.4730
G01 X24.9538 Y33.4816
G01 X24.9510 Y33.4909
G01 X24.9500 Y33.5006
G01 X24.9510 Y33.5103
G01 X24.9538 Y33.5196
G01 X24.9584 Y33.5281
G01 X24.9645 Y33.5357
G01 X24.9720 Y33.5418
G01 X24.9806 Y33.5464
G01 X24.9899 Y33.5492
G01 X24.9996 Y33.5502
G01 X50.0008 Y33.5502
G00 X50.0008 Y33.5502
G01 F100.00
G01 Z-5.6000
G01 F250.00
G01 X50.0105 Y33.5492
G01 X50.0198 Y33.5464
G01 X50.0284 Y33.5418
G01 X50.0359 Y33.5357
G01 X50.0421 Y33.5281
G01 X50.0466 Y33.5196
G01 X50.0495 Y33.5103
G01 X50.0504 Y33.5006
G01 X50.0495 Y33.4909
G01 X50.0466 Y33.4816
G01 X50.0421 Y33.4730
G01 X50.0359 Y33.4655
G01 X50.0284 Y33.4593
G01 X50.0198 Y33.4548
G01 X50.0105 Y33.4519
G01 X50.0008 Y33.4510
G01 X24.9996 Y33.4510
G01 X24.9899 Y33.4519
G01 X24.9806 Y33.4548
G01 X24.9720 Y33.4593
G01 X24.9645 Y33.4655
G01 X24.9584 Y33.4730
G01 X24.9538 Y33.4816
G01 X24.9510 Y33.4909
G01 X24.9500 Y33.5006
G01 X24.9510 Y33.5103
G01 X24.9538 Y33.5196
G01 X24.9584 Y33.5281
G01 X24.9645 Y33.5357
G01 X24.9720 Y33.5418
G01 X24.9806 Y33.5464
G01 X24.9899 Y33.5492
G01 X24.9996 Y33.5502
G01 X50.0008 Y33.5502
G00 X50.0008 Y33.5502
G01 F100.00
G01 Z-6.0000
G01 F250.00
G01 X50.0105 Y33.5492
G01 X50.0198 Y33.5464
G01 X50.0284 Y33.5418
G01 X50.0359 Y33.5357
G01 X50.0421 Y33.5281
G01 X50.0466 Y33.5196
G01 X50.0495 Y33.5103
G01 X50.0504 Y33.5006
G01 X50.0495 Y33.4909
G01 X50.0466 Y33.4816
G01 X50.0421 Y33.4730
G01 X50.0359 Y33.4655
G01 X50.0284 Y33.4593
G01 X50.0198 Y33.4548
G01 X50.0105 Y33.4519
G01 X50.0008 Y33.4510
G01 X24.9996 Y33.4510
G01 X24.9899 Y33.4519
G01 X24.9806 Y33.4548
G01 X24.9720 Y33.4593
G01 X24.9645 Y33.4655
G01 X24.9584 Y33.4730
G01 X24.9538 Y33.4816
G01 X24.9510 Y33.4909
G01 X24.9500 Y33.5006
G01 X24.9510 Y33.5103
G01 X24.9538 Y33.5196
G01 X24.9584 Y33.5281
G01 X24.9645 Y33.5357
G01 X24.9720 Y33.5418
G01 X24.9806 Y33.5464
G01 X24.9899 Y33.5492
G01 X24.9996 Y33.5502
G01 X50.0008 Y33.5502
G00 X50.0008 Y33.5502
G01 F100.00
G01 Z-6.4000
G01 F250.00
G01 X50.0105 Y33.5492
G01 X50.0198 Y33.5464
G01 X50.0284 Y33.5418
G01 X50.0359 Y33.5357
G01 X50.0421 Y33.5281
G01 X50.0466 Y33.5196
G01 X50.0495 Y33.5103
G01 X50.0504 Y33.5006
G01 X50.0495 Y33.4909
G01 X50.0466 Y33.4816
G01 X50.0421 Y33.4730
G01 X50.0359 Y33.4655
G01 X50.0284 Y33.4593
G01 X50.0198 Y33.4548
G01 X50.0105 Y33.4519
G01 X50.0008 Y33.4510
G01 X24.9996 Y33.4510
G01 X24.9899 Y33.4519
G01 X24.9806 Y33.4548
G01 X24.9720 Y33.4593
G01 X24.9645 Y33.4655
G01 X24.9584 Y33.4730
G01 X24.9538 Y33.4816
G01 X24.9510 Y33.4909
G01 X24.9500 Y33.5006
G01 X24.9510 Y33.5103
G01 X24.9538 Y33.5196
G01 X24.9584 Y33.5281
G01 X24.9645 Y33.5357
G01 X24.9720 Y33.5418
G01 X24.9806 Y33.5464
G01 X24.9899 Y33.5492
G01 X24.9996 Y33.5502
G01 X50.0008 Y33.5502
G00 X50.0008 Y33.5502
G01 F100.00
G01 Z-6.8000
G01 F250.00
G01 X50.0105 Y33.5492
G01 X50.0198 Y33.5464
G01 X50.0284 Y33.5418
G01 X50.0359 Y33.5357
G01 X50.0421 Y33.5281
G01 X50.0466 Y33.5196
G01 X50.0495 Y33.5103
G01 X50.0504 Y33.5006
G01 X50.0495 Y33.4909
G01 X50.0466 Y33.4816
G01 X50.0421 Y33.4730
G01 X50.0359 Y33.4655
G01 X50.0284 Y33.4593
G01 X50.0198 Y33.4548
G01 X50.0105 Y33.4519
G01 X50.0008 Y33.4510
G01 X24.9996 Y33.4510
G01 X24.9899 Y33.4519
G01 X24.9806 Y33.4548
G01 X24.9720 Y33.4593
G01 X24.9645 Y33.4655
G01 X24.9584 Y33.4730
G01 X24.9538 Y33.4816
G01 X24.9510 Y33.4909
G01 X24.9500 Y33.5006
G01 X24.9510 Y33.5103
G01 X24.9538 Y33.5196
G01 X24.9584 Y33.5281
G01 X24.9645 Y33.5357
G01 X24.9720 Y33.5418
G01 X24.9806 Y33.5464
G01 X24.9899 Y33.5492
G01 X24.9996 Y33.5502
G01 X50.0008 Y33.5502
G00 X50.0008 Y33.5502
G01 F100.00
G01 Z-7.2000
G01 F250.00
G01 X50.0105 Y33.5492
G01 X50.0198 Y33.5464
G01 X50.0284 Y33.5418
G01 X50.0359 Y33.5357
G01 X50.0421 Y33.5281
G01 X50.0466 Y33.5196
G01 X50.0495 Y33.5103
G01 X50.0504 Y33.5006
G01 X50.0495 Y33.4909
G01 X50.0466 Y33.4816
G01 X50.0421 Y33.4730
G01 X50.0359 Y33.4655
G01 X50.0284 Y33.4593
G01 X50.0198 Y33.4548
G01 X50.0105 Y33.4519
G01 X50.0008 Y33.4510
G01 X24.9996 Y33.4510
G01 X24.9899 Y33.4519
G01 X24.9806 Y33.4548
G01 X24.9720 Y33.4593
G01 X24.9645 Y33.4655
G01 X24.9584 Y33.4730
G01 X24.9538 Y33.4816
G01 X24.9510 Y33.4909
G01 X24.9500 Y33.5006
G01 X24.9510 Y33.5103
G01 X24.9538 Y33.5196
G01 X24.9584 Y33.5281
G01 X24.9645 Y33.5357
G01 X24.9720 Y33.5418
G01 X24.9806 Y33.5464
G01 X24.9899 Y33.5492
G01 X24.9996 Y33.5502
G01 X50.0008 Y33.5502
G00 X50.0008 Y33.5502
G01 F100.00
G01 Z-7.6000
G01 F250.00
G01 X50.0105 Y33.5492
G01 X50.0198 Y33.5464
G01 X50.0284 Y33.5418
G01 X50.0359 Y33.5357
G01 X50.0421 Y33.5281
G01 X50.0466 Y33.5196
G01 X50.0495 Y33.5103
G01 X50.0504 Y33.5006
G01 X50.0495 Y33.4909
G01 X50.0466 Y33.4816
G01 X50.0421 Y33.4730
G01 X50.0359 Y33.4655
G01 X50.0284 Y33.4593
G01 X50.0198 Y33.4548
G01 X50.0105 Y33.4519
G01 X50.0008 Y33.4510
G01 X24.9996 Y33.4510
G01 X24.9899 Y33.4519
G01 X24.9806 Y33.4548
G01 X24.9720 Y33.4593
G01 X24.9645 Y33.4655
G01 X24.9584 Y33.4730
G01 X24.9538 Y33.4816
G01 X24.9510 Y33.4909
G01 X24.9500 Y33.5006
G01 X24.9510 Y33.5103
G01 X24.9538 Y33.5196
G01 X24.9584 Y33.5281
G01 X24.9645 Y33.5357
G01 X24.9720 Y33.5418
G01 X24.9806 Y33.5464
G01 X24.9899 Y33.5492
G01 X24.9996 Y33.5502
G01 X50.0008 Y33.5502
G00 X50.0008 Y33.5502
G01 F100.00
G01 Z-8.0000
G01 F250.00
G01 X50.0105 Y33.5492
G01 X50.0198 Y33.5464
G01 X50.0284 Y33.5418
G01 X50.0359 Y33.5357
G01 X50.0421 Y33.5281
G01 X50.0466 Y33.5196
G01 X50.0495 Y33.5103
G01 X50.0504 Y33.5006
G01 X50.0495 Y33.4909
G01 X50.0466 Y33.4816
G01 X50.0421 Y33.4730
G01 X50.0359 Y33.4655
G01 X50.0284 Y33.4593
G01 X50.0198 Y33.4548
G01 X50.0105 Y33.4519
G01 X50.0008 Y33.4510
G01 X24.9996 Y33.4510
G01 X24.9899 Y33.4519
G01 X24.9806 Y33.4548
G01 X24.9720 Y33.4593
G01 X24.9645 Y33.4655
G01 X24.9584 Y33.4730
G01 X24.9538 Y33.4816
G01 X24.9510 Y33.4909
G01 X24.9500 Y33.5006
G01 X24.9510 Y33.5103
G01 X24.9538 Y33.5196
G01 X24.9584 Y33.5281
G01 X24.9645 Y33.5357
G01 X24.9720 Y33.5418
G01 X24.9806 Y33.5464
G01 X24.9899 Y33.5492
G01 X24.9996 Y33.5502
G01 X50.0008 Y33.5502
G00 X50.0008 Y33.5502
G01 F100.00
G01 Z-8.4000
G01 F250.00
G01 X50.0105 Y33.5492
G01 X50.0198 Y33.5464
G01 X50.0284 Y33.5418
G01 X50.0359 Y33.5357
G01 X50.0421 Y33.5281
G01 X50.0466 Y33.5196
G01 X50.0495 Y33.5103
G01 X50.0504 Y33.5006
G01 X50.0495 Y33.4909
G01 X50.0466 Y33.4816
G01 X50.0421 Y33.4730
G01 X50.0359 Y33.4655
G01 X50.0284 Y33.4593
G01 X50.0198 Y33.4548
G01 X50.0105 Y33.4519
G01 X50.0008 Y33.4510
G01 X24.9996 Y33.4510
G01 X24.9899 Y33.4519
G01 X24.9806 Y33.4548
G01 X24.9720 Y33.4593
G01 X24.9645 Y33.4655
G01 X24.9584 Y33.4730
G01 X24.9538 Y33.4816
G01 X24.9510 Y33.4909
G01 X24.9500 Y33.5006
G01 X24.9510 Y33.5103
G01 X24.9538 Y33.5196
G01 X24.9584 Y33.5281
G01 X24.9645 Y33.5357
G01 X24.9720 Y33.5418
G01 X24.9806 Y33.5464
G01 X24.9899 Y33.5492
G01 X24.9996 Y33.5502
G01 X50.0008 Y33.5502
G00 X50.0008 Y33.5502
G01 F100.00
G01 Z-8.8000
G01 F250.00
G01 X50.0105 Y33.5492
G01 X50.0198 Y33.5464
G01 X50.0284 Y33.5418
G01 X50.0359 Y33.5357
G01 X50.0421 Y33.5281
G01 X50.0466 Y33.5196
G01 X50.0495 Y33.5103
G01 X50.0504 Y33.5006
G01 X50.0495 Y33.4909
G01 X50.0466 Y33.4816
G01 X50.0421 Y33.4730
G01 X50.0359 Y33.4655
G01 X50.0284 Y33.4593
G01 X50.0198 Y33.4548
G01 X50.0105 Y33.4519
G01 X50.0008 Y33.4510
G01 X24.9996 Y33.4510
G01 X24.9899 Y33.4519
G01 X24.9806 Y33.4548
G01 X24.9720 Y33.4593
G01 X24.9645 Y33.4655
G01 X24.9584 Y33.4730
G01 X24.9538 Y33.4816
G01 X24.9510 Y33.4909
G01 X24.9500 Y33.5006
G01 X24.9510 Y33.5103
G01 X24.9538 Y33.5196
G01 X24.9584 Y33.5281
G01 X24.9645 Y33.5357
G01 X24.9720 Y33.5418
G01 X24.9806 Y33.5464
G01 X24.9899 Y33.5492
G01 X24.9996 Y33.5502
G01 X50.0008 Y33.5502
G00 X50.0008 Y33.5502
G01 F100.00
G01 Z-9.2000
G01 F250.00
G01 X50.0105 Y33.5492
G01 X50.0198 Y33.5464
G01 X50.0284 Y33.5418
G01 X50.0359 Y33.5357
G01 X50.0421 Y33.5281
G01 X50.0466 Y33.5196
G01 X50.0495 Y33.5103
G01 X50.0504 Y33.5006
G01 X50.0495 Y33.4909
G01 X50.0466 Y33.4816
G01 X50.0421 Y33.4730
G01 X50.0359 Y33.4655
G01 X50.0284 Y33.4593
G01 X50.0198 Y33.4548
G01 X50.0105 Y33.4519
G01 X50.0008 Y33.4510
G01 X24.9996 Y33.4510
G01 X24.9899 Y33.4519
G01 X24.9806 Y33.4548
G01 X24.9720 Y33.4593
G01 X24.9645 Y33.4655
G01 X24.9584 Y33.4730
G01 X24.9538 Y33.4816
G01 X24.9510 Y33.4909
G01 X24.9500 Y33.5006
G01 X24.9510 Y33.5103
G01 X24.9538 Y33.5196
G01 X24.9584 Y33.5281
G01 X24.9645 Y33.5357
G01 X24.9720 Y33.5418
G01 X24.9806 Y33.5464
G01 X24.9899 Y33.5492
G01 X24.9996 Y33.5502
G01 X50.0008 Y33.5502
G00 X50.0008 Y33.5502
G01 F100.00
G01 Z-9.6000
G01 F250.00
G01 X50.0105 Y33.5492
G01 X50.0198 Y33.5464
G01 X50.0284 Y33.5418
G01 X50.0359 Y33.5357
G01 X50.0421 Y33.5281
G01 X50.0466 Y33.5196
G01 X50.0495 Y33.5103
G01 X50.0504 Y33.5006
G01 X50.0495 Y33.4909
G01 X50.0466 Y33.4816
G01 X50.0421 Y33.4730
G01 X50.0359 Y33.4655
G01 X50.0284 Y33.4593
G01 X50.0198 Y33.4548
G01 X50.0105 Y33.4519
G01 X50.0008 Y33.4510
G01 X24.9996 Y33.4510
G01 X24.9899 Y33.4519
G01 X24.9806 Y33.4548
G01 X24.9720 Y33.4593
G01 X24.9645 Y33.4655
G01 X24.9584 Y33.4730
G01 X24.9538 Y33.4816
G01 X24.9510 Y33.4909
G01 X24.9500 Y33.5006
G01 X24.9510 Y33.5103
G01 X24.9538 Y33.5196
G01 X24.9584 Y33.5281
G01 X24.9645 Y33.5357
G01 X24.9720 Y33.5418
G01 X24.9806 Y33.5464
G01 X24.9899 Y33.5492
G01 X24.9996 Y33.5502
G01 X50.0008 Y33.5502
G00 X50.0008 Y33.5502
G01 F100.00
G01 Z-10.0000
G01 F250.00
G01 X50.0105 Y33.5492
G01 X50.0198 Y33.5464
G01 X50.0284 Y33.5418
G01 X50.0359 Y33.5357
G01 X50.0421 Y33.5281
G01 X50.0466 Y33.5196
G01 X50.0495 Y33.5103
G01 X50.0504 Y33.5006
G01 X50.0495 Y33.4909
G01 X50.0466 Y33.4816
G01 X50.0421 Y33.4730
G01 X50.0359 Y33.4655
G01 X50.0284 Y33.4593
G01 X50.0198 Y33.4548
G01 X50.0105 Y33.4519
G01 X50.0008 Y33.4510
G01 X24.9996 Y33.4510
G01 X24.9899 Y33.4519
G01 X24.9806 Y33.4548
G01 X24.9720 Y33.4593
G01 X24.9645 Y33.4655
G01 X24.9584 Y33.4730
G01 X24.9538 Y33.4816
G01 X24.9510 Y33.4909
G01 X24.9500 Y33.5006
G01 X24.9510 Y33.5103
G01 X24.9538 Y33.5196
G01 X24.9584 Y33.5281
G01 X24.9645 Y33.5357
G01 X24.9720 Y33.5418
G01 X24.9806 Y33.5464
G01 X24.9899 Y33.5492
G01 X24.9996 Y33.5502
G01 X50.0008 Y33.5502
G00 X50.0008 Y33.5502
G01 F100.00
G01 Z-10.2000
G01 F250.00
G01 X50.0105 Y33.5492
G01 X50.0198 Y33.5464
G01 X50.0284 Y33.5418
G01 X50.0359 Y33.5357
G01 X50.0421 Y33.5281
G01 X50.0466 Y33.5196
G01 X50.0495 Y33.5103
G01 X50.0504 Y33.5006
G01 X50.0495 Y33.4909
G01 X50.0466 Y33.4816
G01 X50.0421 Y33.4730
G01 X50.0359 Y33.4655
G01 X50.0284 Y33.4593
G01 X50.0198 Y33.4548
G01 X50.0105 Y33.4519
G01 X50.0008 Y33.4510
G01 X24.9996 Y33.4510
G01 X24.9899 Y33.4519
G01 X24.9806 Y33.4548
G01 X24.9720 Y33.4593
G01 X24.9645 Y33.4655
G01 X24.9584 Y33.4730
G01 X24.9538 Y33.4816
G01 X24.9510 Y33.4909
G01 X24.9500 Y33.5006
G01 X24.9510 Y33.5103
G01 X24.9538 Y33.5196
G01 X24.9584 Y33.5281
G01 X24.9645 Y33.5357
G01 X24.9720 Y33.5418
G01 X24.9806 Y33.5464
G01 X24.9899 Y33.5492
G01 X24.9996 Y33.5502
G01 X50.0008 Y33.5502
G00 Z2.0000
G00 X54.9995 Y40.5504
G01 F100.00
G01 Z-0.4000
G01 F250.00
G01 X55.0092 Y40.5495
G01 X55.0185 Y40.5466
G01 X55.0271 Y40.5421
G01 X55.0346 Y40.5359
G01 X55.0408 Y40.5284
G01 X55.0454 Y40.5198
G01 X55.0482 Y40.5105
G01 X55.0491 Y40.5008
G01 X55.0482 Y40.4911
G01 X55.0454 Y40.4818
G01 X55.0408 Y40.4733
G01 X55.0346 Y40.4657
G01 X55.0271 Y40.4596
G01 X55.0185 Y40.4550
G01 X55.0092 Y40.4522
G01 X54.9995 Y40.4512
G01 X20.0009 Y40.4512
G01 X19.9912 Y40.4522
G01 X19.9819 Y40.4550
G01 X19.9733 Y40.4596
G01 X19.9658 Y40.4657
G01 X19.9596 Y40.4733
G01 X19.9551 Y40.4818
G01 X19.9522 Y40.4911
G01 X19.9513 Y40.5008
G01 X19.9522 Y40.5105
G01 X19.9551 Y40.5198
G01 X19.9596 Y40.5284
G01 X19.9658 Y40.5359
G01 X19.9733 Y40.5421
G01 X19.9819 Y40.5466
G01 X19.9912 Y40.5495
G01 X20.0009 Y40.5504
G01 X54.9995 Y40.5504
G00 X54.9995 Y40.5504
G01 F100.00
G01 Z-0.8000
G01 F250.00
G01 X55.0092 Y40.5495
G01 X55.0185 Y40.5466
G01 X55.0271 Y40.5421
G01 X55.0346 Y40.5359
G01 X55.0408 Y40.5284
G01 X55.0454 Y40.5198
G01 X55.0482 Y40.5105
G01 X55.0491 Y40.5008
G01 X55.0482 Y40.4911
G01 X55.0454 Y40.4818
G01 X55.0408 Y40.4733
G01 X55.0346 Y40.4657
G01 X55.0271 Y40.4596
G01 X55.0185 Y40.4550
G01 X55.0092 Y40.4522
G01 X54.9995 Y40.4512
G01 X20.0009 Y40.4512
G01 X19.9912 Y40.4522
G01 X19.9819 Y40.4550
G01 X19.9733 Y40.4596
G01 X19.9658 Y40.4657
G01 X19.9596 Y40.4733
G01 X19.9551 Y40.4818
G01 X19.9522 Y40.4911
G01 X19.9513 Y40.5008
G01 X19.9522 Y40.5105
G01 X19.9551 Y40.5198
G01 X19.9596 Y40.5284
G01 X19.9658 Y40.5359
G01 X19.9733 Y40.5421
G01 X19.9819 Y40.5466
G01 X19.9912 Y40.5495
G01 X20.0009 Y40.5504
G01 X54.9995 Y40.5504
G00 X54.9995 Y40.5504
G01 F100.00
G01 Z-1.2000
G01 F250.00
G01 X55.0092 Y40.5495
G01 X55.0185 Y40.5466
G01 X55.0271 Y40.5421
G01 X55.0346 Y40.5359
G01 X55.0408 Y40.5284
G01 X55.0454 Y40.5198
G01 X55.0482 Y40.5105
G01 X55.0491 Y40.5008
G01 X55.0482 Y40.4911
G01 X55.0454 Y40.4818
G01 X55.0408 Y40.4733
G01 X55.0346 Y40.4657
G01 X55.0271 Y40.4596
G01 X55.0185 Y40.4550
G01 X55.0092 Y40.4522
G01 X54.9995 Y40.4512
G01 X20.0009 Y40.4512
G01 X19.9912 Y40.4522
G01 X19.9819 Y40.4550
G01 X19.9733 Y40.4596
G01 X19.9658 Y40.4657
G01 X19.9596 Y40.4733
G01 X19.9551 Y40.4818
G01 X19.9522 Y40.4911
G01 X19.9513 Y40.5008
G01 X19.9522 Y40.5105
G01 X19.9551 Y40.5198
G01 X19.9596 Y40.5284
G01 X19.9658 Y40.5359
G01 X19.9733 Y40.5421
G01 X19.9819 Y40.5466
G01 X19.9912 Y40.5495
G01 X20.0009 Y40.5504
G01 X54.9995 Y40.5504
G00 X54.9995 Y40.5504
G01 F100.00
G01 Z-1.6000
G01 F250.00
G01 X55.0092 Y40.5495
G01 X55.0185 Y40.5466
G01 X55.0271 Y40.5421
G01 X55.0346 Y40.5359
G01 X55.0408 Y40.5284
G01 X55.0454 Y40.5198
G01 X55.0482 Y40.5105
G01 X55.0491 Y40.5008
G01 X55.0482 Y40.4911
G01 X55.0454 Y40.4818
G01 X55.0408 Y40.4733
G01 X55.0346 Y40.4657
G01 X55.0271 Y40.4596
G01 X55.0185 Y40.4550
G01 X55.0092 Y40.4522
G01 X54.9995 Y40.4512
G01 X20.0009 Y40.4512
G01 X19.9912 Y40.4522
G01 X19.9819 Y40.4550
G01 X19.9733 Y40.4596
G01 X19.9658 Y40.4657
G01 X19.9596 Y40.4733
G01 X19.9551 Y40.4818
G01 X19.9522 Y40.4911
G01 X19.9513 Y40.5008
G01 X19.9522 Y40.5105
G01 X19.9551 Y40.5198
G01 X19.9596 Y40.5284
G01 X19.9658 Y40.5359
G01 X19.9733 Y40.5421
G01 X19.9819 Y40.5466
G01 X19.9912 Y40.5495
G01 X20.0009 Y40.5504
G01 X54.9995 Y40.5504
G00 X54.9995 Y40.5504
G01 F100.00
G01 Z-2.0000
G01 F250.00
G01 X55.0092 Y40.5495
G01 X55.0185 Y40.5466
G01 X55.0271 Y40.5421
G01 X55.0346 Y40.5359
G01 X55.0408 Y40.5284
G01 X55.0454 Y40.5198
G01 X55.0482 Y40.5105
G01 X55.0491 Y40.5008
G01 X55.0482 Y40.4911
G01 X55.0454 Y40.4818
G01 X55.0408 Y40.4733
G01 X55.0346 Y40.4657
G01 X55.0271 Y40.4596
G01 X55.0185 Y40.4550
G01 X55.0092 Y40.4522
G01 X54.9995 Y40.4512
G01 X20.0009 Y40.4512
G01 X19.9912 Y40.4522
G01 X19.9819 Y40.4550
G01 X19.9733 Y40.4596
G01 X19.9658 Y40.4657
G01 X19.9596 Y40.4733
G01 X19.9551 Y40.4818
G01 X19.9522 Y40.4911
G01 X19.9513 Y40.5008
G01 X19.9522 Y40.5105
G01 X19.9551 Y40.5198
G01 X19.9596 Y40.5284
G01 X19.9658 Y40.5359
G01 X19.9733 Y40.5421
G01 X19.9819 Y40.5466
G01 X19.9912 Y40.5495
G01 X20.0009 Y40.5504
G01 X54.9995 Y40.5504
G00 X54.9995 Y40.5504
G01 F100.00
G01 Z-2.4000
G01 F250.00
G01 X55.0092 Y40.5495
G01 X55.0185 Y40.5466
G01 X55.0271 Y40.5421
G01 X55.0346 Y40.5359
G01 X55.0408 Y40.5284
G01 X55.0454 Y40.5198
G01 X55.0482 Y40.5105
G01 X55.0491 Y40.5008
G01 X55.0482 Y40.4911
G01 X55.0454 Y40.4818
G01 X55.0408 Y40.4733
G01 X55.0346 Y40.4657
G01 X55.0271 Y40.4596
G01 X55.0185 Y40.4550
G01 X55.0092 Y40.4522
G01 X54.9995 Y40.4512
G01 X20.0009 Y40.4512
G01 X19.9912 Y40.4522
G01 X19.9819 Y40.4550
G01 X19.9733 Y40.4596
G01 X19.9658 Y40.4657
G01 X19.9596 Y40.4733
G01 X19.9551 Y40.4818
G01 X19.9522 Y40.4911
G01 X19.9513 Y40.5008
G01 X19.9522 Y40.5105
G01 X19.9551 Y40.5198
G01 X19.9596 Y40.5284
G01 X19.9658 Y40.5359
G01 X19.9733 Y40.5421
G01 X19.9819 Y40.5466
G01 X19.9912 Y40.5495
G01 X20.0009 Y40.5504
G01 X54.9995 Y40.5504
G00 X54.9995 Y40.5504
G01 F100.00
G01 Z-2.8000
G01 F250.00
G01 X55.0092 Y40.5495
G01 X55.0185 Y40.5466
G01 X55.0271 Y40.5421
G01 X55.0346 Y40.5359
G01 X55.0408 Y40.5284
G01 X55.0454 Y40.5198
G01 X55.0482 Y40.5105
G01 X55.0491 Y40.5008
G01 X55.0482 Y40.4911
G01 X55.0454 Y40.4818
G01 X55.0408 Y40.4733
G01 X55.0346 Y40.4657
G01 X55.0271 Y40.4596
G01 X55.0185 Y40.4550
G01 X55.0092 Y40.4522
G01 X54.9995 Y40.4512
G01 X20.0009 Y40.4512
G01 X19.9912 Y40.4522
G01 X19.9819 Y40.4550
G01 X19.9733 Y40.4596
G01 X19.9658 Y40.4657
G01 X19.9596 Y40.4733
G01 X19.9551 Y40.4818
G01 X19.9522 Y40.4911
G01 X19.9513 Y40.5008
G01 X19.9522 Y40.5105
G01 X19.9551 Y40.5198
G01 X19.9596 Y40.5284
G01 X19.9658 Y40.5359
G01 X19.9733 Y40.5421
G01 X19.9819 Y40.5466
G01 X19.9912 Y40.5495
G01 X20.0009 Y40.5504
G01 X54.9995 Y40.5504
G00 X54.9995 Y40.5504
G01 F100.00
G01 Z-3.2000
G01 F250.00
G01 X55.0092 Y40.5495
G01 X55.0185 Y40.5466
G01 X55.0271 Y40.5421
G01 X55.0346 Y40.5359
G01 X55.0408 Y40.5284
G01 X55.0454 Y40.5198
G01 X55.0482 Y40.5105
G01 X55.0491 Y40.5008
G01 X55.0482 Y40.4911
G01 X55.0454 Y40.4818
G01 X55.0408 Y40.4733
G01 X55.0346 Y40.4657
G01 X55.0271 Y40.4596
G01 X55.0185 Y40.4550
G01 X55.0092 Y40.4522
G01 X54.9995 Y40.4512
G01 X20.0009 Y40.4512
G01 X19.9912 Y40.4522
G01 X19.9819 Y40.4550
G01 X19.9733 Y40.4596
G01 X19.9658 Y40.4657
G01 X19.9596 Y40.4733
G01 X19.9551 Y40.4818
G01 X19.9522 Y40.4911
G01 X19.9513 Y40.5008
G01 X19.9522 Y40.5105
G01 X19.9551 Y40.5198
G01 X19.9596 Y40.5284
G01 X19.9658 Y40.5359
G01 X19.9733 Y40.5421
G01 X19.9819 Y40.5466
G01 X19.9912 Y40.5495
G01 X20.0009 Y40.5504
G01 X54.9995 Y40.5504
G00 X54.9995 Y40.5504
G01 F100.00
G01 Z-3.6000
G01 F250.00
G01 X55.0092 Y40.5495
G01 X55.0185 Y40.5466
G01 X55.0271 Y40.5421
G01 X55.0346 Y40.5359
G01 X55.0408 Y40.5284
G01 X55.0454 Y40.5198
G01 X55.0482 Y40.5105
G01 X55.0491 Y40.5008
G01 X55.0482 Y40.4911
G01 X55.0454 Y40.4818
G01 X55.0408 Y40.4733
G01 X55.0346 Y40.4657
G01 X55.0271 Y40.4596
G01 X55.0185 Y40.4550
G01 X55.0092 Y40.4522
G01 X54.9995 Y40.4512
G01 X20.0009 Y40.4512
G01 X19.9912 Y40.4522
G01 X19.9819 Y40.4550
G01 X19.9733 Y40.4596
G01 X19.9658 Y40.4657
G01 X19.9596 Y40.4733
G01 X19.9551 Y40.4818
G01 X19.9522 Y40.4911
G01 X19.9513 Y40.5008
G01 X19.9522 Y40.5105
G01 X19.9551 Y40.5198
G01 X19.9596 Y40.5284
G01 X19.9658 Y40.5359
G01 X19.9733 Y40.5421
G01 X19.9819 Y40.5466
G01 X19.9912 Y40.5495
G01 X20.0009 Y40.5504
G01 X54.9995 Y40.5504
G00 X54.9995 Y40.5504
G01 F100.00
G01 Z-4.0000
G01 F250.00
G01 X55.0092 Y40.5495
G01 X55.0185 Y40.5466
G01 X55.0271 Y40.5421
G01 X55.0346 Y40.5359
G01 X55.0408 Y40.5284
G01 X55.0454 Y40.5198
G01 X55.0482 Y40.5105
G01 X55.0491 Y40.5008
G01 X55.0482 Y40.4911
G01 X55.0454 Y40.4818
G01 X55.0408 Y40.4733
G01 X55.0346 Y40.4657
G01 X55.0271 Y40.4596
G01 X55.0185 Y40.4550
G01 X55.0092 Y40.4522
G01 X54.9995 Y40.4512
G01 X20.0009 Y40.4512
G01 X19.9912 Y40.4522
G01 X19.9819 Y40.4550
G01 X19.9733 Y40.4596
G01 X19.9658 Y40.4657
G01 X19.9596 Y40.4733
G01 X19.9551 Y40.4818
G01 X19.9522 Y40.4911
G01 X19.9513 Y40.5008
G01 X19.9522 Y40.5105
G01 X19.9551 Y40.5198
G01 X19.9596 Y40.5284
G01 X19.9658 Y40.5359
G01 X19.9733 Y40.5421
G01 X19.9819 Y40.5466
G01 X19.9912 Y40.5495
G01 X20.0009 Y40.5504
G01 X54.9995 Y40.5504
G00 X54.9995 Y40.5504
G01 F100.00
G01 Z-4.4000
G01 F250.00
G01 X55.0092 Y40.5495
G01 X55.0185 Y40.5466
G01 X55.0271 Y40.5421
G01 X55.0346 Y40.5359
G01 X55.0408 Y40.5284
G01 X55.0454 Y40.5198
G01 X55.0482 Y40.5105
G01 X55.0491 Y40.5008
G01 X55.0482 Y40.4911
G01 X55.0454 Y40.4818
G01 X55.0408 Y40.4733
G01 X55.0346 Y40.4657
G01 X55.0271 Y40.4596
G01 X55.0185 Y40.4550
G01 X55.0092 Y40.4522
G01 X54.9995 Y40.4512
G01 X20.0009 Y40.4512
G01 X19.9912 Y40.4522
G01 X19.9819 Y40.4550
G01 X19.9733 Y40.4596
G01 X19.9658 Y40.4657
G01 X19.9596 Y40.4733
G01 X19.9551 Y40.4818
G01 X19.9522 Y40.4911
G01 X19.9513 Y40.5008
G01 X19.9522 Y40.5105
G01 X19.9551 Y40.5198
G01 X19.9596 Y40.5284
G01 X19.9658 Y40.5359
G01 X19.9733 Y40.5421
G01 X19.9819 Y40.5466
G01 X19.9912 Y40.5495
G01 X20.0009 Y40.5504
G01 X54.9995 Y40.5504
G00 X54.9995 Y40.5504
G01 F100.00
G01 Z-4.8000
G01 F250.00
G01 X55.0092 Y40.5495
G01 X55.0185 Y40.5466
G01 X55.0271 Y40.5421
G01 X55.0346 Y40.5359
G01 X55.0408 Y40.5284
G01 X55.0454 Y40.5198
G01 X55.0482 Y40.5105
G01 X55.0491 Y40.5008
G01 X55.0482 Y40.4911
G01 X55.0454 Y40.4818
G01 X55.0408 Y40.4733
G01 X55.0346 Y40.4657
G01 X55.0271 Y40.4596
G01 X55.0185 Y40.4550
G01 X55.0092 Y40.4522
G01 X54.9995 Y40.4512
G01 X20.0009 Y40.4512
G01 X19.9912 Y40.4522
G01 X19.9819 Y40.4550
G01 X19.9733 Y40.4596
G01 X19.9658 Y40.4657
G01 X19.9596 Y40.4733
G01 X19.9551 Y40.4818
G01 X19.9522 Y40.4911
G01 X19.9513 Y40.5008
G01 X19.9522 Y40.5105
G01 X19.9551 Y40.5198
G01 X19.9596 Y40.5284
G01 X19.9658 Y40.5359
G01 X19.9733 Y40.5421
G01 X19.9819 Y40.5466
G01 X19.9912 Y40.5495
G01 X20.0009 Y40.5504
G01 X54.9995 Y40.5504
G00 X54.9995 Y40.5504
G01 F100.00
G01 Z-5.2000
G01 F250.00
G01 X55.0092 Y40.5495
G01 X55.0185 Y40.5466
G01 X55.0271 Y40.5421
G01 X55.0346 Y40.5359
G01 X55.0408 Y40.5284
G01 X55.0454 Y40.5198
G01 X55.0482 Y40.5105
G01 X55.0491 Y40.5008
G01 X55.0482 Y40.4911
G01 X55.0454 Y40.4818
G01 X55.0408 Y40.4733
G01 X55.0346 Y40.4657
G01 X55.0271 Y40.4596
G01 X55.0185 Y40.4550
G01 X55.0092 Y40.4522
G01 X54.9995 Y40.4512
G01 X20.0009 Y40.4512
G01 X19.9912 Y40.4522
G01 X19.9819 Y40.4550
G01 X19.9733 Y40.4596
G01 X19.9658 Y40.4657
G01 X19.9596 Y40.4733
G01 X19.9551 Y40.4818
G01 X19.9522 Y40.4911
G01 X19.9513 Y40.5008
G01 X19.9522 Y40.5105
G01 X19.9551 Y40.5198
G01 X19.9596 Y40.5284
G01 X19.9658 Y40.5359
G01 X19.9733 Y40.5421
G01 X19.9819 Y40.5466
G01 X19.9912 Y40.5495
G01 X20.0009 Y40.5504
G01 X54.9995 Y40.5504
G00 X54.9995 Y40.5504
G01 F100.00
G01 Z-5.6000
G01 F250.00
G01 X55.0092 Y40.5495
G01 X55.0185 Y40.5466
G01 X55.0271 Y40.5421
G01 X55.0346 Y40.5359
G01 X55.0408 Y40.5284
G01 X55.0454 Y40.5198
G01 X55.0482 Y40.5105
G01 X55.0491 Y40.5008
G01 X55.0482 Y40.4911
G01 X55.0454 Y40.4818
G01 X55.0408 Y40.4733
G01 X55.0346 Y40.4657
G01 X55.0271 Y40.4596
G01 X55.0185 Y40.4550
G01 X55.0092 Y40.4522
G01 X54.9995 Y40.4512
G01 X20.0009 Y40.4512
G01 X19.9912 Y40.4522
G01 X19.9819 Y40.4550
G01 X19.9733 Y40.4596
G01 X19.9658 Y40.4657
G01 X19.9596 Y40.4733
G01 X19.9551 Y40.4818
G01 X19.9522 Y40.4911
G01 X19.9513 Y40.5008
G01 X19.9522 Y40.5105
G01 X19.9551 Y40.5198
G01 X19.9596 Y40.5284
G01 X19.9658 Y40.5359
G01 X19.9733 Y40.5421
G01 X19.9819 Y40.5466
G01 X19.9912 Y40.5495
G01 X20.0009 Y40.5504
G01 X54.9995 Y40.5504
G00 X54.9995 Y40.5504
G01 F100.00
G01 Z-6.0000
G01 F250.00
G01 X55.0092 Y40.5495
G01 X55.0185 Y40.5466
G01 X55.0271 Y40.5421
G01 X55.0346 Y40.5359
G01 X55.0408 Y40.5284
G01 X55.0454 Y40.5198
G01 X55.0482 Y40.5105
G01 X55.0491 Y40.5008
G01 X55.0482 Y40.4911
G01 X55.0454 Y40.4818
G01 X55.0408 Y40.4733
G01 X55.0346 Y40.4657
G01 X55.0271 Y40.4596
G01 X55.0185 Y40.4550
G01 X55.0092 Y40.4522
G01 X54.9995 Y40.4512
G01 X20.0009 Y40.4512
G01 X19.9912 Y40.4522
G01 X19.9819 Y40.4550
G01 X19.9733 Y40.4596
G01 X19.9658 Y40.4657
G01 X19.9596 Y40.4733
G01 X19.9551 Y40.4818
G01 X19.9522 Y40.4911
G01 X19.9513 Y40.5008
G01 X19.9522 Y40.5105
G01 X19.9551 Y40.5198
G01 X19.9596 Y40.5284
G01 X19.9658 Y40.5359
G01 X19.9733 Y40.5421
G01 X19.9819 Y40.5466
G01 X19.9912 Y40.5495
G01 X20.0009 Y40.5504
G01 X54.9995 Y40.5504
G00 X54.9995 Y40.5504
G01 F100.00
G01 Z-6.4000
G01 F250.00
G01 X55.0092 Y40.5495
G01 X55.0185 Y40.5466
G01 X55.0271 Y40.5421
G01 X55.0346 Y40.5359
G01 X55.0408 Y40.5284
G01 X55.0454 Y40.5198
G01 X55.0482 Y40.5105
G01 X55.0491 Y40.5008
G01 X55.0482 Y40.4911
G01 X55.0454 Y40.4818
G01 X55.0408 Y40.4733
G01 X55.0346 Y40.4657
G01 X55.0271 Y40.4596
G01 X55.0185 Y40.4550
G01 X55.0092 Y40.4522
G01 X54.9995 Y40.4512
G01 X20.0009 Y40.4512
G01 X19.9912 Y40.4522
G01 X19.9819 Y40.4550
G01 X19.9733 Y40.4596
G01 X19.9658 Y40.4657
G01 X19.9596 Y40.4733
G01 X19.9551 Y40.4818
G01 X19.9522 Y40.4911
G01 X19.9513 Y40.5008
G01 X19.9522 Y40.5105
G01 X19.9551 Y40.5198
G01 X19.9596 Y40.5284
G01 X19.9658 Y40.5359
G01 X19.9733 Y40.5421
G01 X19.9819 Y40.5466
G01 X19.9912 Y40.5495
G01 X20.0009 Y40.5504
G01 X54.9995 Y40.5504
G00 X54.9995 Y40.5504
G01 F100.00
G01 Z-6.8000
G01 F250.00
G01 X55.0092 Y40.5495
G01 X55.0185 Y40.5466
G01 X55.0271 Y40.5421
G01 X55.0346 Y40.5359
G01 X55.0408 Y40.5284
G01 X55.0454 Y40.5198
G01 X55.0482 Y40.5105
G01 X55.0491 Y40.5008
G01 X55.0482 Y40.4911
G01 X55.0454 Y40.4818
G01 X55.0408 Y40.4733
G01 X55.0346 Y40.4657
G01 X55.0271 Y40.4596
G01 X55.0185 Y40.4550
G01 X55.0092 Y40.4522
G01 X54.9995 Y40.4512
G01 X20.0009 Y40.4512
G01 X19.9912 Y40.4522
G01 X19.9819 Y40.4550
G01 X19.9733 Y40.4596
G01 X19.9658 Y40.4657
G01 X19.9596 Y40.4733
G01 X19.9551 Y40.4818
G01 X19.9522 Y40.4911
G01 X19.9513 Y40.5008
G01 X19.9522 Y40.5105
G01 X19.9551 Y40.5198
G01 X19.9596 Y40.5284
G01 X19.9658 Y40.5359
G01 X19.9733 Y40.5421
G01 X19.9819 Y40.5466
G01 X19.9912 Y40.5495
G01 X20.0009 Y40.5504
G01 X54.9995 Y40.5504
G00 X54.9995 Y40.5504
G01 F100.00
G01 Z-7.2000
G01 F250.00
G01 X55.0092 Y40.5495
G01 X55.0185 Y40.5466
G01 X55.0271 Y40.5421
G01 X55.0346 Y40.5359
G01 X55.0408 Y40.5284
G01 X55.0454 Y40.5198
G01 X55.0482 Y40.5105
G01 X55.0491 Y40.5008
G01 X55.0482 Y40.4911
G01 X55.0454 Y40.4818
G01 X55.0408 Y40.4733
G01 X55.0346 Y40.4657
G01 X55.0271 Y40.4596
G01 X55.0185 Y40.4550
G01 X55.0092 Y40.4522
G01 X54.9995 Y40.4512
G01 X20.0009 Y40.4512
G01 X19.9912 Y40.4522
G01 X19.9819 Y40.4550
G01 X19.9733 Y40.4596
G01 X19.9658 Y40.4657
G01 X19.9596 Y40.4733
G01 X19.9551 Y40.4818
G01 X19.9522 Y40.4911
G01 X19.9513 Y40.5008
G01 X19.9522 Y40.5105
G01 X19.9551 Y40.5198
G01 X19.9596 Y40.5284
G01 X19.9658 Y40.5359
G01 X19.9733 Y40.5421
G01 X19.9819 Y40.5466
G01 X19.9912 Y40.5495
G01 X20.0009 Y40.5504
G01 X54.9995 Y40.5504
G00 X54.9995 Y40.5504
G01 F100.00
G01 Z-7.6000
G01 F250.00
G01 X55.0092 Y40.5495
G01 X55.0185 Y40.5466
G01 X55.0271 Y40.5421
G01 X55.0346 Y40.5359
G01 X55.0408 Y40.5284
G01 X55.0454 Y40.5198
G01 X55.0482 Y40.5105
G01 X55.0491 Y40.5008
G01 X55.0482 Y40.4911
G01 X55.0454 Y40.4818
G01 X55.0408 Y40.4733
G01 X55.0346 Y40.4657
G01 X55.0271 Y40.4596
G01 X55.0185 Y40.4550
G01 X55.0092 Y40.4522
G01 X54.9995 Y40.4512
G01 X20.0009 Y40.4512
G01 X19.9912 Y40.4522
G01 X19.9819 Y40.4550
G01 X19.9733 Y40.4596
G01 X19.9658 Y40.4657
G01 X19.9596 Y40.4733
G01 X19.9551 Y40.4818
G01 X19.9522 Y40.4911
G01 X19.9513 Y40.5008
G01 X19.9522 Y40.5105
G01 X19.9551 Y40.5198
G01 X19.9596 Y40.5284
G01 X19.9658 Y40.5359
G01 X19.9733 Y40.5421
G01 X19.9819 Y40.5466
G01 X19.9912 Y40.5495
G01 X20.0009 Y40.5504
G01 X54.9995 Y40.5504
G00 X54.9995 Y40.5504
G01 F100.00
G01 Z-8.0000
G01 F250.00
G01 X55.0092 Y40.5495
G01 X55.0185 Y40.5466
G01 X55.0271 Y40.5421
G01 X55.0346 Y40.5359
G01 X55.0408 Y40.5284
G01 X55.0454 Y40.5198
G01 X55.0482 Y40.5105
G01 X55.0491 Y40.5008
G01 X55.0482 Y40.4911
G01 X55.0454 Y40.4818
G01 X55.0408 Y40.4733
G01 X55.0346 Y40.4657
G01 X55.0271 Y40.4596
G01 X55.0185 Y40.4550
G01 X55.0092 Y40.4522
G01 X54.9995 Y40.4512
G01 X20.0009 Y40.4512
G01 X19.9912 Y40.4522
G01 X19.9819 Y40.4550
G01 X19.9733 Y40.4596
G01 X19.9658 Y40.4657
G01 X19.9596 Y40.4733
G01 X19.9551 Y40.4818
G01 X19.9522 Y40.4911
G01 X19.9513 Y40.5008
G01 X19.9522 Y40.5105
G01 X19.9551 Y40.5198
G01 X19.9596 Y40.5284
G01 X19.9658 Y40.5359
G01 X19.9733 Y40.5421
G01 X19.9819 Y40.5466
G01 X19.9912 Y40.5495
G01 X20.0009 Y40.5504
G01 X54.9995 Y40.5504
G00 X54.9995 Y40.5504
G01 F100.00
G01 Z-8.4000
G01 F250.00
G01 X55.0092 Y40.5495
G01 X55.0185 Y40.5466
G01 X55.0271 Y40.5421
G01 X55.0346 Y40.5359
G01 X55.0408 Y40.5284
G01 X55.0454 Y40.5198
G01 X55.0482 Y40.5105
G01 X55.0491 Y40.5008
G01 X55.0482 Y40.4911
G01 X55.0454 Y40.4818
G01 X55.0408 Y40.4733
G01 X55.0346 Y40.4657
G01 X55.0271 Y40.4596
G01 X55.0185 Y40.4550
G01 X55.0092 Y40.4522
G01 X54.9995 Y40.4512
G01 X20.0009 Y40.4512
G01 X19.9912 Y40.4522
G01 X19.9819 Y40.4550
G01 X19.9733 Y40.4596
G01 X19.9658 Y40.4657
G01 X19.9596 Y40.4733
G01 X19.9551 Y40.4818
G01 X19.9522 Y40.4911
G01 X19.9513 Y40.5008
G01 X19.9522 Y40.5105
G01 X19.9551 Y40.5198
G01 X19.9596 Y40.5284
G01 X19.9658 Y40.5359
G01 X19.9733 Y40.5421
G01 X19.9819 Y40.5466
G01 X19.9912 Y40.5495
G01 X20.0009 Y40.5504
G01 X54.9995 Y40.5504
G00 X54.9995 Y40.5504
G01 F100.00
G01 Z-8.8000
G01 F250.00
G01 X55.0092 Y40.5495
G01 X55.0185 Y40.5466
G01 X55.0271 Y40.5421
G01 X55.0346 Y40.5359
G01 X55.0408 Y40.5284
G01 X55.0454 Y40.5198
G01 X55.0482 Y40.5105
G01 X55.0491 Y40.5008
G01 X55.0482 Y40.4911
G01 X55.0454 Y40.4818
G01 X55.0408 Y40.4733
G01 X55.0346 Y40.4657
G01 X55.0271 Y40.4596
G01 X55.0185 Y40.4550
G01 X55.0092 Y40.4522
G01 X54.9995 Y40.4512
G01 X20.0009 Y40.4512
G01 X19.9912 Y40.4522
G01 X19.9819 Y40.4550
G01 X19.9733 Y40.4596
G01 X19.9658 Y40.4657
G01 X19.9596 Y40.4733
G01 X19.9551 Y40.4818
G01 X19.9522 Y40.4911
G01 X19.9513 Y40.5008
G01 X19.9522 Y40.5105
G01 X19.9551 Y40.5198
G01 X19.9596 Y40.5284
G01 X19.9658 Y40.5359
G01 X19.9733 Y40.5421
G01 X19.9819 Y40.5466
G01 X19.9912 Y40.5495
G01 X20.0009 Y40.5504
G01 X54.9995 Y40.5504
G00 X54.9995 Y40.5504
G01 F100.00
G01 Z-9.2000
G01 F250.00
G01 X55.0092 Y40.5495
G01 X55.0185 Y40.5466
G01 X55.0271 Y40.5421
G01 X55.0346 Y40.5359
G01 X55.0408 Y40.5284
G01 X55.0454 Y40.5198
G01 X55.0482 Y40.5105
G01 X55.0491 Y40.5008
G01 X55.0482 Y40.4911
G01 X55.0454 Y40.4818
G01 X55.0408 Y40.4733
G01 X55.0346 Y40.4657
G01 X55.0271 Y40.4596
G01 X55.0185 Y40.4550
G01 X55.0092 Y40.4522
G01 X54.9995 Y40.4512
G01 X20.0009 Y40.4512
G01 X19.9912 Y40.4522
G01 X19.9819 Y40.4550
G01 X19.9733 Y40.4596
G01 X19.9658 Y40.4657
G01 X19.9596 Y40.4733
G01 X19.9551 Y40.4818
G01 X19.9522 Y40.4911
G01 X19.9513 Y40.5008
G01 X19.9522 Y40.5105
G01 X19.9551 Y40.5198
G01 X19.9596 Y40.5284
G01 X19.9658 Y40.5359
G01 X19.9733 Y40.5421
G01 X19.9819 Y40.5466
G01 X19.9912 Y40.5495
G01 X20.0009 Y40.5504
G01 X54.9995 Y40.5504
G00 X54.9995 Y40.5504
G01 F100.00
G01 Z-9.6000
G01 F250.00
G01 X55.0092 Y40.5495
G01 X55.0185 Y40.5466
G01 X55.0271 Y40.5421
G01 X55.0346 Y40.5359
G01 X55.0408 Y40.5284
G01 X55.0454 Y40.5198
G01 X55.0482 Y40.5105
G01 X55.0491 Y40.5008
G01 X55.0482 Y40.4911
G01 X55.0454 Y40.4818
G01 X55.0408 Y40.4733
G01 X55.0346 Y40.4657
G01 X55.0271 Y40.4596
G01 X55.0185 Y40.4550
G01 X55.0092 Y40.4522
G01 X54.9995 Y40.4512
G01 X20.0009 Y40.4512
G01 X19.9912 Y40.4522
G01 X19.9819 Y40.4550
G01 X19.9733 Y40.4596
G01 X19.9658 Y40.4657
G01 X19.9596 Y40.4733
G01 X19.9551 Y40.4818
G01 X19.9522 Y40.4911
G01 X19.9513 Y40.5008
G01 X19.9522 Y40.5105
G01 X19.9551 Y40.5198
G01 X19.9596 Y40.5284
G01 X19.9658 Y40.5359
G01 X19.9733 Y40.5421
G01 X19.9819 Y40.5466
G01 X19.9912 Y40.5495
G01 X20.0009 Y40.5504
G01 X54.9995 Y40.5504
G00 X54.9995 Y40.5504
G01 F100.00
G01 Z-10.0000
G01 F250.00
G01 X55.0092 Y40.5495
G01 X55.0185 Y40.5466
G01 X55.0271 Y40.5421
G01 X55.0346 Y40.5359
G01 X55.0408 Y40.5284
G01 X55.0454 Y40.5198
G01 X55.0482 Y40.5105
G01 X55.0491 Y40.5008
G01 X55.0482 Y40.4911
G01 X55.0454 Y40.4818
G01 X55.0408 Y40.4733
G01 X55.0346 Y40.4657
G01 X55.0271 Y40.4596
G01 X55.0185 Y40.4550
G01 X55.0092 Y40.4522
G01 X54.9995 Y40.4512
G01 X20.0009 Y40.4512
G01 X19.9912 Y40.4522
G01 X19.9819 Y40.4550
G01 X19.9733 Y40.4596
G01 X19.9658 Y40.4657
G01 X19.9596 Y40.4733
G01 X19.9551 Y40.4818
G01 X19.9522 Y40.4911
G01 X19.9513 Y40.5008
G01 X19.9522 Y40.5105
G01 X19.9551 Y40.5198
G01 X19.9596 Y40.5284
G01 X19.9658 Y40.5359
G01 X19.9733 Y40.5421
G01 X19.9819 Y40.5466
G01 X19.9912 Y40.5495
G01 X20.0009 Y40.5504
G01 X54.9995 Y40.5504
G00 X54.9995 Y40.5504
G01 F100.00
G01 Z-10.2000
G01 F250.00
G01 X55.0092 Y40.5495
G01 X55.0185 Y40.5466
G01 X55.0271 Y40.5421
G01 X55.0346 Y40.5359
G01 X55.0408 Y40.5284
G01 X55.0454 Y40.5198
G01 X55.0482 Y40.5105
G01 X55.0491 Y40.5008
G01 X55.0482 Y40.4911
G01 X55.0454 Y40.4818
G01 X55.0408 Y40.4733
G01 X55.0346 Y40.4657
G01 X55.0271 Y40.4596
G01 X55.0185 Y40.4550
G01 X55.0092 Y40.4522
G01 X54.9995 Y40.4512
G01 X20.0009 Y40.4512
G01 X19.9912 Y40.4522
G01 X19.9819 Y40.4550
G01 X19.9733 Y40.4596
G01 X19.9658 Y40.4657
G01 X19.9596 Y40.4733
G01 X19.9551 Y40.4818
G01 X19.9522 Y40.4911
G01 X19.9513 Y40.5008
G01 X19.9522 Y40.5105
G01 X19.9551 Y40.5198
G01 X19.9596 Y40.5284
G01 X19.9658 Y40.5359
G01 X19.9733 Y40.5421
G01 X19.9819 Y40.5466
G01 X19.9912 Y40.5495
G01 X20.0009 Y40.5504
G01 X54.9995 Y40.5504
G00 Z2.0000
G00 X56.5007 Y47.5507
G01 F100.00
G01 Z-0.4000
G01 F250.00
G01 X56.5104 Y47.5497
G01 X56.5197 Y47.5469
G01 X56.5282 Y47.5423
G01 X56.5358 Y47.5361
G01 X56.5419 Y47.5286
G01 X56.5465 Y47.5200
G01 X56.5493 Y47.5107
G01 X56.5503 Y47.5011
G01 X56.5493 Y47.4914
G01 X56.5465 Y47.4821
G01 X56.5419 Y47.4735
G01 X56.5358 Y47.4660
G01 X56.5282 Y47.4598
G01 X56.5197 Y47.4552
G01 X56.5104 Y47.4524
G01 X56.5007 Y47.4515
G01 X18.4997 Y47.4515
G01 X18.4901 Y47.4524
G01 X18.4808 Y47.4552
G01 X18.4722 Y47.4598
G01 X18.4647 Y47.4660
G01 X18.4585 Y47.4735
G01 X18.4539 Y47.4821
G01 X18.4511 Y47.4914
G01 X18.4501 Y47.5011
G01 X18.4511 Y47.5107
G01 X18.4539 Y47.5200
G01 X18.4585 Y47.5286
G01 X18.4647 Y47.5361
G01 X18.4722 Y47.5423
G01 X18.4808 Y47.5469
G01 X18.4901 Y47.5497
G01 X18.4997 Y47.5507
G01 X56.5007 Y47.5507
G00 X56.5007 Y47.5507
G01 F100.00
G01 Z-0.8000
G01 F250.00
G01 X56.5104 Y47.5497
G01 X56.5197 Y47.5469
G01 X56.5282 Y47.5423
G01 X56.5358 Y47.5361
G01 X56.5419 Y47.5286
G01 X56.5465 Y47.5200
G01 X56.5493 Y47.5107
G01 X56.5503 Y47.5011
G01 X56.5493 Y47.4914
G01 X56.5465 Y47.4821
G01 X56.5419 Y47.4735
G01 X56.5358 Y47.4660
G01 X56.5282 Y47.4598
G01 X56.5197 Y47.4552
G01 X56.5104 Y47.4524
G01 X56.5007 Y47.4515
G01 X18.4997 Y47.4515
G01 X18.4901 Y47.4524
G01 X18.4808 Y47.4552
G01 X18.4722 Y47.4598
G01 X18.4647 Y47.4660
G01 X18.4585 Y47.4735
G01 X18.4539 Y47.4821
G01 X18.4511 Y47.4914
G01 X18.4501 Y47.5011
G01 X18.4511 Y47.5107
G01 X18.4539 Y47.5200
G01 X18.4585 Y47.5286
G01 X18.4647 Y47.5361
G01 X18.4722 Y47.5423
G01 X18.4808 Y47.5469
G01 X18.4901 Y47.5497
G01 X18.4997 Y47.5507
G01 X56.5007 Y47.5507
G00 X56.5007 Y47.5507
G01 F100.00
G01 Z-1.2000
G01 F250.00
G01 X56.5104 Y47.5497
G01 X56.5197 Y47.5469
G01 X56.5282 Y47.5423
G01 X56.5358 Y47.5361
G01 X56.5419 Y47.5286
G01 X56.5465 Y47.5200
G01 X56.5493 Y47.5107
G01 X56.5503 Y47.5011
G01 X56.5493 Y47.4914
G01 X56.5465 Y47.4821
G01 X56.5419 Y47.4735
G01 X56.5358 Y47.4660
G01 X56.5282 Y47.4598
G01 X56.5197 Y47.4552
G01 X56.5104 Y47.4524
G01 X56.5007 Y47.4515
G01 X18.4997 Y47.4515
G01 X18.4901 Y47.4524
G01 X18.4808 Y47.4552
G01 X18.4722 Y47.4598
G01 X18.4647 Y47.4660
G01 X18.4585 Y47.4735
G01 X18.4539 Y47.4821
G01 X18.4511 Y47.4914
G01 X18.4501 Y47.5011
G01 X18.4511 Y47.5107
G01 X18.4539 Y47.5200
G01 X18.4585 Y47.5286
G01 X18.4647 Y47.5361
G01 X18.4722 Y47.5423
G01 X18.4808 Y47.5469
G01 X18.4901 Y47.5497
G01 X18.4997 Y47.5507
G01 X56.5007 Y47.5507
G00 X56.5007 Y47.5507
G01 F100.00
G01 Z-1.6000
G01 F250.00
G01 X56.5104 Y47.5497
G01 X56.5197 Y47.5469
G01 X56.5282 Y47.5423
G01 X56.5358 Y47.5361
G01 X56.5419 Y47.5286
G01 X56.5465 Y47.5200
G01 X56.5493 Y47.5107
G01 X56.5503 Y47.5011
G01 X56.5493 Y47.4914
G01 X56.5465 Y47.4821
G01 X56.5419 Y47.4735
G01 X56.5358 Y47.4660
G01 X56.5282 Y47.4598
G01 X56.5197 Y47.4552
G01 X56.5104 Y47.4524
G01 X56.5007 Y47.4515
G01 X18.4997 Y47.4515
G01 X18.4901 Y47.4524
G01 X18.4808 Y47.4552
G01 X18.4722 Y47.4598
G01 X18.4647 Y47.4660
G01 X18.4585 Y47.4735
G01 X18.4539 Y47.4821
G01 X18.4511 Y47.4914
G01 X18.4501 Y47.5011
G01 X18.4511 Y47.5107
G01 X18.4539 Y47.5200
G01 X18.4585 Y47.5286
G01 X18.4647 Y47.5361
G01 X18.4722 Y47.5423
G01 X18.4808 Y47.5469
G01 X18.4901 Y47.5497
G01 X18.4997 Y47.5507
G01 X56.5007 Y47.5507
G00 X56.5007 Y47.5507
G01 F100.00
G01 Z-2.0000
G01 F250.00
G01 X56.5104 Y47.5497
G01 X56.5197 Y47.5469
G01 X56.5282 Y47.5423
G01 X56.5358 Y47.5361
G01 X56.5419 Y47.5286
G01 X56.5465 Y47.5200
G01 X56.5493 Y47.5107
G01 X56.5503 Y47.5011
G01 X56.5493 Y47.4914
G01 X56.5465 Y47.4821
G01 X56.5419 Y47.4735
G01 X56.5358 Y47.4660
G01 X56.5282 Y47.4598
G01 X56.5197 Y47.4552
G01 X56.5104 Y47.4524
G01 X56.5007 Y47.4515
G01 X18.4997 Y47.4515
G01 X18.4901 Y47.4524
G01 X18.4808 Y47.4552
G01 X18.4722 Y47.4598
G01 X18.4647 Y47.4660
G01 X18.4585 Y47.4735
G01 X18.4539 Y47.4821
G01 X18.4511 Y47.4914
G01 X18.4501 Y47.5011
G01 X18.4511 Y47.5107
G01 X18.4539 Y47.5200
G01 X18.4585 Y47.5286
G01 X18.4647 Y47.5361
G01 X18.4722 Y47.5423
G01 X18.4808 Y47.5469
G01 X18.4901 Y47.5497
G01 X18.4997 Y47.5507
G01 X56.5007 Y47.5507
G00 X56.5007 Y47.5507
G01 F100.00
G01 Z-2.4000
G01 F250.00
G01 X56.5104 Y47.5497
G01 X56.5197 Y47.5469
G01 X56.5282 Y47.5423
G01 X56.5358 Y47.5361
G01 X56.5419 Y47.5286
G01 X56.5465 Y47.5200
G01 X56.5493 Y47.5107
G01 X56.5503 Y47.5011
G01 X56.5493 Y47.4914
G01 X56.5465 Y47.4821
G01 X56.5419 Y47.4735
G01 X56.5358 Y47.4660
G01 X56.5282 Y47.4598
G01 X56.5197 Y47.4552
G01 X56.5104 Y47.4524
G01 X56.5007 Y47.4515
G01 X18.4997 Y47.4515
G01 X18.4901 Y47.4524
G01 X18.4808 Y47.4552
G01 X18.4722 Y47.4598
G01 X18.4647 Y47.4660
G01 X18.4585 Y47.4735
G01 X18.4539 Y47.4821
G01 X18.4511 Y47.4914
G01 X18.4501 Y47.5011
G01 X18.4511 Y47.5107
G01 X18.4539 Y47.5200
G01 X18.4585 Y47.5286
G01 X18.4647 Y47.5361
G01 X18.4722 Y47.5423
G01 X18.4808 Y47.5469
G01 X18.4901 Y47.5497
G01 X18.4997 Y47.5507
G01 X56.5007 Y47.5507
G00 X56.5007 Y47.5507
G01 F100.00
G01 Z-2.8000
G01 F250.00
G01 X56.5104 Y47.5497
G01 X56.5197 Y47.5469
G01 X56.5282 Y47.5423
G01 X56.5358 Y47.5361
G01 X56.5419 Y47.5286
G01 X56.5465 Y47.5200
G01 X56.5493 Y47.5107
G01 X56.5503 Y47.5011
G01 X56.5493 Y47.4914
G01 X56.5465 Y47.4821
G01 X56.5419 Y47.4735
G01 X56.5358 Y47.4660
G01 X56.5282 Y47.4598
G01 X56.5197 Y47.4552
G01 X56.5104 Y47.4524
G01 X56.5007 Y47.4515
G01 X18.4997 Y47.4515
G01 X18.4901 Y47.4524
G01 X18.4808 Y47.4552
G01 X18.4722 Y47.4598
G01 X18.4647 Y47.4660
G01 X18.4585 Y47.4735
G01 X18.4539 Y47.4821
G01 X18.4511 Y47.4914
G01 X18.4501 Y47.5011
G01 X18.4511 Y47.5107
G01 X18.4539 Y47.5200
G01 X18.4585 Y47.5286
G01 X18.4647 Y47.5361
G01 X18.4722 Y47.5423
G01 X18.4808 Y47.5469
G01 X18.4901 Y47.5497
G01 X18.4997 Y47.5507
G01 X56.5007 Y47.5507
G00 X56.5007 Y47.5507
G01 F100.00
G01 Z-3.2000
G01 F250.00
G01 X56.5104 Y47.5497
G01 X56.5197 Y47.5469
G01 X56.5282 Y47.5423
G01 X56.5358 Y47.5361
G01 X56.5419 Y47.5286
G01 X56.5465 Y47.5200
G01 X56.5493 Y47.5107
G01 X56.5503 Y47.5011
G01 X56.5493 Y47.4914
G01 X56.5465 Y47.4821
G01 X56.5419 Y47.4735
G01 X56.5358 Y47.4660
G01 X56.5282 Y47.4598
G01 X56.5197 Y47.4552
G01 X56.5104 Y47.4524
G01 X56.5007 Y47.4515
G01 X18.4997 Y47.4515
G01 X18.4901 Y47.4524
G01 X18.4808 Y47.4552
G01 X18.4722 Y47.4598
G01 X18.4647 Y47.4660
G01 X18.4585 Y47.4735
G01 X18.4539 Y47.4821
G01 X18.4511 Y47.4914
G01 X18.4501 Y47.5011
G01 X18.4511 Y47.5107
G01 X18.4539 Y47.5200
G01 X18.4585 Y47.5286
G01 X18.4647 Y47.5361
G01 X18.4722 Y47.5423
G01 X18.4808 Y47.5469
G01 X18.4901 Y47.5497
G01 X18.4997 Y47.5507
G01 X56.5007 Y47.5507
G00 X56.5007 Y47.5507
G01 F100.00
G01 Z-3.6000
G01 F250.00
G01 X56.5104 Y47.5497
G01 X56.5197 Y47.5469
G01 X56.5282 Y47.5423
G01 X56.5358 Y47.5361
G01 X56.5419 Y47.5286
G01 X56.5465 Y47.5200
G01 X56.5493 Y47.5107
G01 X56.5503 Y47.5011
G01 X56.5493 Y47.4914
G01 X56.5465 Y47.4821
G01 X56.5419 Y47.4735
G01 X56.5358 Y47.4660
G01 X56.5282 Y47.4598
G01 X56.5197 Y47.4552
G01 X56.5104 Y47.4524
G01 X56.5007 Y47.4515
G01 X18.4997 Y47.4515
G01 X18.4901 Y47.4524
G01 X18.4808 Y47.4552
G01 X18.4722 Y47.4598
G01 X18.4647 Y47.4660
G01 X18.4585 Y47.4735
G01 X18.4539 Y47.4821
G01 X18.4511 Y47.4914
G01 X18.4501 Y47.5011
G01 X18.4511 Y47.5107
G01 X18.4539 Y47.5200
G01 X18.4585 Y47.5286
G01 X18.4647 Y47.5361
G01 X18.4722 Y47.5423
G01 X18.4808 Y47.5469
G01 X18.4901 Y47.5497
G01 X18.4997 Y47.5507
G01 X56.5007 Y47.5507
G00 X56.5007 Y47.5507
G01 F100.00
G01 Z-4.0000
G01 F250.00
G01 X56.5104 Y47.5497
G01 X56.5197 Y47.5469
G01 X56.5282 Y47.5423
G01 X56.5358 Y47.5361
G01 X56.5419 Y47.5286
G01 X56.5465 Y47.5200
G01 X56.5493 Y47.5107
G01 X56.5503 Y47.5011
G01 X56.5493 Y47.4914
G01 X56.5465 Y47.4821
G01 X56.5419 Y47.4735
G01 X56.5358 Y47.4660
G01 X56.5282 Y47.4598
G01 X56.5197 Y47.4552
G01 X56.5104 Y47.4524
G01 X56.5007 Y47.4515
G01 X18.4997 Y47.4515
G01 X18.4901 Y47.4524
G01 X18.4808 Y47.4552
G01 X18.4722 Y47.4598
G01 X18.4647 Y47.4660
G01 X18.4585 Y47.4735
G01 X18.4539 Y47.4821
G01 X18.4511 Y47.4914
G01 X18.4501 Y47.5011
G01 X18.4511 Y47.5107
G01 X18.4539 Y47.5200
G01 X18.4585 Y47.5286
G01 X18.4647 Y47.5361
G01 X18.4722 Y47.5423
G01 X18.4808 Y47.5469
G01 X18.4901 Y47.5497
G01 X18.4997 Y47.5507
G01 X56.5007 Y47.5507
G00 X56.5007 Y47.5507
G01 F100.00
G01 Z-4.4000
G01 F250.00
G01 X56.5104 Y47.5497
G01 X56.5197 Y47.5469
G01 X56.5282 Y47.5423
G01 X56.5358 Y47.5361
G01 X56.5419 Y47.5286
G01 X56.5465 Y47.5200
G01 X56.5493 Y47.5107
G01 X56.5503 Y47.5011
G01 X56.5493 Y47.4914
G01 X56.5465 Y47.4821
G01 X56.5419 Y47.4735
G01 X56.5358 Y47.4660
G01 X56.5282 Y47.4598
G01 X56.5197 Y47.4552
G01 X56.5104 Y47.4524
G01 X56.5007 Y47.4515
G01 X18.4997 Y47.4515
G01 X18.4901 Y47.4524
G01 X18.4808 Y47.4552
G01 X18.4722 Y47.4598
G01 X18.4647 Y47.4660
G01 X18.4585 Y47.4735
G01 X18.4539 Y47.4821
G01 X18.4511 Y47.4914
G01 X18.4501 Y47.5011
G01 X18.4511 Y47.5107
G01 X18.4539 Y47.5200
G01 X18.4585 Y47.5286
G01 X18.4647 Y47.5361
G01 X18.4722 Y47.5423
G01 X18.4808 Y47.5469
G01 X18.4901 Y47.5497
G01 X18.4997 Y47.5507
G01 X56.5007 Y47.5507
G00 X56.5007 Y47.5507
G01 F100.00
G01 Z-4.8000
G01 F250.00
G01 X56.5104 Y47.5497
G01 X56.5197 Y47.5469
G01 X56.5282 Y47.5423
G01 X56.5358 Y47.5361
G01 X56.5419 Y47.5286
G01 X56.5465 Y47.5200
G01 X56.5493 Y47.5107
G01 X56.5503 Y47.5011
G01 X56.5493 Y47.4914
G01 X56.5465 Y47.4821
G01 X56.5419 Y47.4735
G01 X56.5358 Y47.4660
G01 X56.5282 Y47.4598
G01 X56.5197 Y47.4552
G01 X56.5104 Y47.4524
G01 X56.5007 Y47.4515
G01 X18.4997 Y47.4515
G01 X18.4901 Y47.4524
G01 X18.4808 Y47.4552
G01 X18.4722 Y47.4598
G01 X18.4647 Y47.4660
G01 X18.4585 Y47.4735
G01 X18.4539 Y47.4821
G01 X18.4511 Y47.4914
G01 X18.4501 Y47.5011
G01 X18.4511 Y47.5107
G01 X18.4539 Y47.5200
G01 X18.4585 Y47.5286
G01 X18.4647 Y47.5361
G01 X18.4722 Y47.5423
G01 X18.4808 Y47.5469
G01 X18.4901 Y47.5497
G01 X18.4997 Y47.5507
G01 X56.5007 Y47.5507
G00 X56.5007 Y47.5507
G01 F100.00
G01 Z-5.2000
G01 F250.00
G01 X56.5104 Y47.5497
G01 X56.5197 Y47.5469
G01 X56.5282 Y47.5423
G01 X56.5358 Y47.5361
G01 X56.5419 Y47.5286
G01 X56.5465 Y47.5200
G01 X56.5493 Y47.5107
G01 X56.5503 Y47.5011
G01 X56.5493 Y47.4914
G01 X56.5465 Y47.4821
G01 X56.5419 Y47.4735
G01 X56.5358 Y47.4660
G01 X56.5282 Y47.4598
G01 X56.5197 Y47.4552
G01 X56.5104 Y47.4524
G01 X56.5007 Y47.4515
G01 X18.4997 Y47.4515
G01 X18.4901 Y47.4524
G01 X18.4808 Y47.4552
G01 X18.4722 Y47.4598
G01 X18.4647 Y47.4660
G01 X18.4585 Y47.4735
G01 X18.4539 Y47.4821
G01 X18.4511 Y47.4914
G01 X18.4501 Y47.5011
G01 X18.4511 Y47.5107
G01 X18.4539 Y47.5200
G01 X18.4585 Y47.5286
G01 X18.4647 Y47.5361
G01 X18.4722 Y47.5423
G01 X18.4808 Y47.5469
G01 X18.4901 Y47.5497
G01 X18.4997 Y47.5507
G01 X56.5007 Y47.5507
G00 X56.5007 Y47.5507
G01 F100.00
G01 Z-5.6000
G01 F250.00
G01 X56.5104 Y47.5497
G01 X56.5197 Y47.5469
G01 X56.5282 Y47.5423
G01 X56.5358 Y47.5361
G01 X56.5419 Y47.5286
G01 X56.5465 Y47.5200
G01 X56.5493 Y47.5107
G01 X56.5503 Y47.5011
G01 X56.5493 Y47.4914
G01 X56.5465 Y47.4821
G01 X56.5419 Y47.4735
G01 X56.5358 Y47.4660
G01 X56.5282 Y47.4598
G01 X56.5197 Y47.4552
G01 X56.5104 Y47.4524
G01 X56.5007 Y47.4515
G01 X18.4997 Y47.4515
G01 X18.4901 Y47.4524
G01 X18.4808 Y47.4552
G01 X18.4722 Y47.4598
G01 X18.4647 Y47.4660
G01 X18.4585 Y47.4735
G01 X18.4539 Y47.4821
G01 X18.4511 Y47.4914
G01 X18.4501 Y47.5011
G01 X18.4511 Y47.5107
G01 X18.4539 Y47.5200
G01 X18.4585 Y47.5286
G01 X18.4647 Y47.5361
G01 X18.4722 Y47.5423
G01 X18.4808 Y47.5469
G01 X18.4901 Y47.5497
G01 X18.4997 Y47.5507
G01 X56.5007 Y47.5507
G00 X56.5007 Y47.5507
G01 F100.00
G01 Z-6.0000
G01 F250.00
G01 X56.5104 Y47.5497
G01 X56.5197 Y47.5469
G01 X56.5282 Y47.5423
G01 X56.5358 Y47.5361
G01 X56.5419 Y47.5286
G01 X56.5465 Y47.5200
G01 X56.5493 Y47.5107
G01 X56.5503 Y47.5011
G01 X56.5493 Y47.4914
G01 X56.5465 Y47.4821
G01 X56.5419 Y47.4735
G01 X56.5358 Y47.4660
G01 X56.5282 Y47.4598
G01 X56.5197 Y47.4552
G01 X56.5104 Y47.4524
G01 X56.5007 Y47.4515
G01 X18.4997 Y47.4515
G01 X18.4901 Y47.4524
G01 X18.4808 Y47.4552
G01 X18.4722 Y47.4598
G01 X18.4647 Y47.4660
G01 X18.4585 Y47.4735
G01 X18.4539 Y47.4821
G01 X18.4511 Y47.4914
G01 X18.4501 Y47.5011
G01 X18.4511 Y47.5107
G01 X18.4539 Y47.5200
G01 X18.4585 Y47.5286
G01 X18.4647 Y47.5361
G01 X18.4722 Y47.5423
G01 X18.4808 Y47.5469
G01 X18.4901 Y47.5497
G01 X18.4997 Y47.5507
G01 X56.5007 Y47.5507
G00 X56.5007 Y47.5507
G01 F100.00
G01 Z-6.4000
G01 F250.00
G01 X56.5104 Y47.5497
G01 X56.5197 Y47.5469
G01 X56.5282 Y47.5423
G01 X56.5358 Y47.5361
G01 X56.5419 Y47.5286
G01 X56.5465 Y47.5200
G01 X56.5493 Y47.5107
G01 X56.5503 Y47.5011
G01 X56.5493 Y47.4914
G01 X56.5465 Y47.4821
G01 X56.5419 Y47.4735
G01 X56.5358 Y47.4660
G01 X56.5282 Y47.4598
G01 X56.5197 Y47.4552
G01 X56.5104 Y47.4524
G01 X56.5007 Y47.4515
G01 X18.4997 Y47.4515
G01 X18.4901 Y47.4524
G01 X18.4808 Y47.4552
G01 X18.4722 Y47.4598
G01 X18.4647 Y47.4660
G01 X18.4585 Y47.4735
G01 X18.4539 Y47.4821
G01 X18.4511 Y47.4914
G01 X18.4501 Y47.5011
G01 X18.4511 Y47.5107
G01 X18.4539 Y47.5200
G01 X18.4585 Y47.5286
G01 X18.4647 Y47.5361
G01 X18.4722 Y47.5423
G01 X18.4808 Y47.5469
G01 X18.4901 Y47.5497
G01 X18.4997 Y47.5507
G01 X56.5007 Y47.5507
G00 X56.5007 Y47.5507
G01 F100.00
G01 Z-6.8000
G01 F250.00
G01 X56.5104 Y47.5497
G01 X56.5197 Y47.5469
G01 X56.5282 Y47.5423
G01 X56.5358 Y47.5361
G01 X56.5419 Y47.5286
G01 X56.5465 Y47.5200
G01 X56.5493 Y47.5107
G01 X56.5503 Y47.5011
G01 X56.5493 Y47.4914
G01 X56.5465 Y47.4821
G01 X56.5419 Y47.4735
G01 X56.5358 Y47.4660
G01 X56.5282 Y47.4598
G01 X56.5197 Y47.4552
G01 X56.5104 Y47.4524
G01 X56.5007 Y47.4515
G01 X18.4997 Y47.4515
G01 X18.4901 Y47.4524
G01 X18.4808 Y47.4552
G01 X18.4722 Y47.4598
G01 X18.4647 Y47.4660
G01 X18.4585 Y47.4735
G01 X18.4539 Y47.4821
G01 X18.4511 Y47.4914
G01 X18.4501 Y47.5011
G01 X18.4511 Y47.5107
G01 X18.4539 Y47.5200
G01 X18.4585 Y47.5286
G01 X18.4647 Y47.5361
G01 X18.4722 Y47.5423
G01 X18.4808 Y47.5469
G01 X18.4901 Y47.5497
G01 X18.4997 Y47.5507
G01 X56.5007 Y47.5507
G00 X56.5007 Y47.5507
G01 F100.00
G01 Z-7.2000
G01 F250.00
G01 X56.5104 Y47.5497
G01 X56.5197 Y47.5469
G01 X56.5282 Y47.5423
G01 X56.5358 Y47.5361
G01 X56.5419 Y47.5286
G01 X56.5465 Y47.5200
G01 X56.5493 Y47.5107
G01 X56.5503 Y47.5011
G01 X56.5493 Y47.4914
G01 X56.5465 Y47.4821
G01 X56.5419 Y47.4735
G01 X56.5358 Y47.4660
G01 X56.5282 Y47.4598
G01 X56.5197 Y47.4552
G01 X56.5104 Y47.4524
G01 X56.5007 Y47.4515
G01 X18.4997 Y47.4515
G01 X18.4901 Y47.4524
G01 X18.4808 Y47.4552
G01 X18.4722 Y47.4598
G01 X18.4647 Y47.4660
G01 X18.4585 Y47.4735
G01 X18.4539 Y47.4821
G01 X18.4511 Y47.4914
G01 X18.4501 Y47.5011
G01 X18.4511 Y47.5107
G01 X18.4539 Y47.5200
G01 X18.4585 Y47.5286
G01 X18.4647 Y47.5361
G01 X18.4722 Y47.5423
G01 X18.4808 Y47.5469
G01 X18.4901 Y47.5497
G01 X18.4997 Y47.5507
G01 X56.5007 Y47.5507
G00 X56.5007 Y47.5507
G01 F100.00
G01 Z-7.6000
G01 F250.00
G01 X56.5104 Y47.5497
G01 X56.5197 Y47.5469
G01 X56.5282 Y47.5423
G01 X56.5358 Y47.5361
G01 X56.5419 Y47.5286
G01 X56.5465 Y47.5200
G01 X56.5493 Y47.5107
G01 X56.5503 Y47.5011
G01 X56.5493 Y47.4914
G01 X56.5465 Y47.4821
G01 X56.5419 Y47.4735
G01 X56.5358 Y47.4660
G01 X56.5282 Y47.4598
G01 X56.5197 Y47.4552
G01 X56.5104 Y47.4524
G01 X56.5007 Y47.4515
G01 X18.4997 Y47.4515
G01 X18.4901 Y47.4524
G01 X18.4808 Y47.4552
G01 X18.4722 Y47.4598
G01 X18.4647 Y47.4660
G01 X18.4585 Y47.4735
G01 X18.4539 Y47.4821
G01 X18.4511 Y47.4914
G01 X18.4501 Y47.5011
G01 X18.4511 Y47.5107
G01 X18.4539 Y47.5200
G01 X18.4585 Y47.5286
G01 X18.4647 Y47.5361
G01 X18.4722 Y47.5423
G01 X18.4808 Y47.5469
G01 X18.4901 Y47.5497
G01 X18.4997 Y47.5507
G01 X56.5007 Y47.5507
G00 X56.5007 Y47.5507
G01 F100.00
G01 Z-8.0000
G01 F250.00
G01 X56.5104 Y47.5497
G01 X56.5197 Y47.5469
G01 X56.5282 Y47.5423
G01 X56.5358 Y47.5361
G01 X56.5419 Y47.5286
G01 X56.5465 Y47.5200
G01 X56.5493 Y47.5107
G01 X56.5503 Y47.5011
G01 X56.5493 Y47.4914
G01 X56.5465 Y47.4821
G01 X56.5419 Y47.4735
G01 X56.5358 Y47.4660
G01 X56.5282 Y47.4598
G01 X56.5197 Y47.4552
G01 X56.5104 Y47.4524
G01 X56.5007 Y47.4515
G01 X18.4997 Y47.4515
G01 X18.4901 Y47.4524
G01 X18.4808 Y47.4552
G01 X18.4722 Y47.4598
G01 X18.4647 Y47.4660
G01 X18.4585 Y47.4735
G01 X18.4539 Y47.4821
G01 X18.4511 Y47.4914
G01 X18.4501 Y47.5011
G01 X18.4511 Y47.5107
G01 X18.4539 Y47.5200
G01 X18.4585 Y47.5286
G01 X18.4647 Y47.5361
G01 X18.4722 Y47.5423
G01 X18.4808 Y47.5469
G01 X18.4901 Y47.5497
G01 X18.4997 Y47.5507
G01 X56.5007 Y47.5507
G00 X56.5007 Y47.5507
G01 F100.00
G01 Z-8.4000
G01 F250.00
G01 X56.5104 Y47.5497
G01 X56.5197 Y47.5469
G01 X56.5282 Y47.5423
G01 X56.5358 Y47.5361
G01 X56.5419 Y47.5286
G01 X56.5465 Y47.5200
G01 X56.5493 Y47.5107
G01 X56.5503 Y47.5011
G01 X56.5493 Y47.4914
G01 X56.5465 Y47.4821
G01 X56.5419 Y47.4735
G01 X56.5358 Y47.4660
G01 X56.5282 Y47.4598
G01 X56.5197 Y47.4552
G01 X56.5104 Y47.4524
G01 X56.5007 Y47.4515
G01 X18.4997 Y47.4515
G01 X18.4901 Y47.4524
G01 X18.4808 Y47.4552
G01 X18.4722 Y47.4598
G01 X18.4647 Y47.4660
G01 X18.4585 Y47.4735
G01 X18.4539 Y47.4821
G01 X18.4511 Y47.4914
G01 X18.4501 Y47.5011
G01 X18.4511 Y47.5107
G01 X18.4539 Y47.5200
G01 X18.4585 Y47.5286
G01 X18.4647 Y47.5361
G01 X18.4722 Y47.5423
G01 X18.4808 Y47.5469
G01 X18.4901 Y47.5497
G01 X18.4997 Y47.5507
G01 X56.5007 Y47.5507
G00 X56.5007 Y47.5507
G01 F100.00
G01 Z-8.8000
G01 F250.00
G01 X56.5104 Y47.5497
G01 X56.5197 Y47.5469
G01 X56.5282 Y47.5423
G01 X56.5358 Y47.5361
G01 X56.5419 Y47.5286
G01 X56.5465 Y47.5200
G01 X56.5493 Y47.5107
G01 X56.5503 Y47.5011
G01 X56.5493 Y47.4914
G01 X56.5465 Y47.4821
G01 X56.5419 Y47.4735
G01 X56.5358 Y47.4660
G01 X56.5282 Y47.4598
G01 X56.5197 Y47.4552
G01 X56.5104 Y47.4524
G01 X56.5007 Y47.4515
G01 X18.4997 Y47.4515
G01 X18.4901 Y47.4524
G01 X18.4808 Y47.4552
G01 X18.4722 Y47.4598
G01 X18.4647 Y47.4660
G01 X18.4585 Y47.4735
G01 X18.4539 Y47.4821
G01 X18.4511 Y47.4914
G01 X18.4501 Y47.5011
G01 X18.4511 Y47.5107
G01 X18.4539 Y47.5200
G01 X18.4585 Y47.5286
G01 X18.4647 Y47.5361
G01 X18.4722 Y47.5423
G01 X18.4808 Y47.5469
G01 X18.4901 Y47.5497
G01 X18.4997 Y47.5507
G01 X56.5007 Y47.5507
G00 X56.5007 Y47.5507
G01 F100.00
G01 Z-9.2000
G01 F250.00
G01 X56.5104 Y47.5497
G01 X56.5197 Y47.5469
G01 X56.5282 Y47.5423
G01 X56.5358 Y47.5361
G01 X56.5419 Y47.5286
G01 X56.5465 Y47.5200
G01 X56.5493 Y47.5107
G01 X56.5503 Y47.5011
G01 X56.5493 Y47.4914
G01 X56.5465 Y47.4821
G01 X56.5419 Y47.4735
G01 X56.5358 Y47.4660
G01 X56.5282 Y47.4598
G01 X56.5197 Y47.4552
G01 X56.5104 Y47.4524
G01 X56.5007 Y47.4515
G01 X18.4997 Y47.4515
G01 X18.4901 Y47.4524
G01 X18.4808 Y47.4552
G01 X18.4722 Y47.4598
G01 X18.4647 Y47.4660
G01 X18.4585 Y47.4735
G01 X18.4539 Y47.4821
G01 X18.4511 Y47.4914
G01 X18.4501 Y47.5011
G01 X18.4511 Y47.5107
G01 X18.4539 Y47.5200
G01 X18.4585 Y47.5286
G01 X18.4647 Y47.5361
G01 X18.4722 Y47.5423
G01 X18.4808 Y47.5469
G01 X18.4901 Y47.5497
G01 X18.4997 Y47.5507
G01 X56.5007 Y47.5507
G00 X56.5007 Y47.5507
G01 F100.00
G01 Z-9.6000
G01 F250.00
G01 X56.5104 Y47.5497
G01 X56.5197 Y47.5469
G01 X56.5282 Y47.5423
G01 X56.5358 Y47.5361
G01 X56.5419 Y47.5286
G01 X56.5465 Y47.5200
G01 X56.5493 Y47.5107
G01 X56.5503 Y47.5011
G01 X56.5493 Y47.4914
G01 X56.5465 Y47.4821
G01 X56.5419 Y47.4735
G01 X56.5358 Y47.4660
G01 X56.5282 Y47.4598
G01 X56.5197 Y47.4552
G01 X56.5104 Y47.4524
G01 X56.5007 Y47.4515
G01 X18.4997 Y47.4515
G01 X18.4901 Y47.4524
G01 X18.4808 Y47.4552
G01 X18.4722 Y47.4598
G01 X18.4647 Y47.4660
G01 X18.4585 Y47.4735
G01 X18.4539 Y47.4821
G01 X18.4511 Y47.4914
G01 X18.4501 Y47.5011
G01 X18.4511 Y47.5107
G01 X18.4539 Y47.5200
G01 X18.4585 Y47.5286
G01 X18.4647 Y47.5361
G01 X18.4722 Y47.5423
G01 X18.4808 Y47.5469
G01 X18.4901 Y47.5497
G01 X18.4997 Y47.5507
G01 X56.5007 Y47.5507
G00 X56.5007 Y47.5507
G01 F100.00
G01 Z-10.0000
G01 F250.00
G01 X56.5104 Y47.5497
G01 X56.5197 Y47.5469
G01 X56.5282 Y47.5423
G01 X56.5358 Y47.5361
G01 X56.5419 Y47.5286
G01 X56.5465 Y47.5200
G01 X56.5493 Y47.5107
G01 X56.5503 Y47.5011
G01 X56.5493 Y47.4914
G01 X56.5465 Y47.4821
G01 X56.5419 Y47.4735
G01 X56.5358 Y47.4660
G01 X56.5282 Y47.4598
G01 X56.5197 Y47.4552
G01 X56.5104 Y47.4524
G01 X56.5007 Y47.4515
G01 X18.4997 Y47.4515
G01 X18.4901 Y47.4524
G01 X18.4808 Y47.4552
G01 X18.4722 Y47.4598
G01 X18.4647 Y47.4660
G01 X18.4585 Y47.4735
G01 X18.4539 Y47.4821
G01 X18.4511 Y47.4914
G01 X18.4501 Y47.5011
G01 X18.4511 Y47.5107
G01 X18.4539 Y47.5200
G01 X18.4585 Y47.5286
G01 X18.4647 Y47.5361
G01 X18.4722 Y47.5423
G01 X18.4808 Y47.5469
G01 X18.4901 Y47.5497
G01 X18.4997 Y47.5507
G01 X56.5007 Y47.5507
G00 X56.5007 Y47.5507
G01 F100.00
G01 Z-10.2000
G01 F250.00
G01 X56.5104 Y47.5497
G01 X56.5197 Y47.5469
G01 X56.5282 Y47.5423
G01 X56.5358 Y47.5361
G01 X56.5419 Y47.5286
G01 X56.5465 Y47.5200
G01 X56.5493 Y47.5107
G01 X56.5503 Y47.5011
G01 X56.5493 Y47.4914
G01 X56.5465 Y47.4821
G01 X56.5419 Y47.4735
G01 X56.5358 Y47.4660
G01 X56.5282 Y47.4598
G01 X56.5197 Y47.4552
G01 X56.5104 Y47.4524
G01 X56.5007 Y47.4515
G01 X18.4997 Y47.4515
G01 X18.4901 Y47.4524
G01 X18.4808 Y47.4552
G01 X18.4722 Y47.4598
G01 X18.4647 Y47.4660
G01 X18.4585 Y47.4735
G01 X18.4539 Y47.4821
G01 X18.4511 Y47.4914
G01 X18.4501 Y47.5011
G01 X18.4511 Y47.5107
G01 X18.4539 Y47.5200
G01 X18.4585 Y47.5286
G01 X18.4647 Y47.5361
G01 X18.4722 Y47.5423
G01 X18.4808 Y47.5469
G01 X18.4901 Y47.5497
G01 X18.4997 Y47.5507
G01 X56.5007 Y47.5507
G00 Z2.0000
G00 X54.9995 Y54.5484
G01 F100.00
G01 Z-0.4000
G01 F250.00
G01 X55.0092 Y54.5474
G01 X55.0185 Y54.5446
G01 X55.0271 Y54.5400
G01 X55.0346 Y54.5338
G01 X55.0408 Y54.5263
G01 X55.0454 Y54.5177
G01 X55.0482 Y54.5084
G01 X55.0491 Y54.4988
G01 X55.0482 Y54.4891
G01 X55.0454 Y54.4798
G01 X55.0408 Y54.4712
G01 X55.0346 Y54.4637
G01 X55.0271 Y54.4575
G01 X55.0185 Y54.4529
G01 X55.0092 Y54.4501
G01 X54.9995 Y54.4492
G01 X20.0009 Y54.4492
G01 X19.9912 Y54.4501
G01 X19.9819 Y54.4529
G01 X19.9733 Y54.4575
G01 X19.9658 Y54.4637
G01 X19.9596 Y54.4712
G01 X19.9551 Y54.4798
G01 X19.9522 Y54.4891
G01 X19.9513 Y54.4988
G01 X19.9522 Y54.5084
G01 X19.9551 Y54.5177
G01 X19.9596 Y54.5263
G01 X19.9658 Y54.5338
G01 X19.9733 Y54.5400
G01 X19.9819 Y54.5446
G01 X19.9912 Y54.5474
G01 X20.0009 Y54.5484
G01 X54.9995 Y54.5484
G00 X54.9995 Y54.5484
G01 F100.00
G01 Z-0.8000
G01 F250.00
G01 X55.0092 Y54.5474
G01 X55.0185 Y54.5446
G01 X55.0271 Y54.5400
G01 X55.0346 Y54.5338
G01 X55.0408 Y54.5263
G01 X55.0454 Y54.5177
G01 X55.0482 Y54.5084
G01 X55.0491 Y54.4988
G01 X55.0482 Y54.4891
G01 X55.0454 Y54.4798
G01 X55.0408 Y54.4712
G01 X55.0346 Y54.4637
G01 X55.0271 Y54.4575
G01 X55.0185 Y54.4529
G01 X55.0092 Y54.4501
G01 X54.9995 Y54.4492
G01 X20.0009 Y54.4492
G01 X19.9912 Y54.4501
G01 X19.9819 Y54.4529
G01 X19.9733 Y54.4575
G01 X19.9658 Y54.4637
G01 X19.9596 Y54.4712
G01 X19.9551 Y54.4798
G01 X19.9522 Y54.4891
G01 X19.9513 Y54.4988
G01 X19.9522 Y54.5084
G01 X19.9551 Y54.5177
G01 X19.9596 Y54.5263
G01 X19.9658 Y54.5338
G01 X19.9733 Y54.5400
G01 X19.9819 Y54.5446
G01 X19.9912 Y54.5474
G01 X20.0009 Y54.5484
G01 X54.9995 Y54.5484
G00 X54.9995 Y54.5484
G01 F100.00
G01 Z-1.2000
G01 F250.00
G01 X55.0092 Y54.5474
G01 X55.0185 Y54.5446
G01 X55.0271 Y54.5400
G01 X55.0346 Y54.5338
G01 X55.0408 Y54.5263
G01 X55.0454 Y54.5177
G01 X55.0482 Y54.5084
G01 X55.0491 Y54.4988
G01 X55.0482 Y54.4891
G01 X55.0454 Y54.4798
G01 X55.0408 Y54.4712
G01 X55.0346 Y54.4637
G01 X55.0271 Y54.4575
G01 X55.0185 Y54.4529
G01 X55.0092 Y54.4501
G01 X54.9995 Y54.4492
G01 X20.0009 Y54.4492
G01 X19.9912 Y54.4501
G01 X19.9819 Y54.4529
G01 X19.9733 Y54.4575
G01 X19.9658 Y54.4637
G01 X19.9596 Y54.4712
G01 X19.9551 Y54.4798
G01 X19.9522 Y54.4891
G01 X19.9513 Y54.4988
G01 X19.9522 Y54.5084
G01 X19.9551 Y54.5177
G01 X19.9596 Y54.5263
G01 X19.9658 Y54.5338
G01 X19.9733 Y54.5400
G01 X19.9819 Y54.5446
G01 X19.9912 Y54.5474
G01 X20.0009 Y54.5484
G01 X54.9995 Y54.5484
G00 X54.9995 Y54.5484
G01 F100.00
G01 Z-1.6000
G01 F250.00
G01 X55.0092 Y54.5474
G01 X55.0185 Y54.5446
G01 X55.0271 Y54.5400
G01 X55.0346 Y54.5338
G01 X55.0408 Y54.5263
G01 X55.0454 Y54.5177
G01 X55.0482 Y54.5084
G01 X55.0491 Y54.4988
G01 X55.0482 Y54.4891
G01 X55.0454 Y54.4798
G01 X55.0408 Y54.4712
G01 X55.0346 Y54.4637
G01 X55.0271 Y54.4575
G01 X55.0185 Y54.4529
G01 X55.0092 Y54.4501
G01 X54.9995 Y54.4492
G01 X20.0009 Y54.4492
G01 X19.9912 Y54.4501
G01 X19.9819 Y54.4529
G01 X19.9733 Y54.4575
G01 X19.9658 Y54.4637
G01 X19.9596 Y54.4712
G01 X19.9551 Y54.4798
G01 X19.9522 Y54.4891
G01 X19.9513 Y54.4988
G01 X19.9522 Y54.5084
G01 X19.9551 Y54.5177
G01 X19.9596 Y54.5263
G01 X19.9658 Y54.5338
G01 X19.9733 Y54.5400
G01 X19.9819 Y54.5446
G01 X19.9912 Y54.5474
G01 X20.0009 Y54.5484
G01 X54.9995 Y54.5484
G00 X54.9995 Y54.5484
G01 F100.00
G01 Z-2.0000
G01 F250.00
G01 X55.0092 Y54.5474
G01 X55.0185 Y54.5446
G01 X55.0271 Y54.5400
G01 X55.0346 Y54.5338
G01 X55.0408 Y54.5263
G01 X55.0454 Y54.5177
G01 X55.0482 Y54.5084
G01 X55.0491 Y54.4988
G01 X55.0482 Y54.4891
G01 X55.0454 Y54.4798
G01 X55.0408 Y54.4712
G01 X55.0346 Y54.4637
G01 X55.0271 Y54.4575
G01 X55.0185 Y54.4529
G01 X55.0092 Y54.4501
G01 X54.9995 Y54.4492
G01 X20.0009 Y54.4492
G01 X19.9912 Y54.4501
G01 X19.9819 Y54.4529
G01 X19.9733 Y54.4575
G01 X19.9658 Y54.4637
G01 X19.9596 Y54.4712
G01 X19.9551 Y54.4798
G01 X19.9522 Y54.4891
G01 X19.9513 Y54.4988
G01 X19.9522 Y54.5084
G01 X19.9551 Y54.5177
G01 X19.9596 Y54.5263
G01 X19.9658 Y54.5338
G01 X19.9733 Y54.5400
G01 X19.9819 Y54.5446
G01 X19.9912 Y54.5474
G01 X20.0009 Y54.5484
G01 X54.9995 Y54.5484
G00 X54.9995 Y54.5484
G01 F100.00
G01 Z-2.4000
G01 F250.00
G01 X55.0092 Y54.5474
G01 X55.0185 Y54.5446
G01 X55.0271 Y54.5400
G01 X55.0346 Y54.5338
G01 X55.0408 Y54.5263
G01 X55.0454 Y54.5177
G01 X55.0482 Y54.5084
G01 X55.0491 Y54.4988
G01 X55.0482 Y54.4891
G01 X55.0454 Y54.4798
G01 X55.0408 Y54.4712
G01 X55.0346 Y54.4637
G01 X55.0271 Y54.4575
G01 X55.0185 Y54.4529
G01 X55.0092 Y54.4501
G01 X54.9995 Y54.4492
G01 X20.0009 Y54.4492
G01 X19.9912 Y54.4501
G01 X19.9819 Y54.4529
G01 X19.9733 Y54.4575
G01 X19.9658 Y54.4637
G01 X19.9596 Y54.4712
G01 X19.9551 Y54.4798
G01 X19.9522 Y54.4891
G01 X19.9513 Y54.4988
G01 X19.9522 Y54.5084
G01 X19.9551 Y54.5177
G01 X19.9596 Y54.5263
G01 X19.9658 Y54.5338
G01 X19.9733 Y54.5400
G01 X19.9819 Y54.5446
G01 X19.9912 Y54.5474
G01 X20.0009 Y54.5484
G01 X54.9995 Y54.5484
G00 X54.9995 Y54.5484
G01 F100.00
G01 Z-2.8000
G01 F250.00
G01 X55.0092 Y54.5474
G01 X55.0185 Y54.5446
G01 X55.0271 Y54.5400
G01 X55.0346 Y54.5338
G01 X55.0408 Y54.5263
G01 X55.0454 Y54.5177
G01 X55.0482 Y54.5084
G01 X55.0491 Y54.4988
G01 X55.0482 Y54.4891
G01 X55.0454 Y54.4798
G01 X55.0408 Y54.4712
G01 X55.0346 Y54.4637
G01 X55.0271 Y54.4575
G01 X55.0185 Y54.4529
G01 X55.0092 Y54.4501
G01 X54.9995 Y54.4492
G01 X20.0009 Y54.4492
G01 X19.9912 Y54.4501
G01 X19.9819 Y54.4529
G01 X19.9733 Y54.4575
G01 X19.9658 Y54.4637
G01 X19.9596 Y54.4712
G01 X19.9551 Y54.4798
G01 X19.9522 Y54.4891
G01 X19.9513 Y54.4988
G01 X19.9522 Y54.5084
G01 X19.9551 Y54.5177
G01 X19.9596 Y54.5263
G01 X19.9658 Y54.5338
G01 X19.9733 Y54.5400
G01 X19.9819 Y54.5446
G01 X19.9912 Y54.5474
G01 X20.0009 Y54.5484
G01 X54.9995 Y54.5484
G00 X54.9995 Y54.5484
G01 F100.00
G01 Z-3.2000
G01 F250.00
G01 X55.0092 Y54.5474
G01 X55.0185 Y54.5446
G01 X55.0271 Y54.5400
G01 X55.0346 Y54.5338
G01 X55.0408 Y54.5263
G01 X55.0454 Y54.5177
G01 X55.0482 Y54.5084
G01 X55.0491 Y54.4988
G01 X55.0482 Y54.4891
G01 X55.0454 Y54.4798
G01 X55.0408 Y54.4712
G01 X55.0346 Y54.4637
G01 X55.0271 Y54.4575
G01 X55.0185 Y54.4529
G01 X55.0092 Y54.4501
G01 X54.9995 Y54.4492
G01 X20.0009 Y54.4492
G01 X19.9912 Y54.4501
G01 X19.9819 Y54.4529
G01 X19.9733 Y54.4575
G01 X19.9658 Y54.4637
G01 X19.9596 Y54.4712
G01 X19.9551 Y54.4798
G01 X19.9522 Y54.4891
G01 X19.9513 Y54.4988
G01 X19.9522 Y54.5084
G01 X19.9551 Y54.5177
G01 X19.9596 Y54.5263
G01 X19.9658 Y54.5338
G01 X19.9733 Y54.5400
G01 X19.9819 Y54.5446
G01 X19.9912 Y54.5474
G01 X20.0009 Y54.5484
G01 X54.9995 Y54.5484
G00 X54.9995 Y54.5484
G01 F100.00
G01 Z-3.6000
G01 F250.00
G01 X55.0092 Y54.5474
G01 X55.0185 Y54.5446
G01 X55.0271 Y54.5400
G01 X55.0346 Y54.5338
G01 X55.0408 Y54.5263
G01 X55.0454 Y54.5177
G01 X55.0482 Y54.5084
G01 X55.0491 Y54.4988
G01 X55.0482 Y54.4891
G01 X55.0454 Y54.4798
G01 X55.0408 Y54.4712
G01 X55.0346 Y54.4637
G01 X55.0271 Y54.4575
G01 X55.0185 Y54.4529
G01 X55.0092 Y54.4501
G01 X54.9995 Y54.4492
G01 X20.0009 Y54.4492
G01 X19.9912 Y54.4501
G01 X19.9819 Y54.4529
G01 X19.9733 Y54.4575
G01 X19.9658 Y54.4637
G01 X19.9596 Y54.4712
G01 X19.9551 Y54.4798
G01 X19.9522 Y54.4891
G01 X19.9513 Y54.4988
G01 X19.9522 Y54.5084
G01 X19.9551 Y54.5177
G01 X19.9596 Y54.5263
G01 X19.9658 Y54.5338
G01 X19.9733 Y54.5400
G01 X19.9819 Y54.5446
G01 X19.9912 Y54.5474
G01 X20.0009 Y54.5484
G01 X54.9995 Y54.5484
G00 X54.9995 Y54.5484
G01 F100.00
G01 Z-4.0000
G01 F250.00
G01 X55.0092 Y54.5474
G01 X55.0185 Y54.5446
G01 X55.0271 Y54.5400
G01 X55.0346 Y54.5338
G01 X55.0408 Y54.5263
G01 X55.0454 Y54.5177
G01 X55.0482 Y54.5084
G01 X55.0491 Y54.4988
G01 X55.0482 Y54.4891
G01 X55.0454 Y54.4798
G01 X55.0408 Y54.4712
G01 X55.0346 Y54.4637
G01 X55.0271 Y54.4575
G01 X55.0185 Y54.4529
G01 X55.0092 Y54.4501
G01 X54.9995 Y54.4492
G01 X20.0009 Y54.4492
G01 X19.9912 Y54.4501
G01 X19.9819 Y54.4529
G01 X19.9733 Y54.4575
G01 X19.9658 Y54.4637
G01 X19.9596 Y54.4712
G01 X19.9551 Y54.4798
G01 X19.9522 Y54.4891
G01 X19.9513 Y54.4988
G01 X19.9522 Y54.5084
G01 X19.9551 Y54.5177
G01 X19.9596 Y54.5263
G01 X19.9658 Y54.5338
G01 X19.9733 Y54.5400
G01 X19.9819 Y54.5446
G01 X19.9912 Y54.5474
G01 X20.0009 Y54.5484
G01 X54.9995 Y54.5484
G00 X54.9995 Y54.5484
G01 F100.00
G01 Z-4.4000
G01 F250.00
G01 X55.0092 Y54.5474
G01 X55.0185 Y54.5446
G01 X55.0271 Y54.5400
G01 X55.0346 Y54.5338
G01 X55.0408 Y54.5263
G01 X55.0454 Y54.5177
G01 X55.0482 Y54.5084
G01 X55.0491 Y54.4988
G01 X55.0482 Y54.4891
G01 X55.0454 Y54.4798
G01 X55.0408 Y54.4712
G01 X55.0346 Y54.4637
G01 X55.0271 Y54.4575
G01 X55.0185 Y54.4529
G01 X55.0092 Y54.4501
G01 X54.9995 Y54.4492
G01 X20.0009 Y54.4492
G01 X19.9912 Y54.4501
G01 X19.9819 Y54.4529
G01 X19.9733 Y54.4575
G01 X19.9658 Y54.4637
G01 X19.9596 Y54.4712
G01 X19.9551 Y54.4798
G01 X19.9522 Y54.4891
G01 X19.9513 Y54.4988
G01 X19.9522 Y54.5084
G01 X19.9551 Y54.5177
G01 X19.9596 Y54.5263
G01 X19.9658 Y54.5338
G01 X19.9733 Y54.5400
G01 X19.9819 Y54.5446
G01 X19.9912 Y54.5474
G01 X20.0009 Y54.5484
G01 X54.9995 Y54.5484
G00 X54.9995 Y54.5484
G01 F100.00
G01 Z-4.8000
G01 F250.00
G01 X55.0092 Y54.5474
G01 X55.0185 Y54.5446
G01 X55.0271 Y54.5400
G01 X55.0346 Y54.5338
G01 X55.0408 Y54.5263
G01 X55.0454 Y54.5177
G01 X55.0482 Y54.5084
G01 X55.0491 Y54.4988
G01 X55.0482 Y54.4891
G01 X55.0454 Y54.4798
G01 X55.0408 Y54.4712
G01 X55.0346 Y54.4637
G01 X55.0271 Y54.4575
G01 X55.0185 Y54.4529
G01 X55.0092 Y54.4501
G01 X54.9995 Y54.4492
G01 X20.0009 Y54.4492
G01 X19.9912 Y54.4501
G01 X19.9819 Y54.4529
G01 X19.9733 Y54.4575
G01 X19.9658 Y54.4637
G01 X19.9596 Y54.4712
G01 X19.9551 Y54.4798
G01 X19.9522 Y54.4891
G01 X19.9513 Y54.4988
G01 X19.9522 Y54.5084
G01 X19.9551 Y54.5177
G01 X19.9596 Y54.5263
G01 X19.9658 Y54.5338
G01 X19.9733 Y54.5400
G01 X19.9819 Y54.5446
G01 X19.9912 Y54.5474
G01 X20.0009 Y54.5484
G01 X54.9995 Y54.5484
G00 X54.9995 Y54.5484
G01 F100.00
G01 Z-5.2000
G01 F250.00
G01 X55.0092 Y54.5474
G01 X55.0185 Y54.5446
G01 X55.0271 Y54.5400
G01 X55.0346 Y54.5338
G01 X55.0408 Y54.5263
G01 X55.0454 Y54.5177
G01 X55.0482 Y54.5084
G01 X55.0491 Y54.4988
G01 X55.0482 Y54.4891
G01 X55.0454 Y54.4798
G01 X55.0408 Y54.4712
G01 X55.0346 Y54.4637
G01 X55.0271 Y54.4575
G01 X55.0185 Y54.4529
G01 X55.0092 Y54.4501
G01 X54.9995 Y54.4492
G01 X20.0009 Y54.4492
G01 X19.9912 Y54.4501
G01 X19.9819 Y54.4529
G01 X19.9733 Y54.4575
G01 X19.9658 Y54.4637
G01 X19.9596 Y54.4712
G01 X19.9551 Y54.4798
G01 X19.9522 Y54.4891
G01 X19.9513 Y54.4988
G01 X19.9522 Y54.5084
G01 X19.9551 Y54.5177
G01 X19.9596 Y54.5263
G01 X19.9658 Y54.5338
G01 X19.9733 Y54.5400
G01 X19.9819 Y54.5446
G01 X19.9912 Y54.5474
G01 X20.0009 Y54.5484
G01 X54.9995 Y54.5484
G00 X54.9995 Y54.5484
G01 F100.00
G01 Z-5.6000
G01 F250.00
G01 X55.0092 Y54.5474
G01 X55.0185 Y54.5446
G01 X55.0271 Y54.5400
G01 X55.0346 Y54.5338
G01 X55.0408 Y54.5263
G01 X55.0454 Y54.5177
G01 X55.0482 Y54.5084
G01 X55.0491 Y54.4988
G01 X55.0482 Y54.4891
G01 X55.0454 Y54.4798
G01 X55.0408 Y54.4712
G01 X55.0346 Y54.4637
G01 X55.0271 Y54.4575
G01 X55.0185 Y54.4529
G01 X55.0092 Y54.4501
G01 X54.9995 Y54.4492
G01 X20.0009 Y54.4492
G01 X19.9912 Y54.4501
G01 X19.9819 Y54.4529
G01 X19.9733 Y54.4575
G01 X19.9658 Y54.4637
G01 X19.9596 Y54.4712
G01 X19.9551 Y54.4798
G01 X19.9522 Y54.4891
G01 X19.9513 Y54.4988
G01 X19.9522 Y54.5084
G01 X19.9551 Y54.5177
G01 X19.9596 Y54.5263
G01 X19.9658 Y54.5338
G01 X19.9733 Y54.5400
G01 X19.9819 Y54.5446
G01 X19.9912 Y54.5474
G01 X20.0009 Y54.5484
G01 X54.9995 Y54.5484
G00 X54.9995 Y54.5484
G01 F100.00
G01 Z-6.0000
G01 F250.00
G01 X55.0092 Y54.5474
G01 X55.0185 Y54.5446
G01 X55.0271 Y54.5400
G01 X55.0346 Y54.5338
G01 X55.0408 Y54.5263
G01 X55.0454 Y54.5177
G01 X55.0482 Y54.5084
G01 X55.0491 Y54.4988
G01 X55.0482 Y54.4891
G01 X55.0454 Y54.4798
G01 X55.0408 Y54.4712
G01 X55.0346 Y54.4637
G01 X55.0271 Y54.4575
G01 X55.0185 Y54.4529
G01 X55.0092 Y54.4501
G01 X54.9995 Y54.4492
G01 X20.0009 Y54.4492
G01 X19.9912 Y54.4501
G01 X19.9819 Y54.4529
G01 X19.9733 Y54.4575
G01 X19.9658 Y54.4637
G01 X19.9596 Y54.4712
G01 X19.9551 Y54.4798
G01 X19.9522 Y54.4891
G01 X19.9513 Y54.4988
G01 X19.9522 Y54.5084
G01 X19.9551 Y54.5177
G01 X19.9596 Y54.5263
G01 X19.9658 Y54.5338
G01 X19.9733 Y54.5400
G01 X19.9819 Y54.5446
G01 X19.9912 Y54.5474
G01 X20.0009 Y54.5484
G01 X54.9995 Y54.5484
G00 X54.9995 Y54.5484
G01 F100.00
G01 Z-6.4000
G01 F250.00
G01 X55.0092 Y54.5474
G01 X55.0185 Y54.5446
G01 X55.0271 Y54.5400
G01 X55.0346 Y54.5338
G01 X55.0408 Y54.5263
G01 X55.0454 Y54.5177
G01 X55.0482 Y54.5084
G01 X55.0491 Y54.4988
G01 X55.0482 Y54.4891
G01 X55.0454 Y54.4798
G01 X55.0408 Y54.4712
G01 X55.0346 Y54.4637
G01 X55.0271 Y54.4575
G01 X55.0185 Y54.4529
G01 X55.0092 Y54.4501
G01 X54.9995 Y54.4492
G01 X20.0009 Y54.4492
G01 X19.9912 Y54.4501
G01 X19.9819 Y54.4529
G01 X19.9733 Y54.4575
G01 X19.9658 Y54.4637
G01 X19.9596 Y54.4712
G01 X19.9551 Y54.4798
G01 X19.9522 Y54.4891
G01 X19.9513 Y54.4988
G01 X19.9522 Y54.5084
G01 X19.9551 Y54.5177
G01 X19.9596 Y54.5263
G01 X19.9658 Y54.5338
G01 X19.9733 Y54.5400
G01 X19.9819 Y54.5446
G01 X19.9912 Y54.5474
G01 X20.0009 Y54.5484
G01 X54.9995 Y54.5484
G00 X54.9995 Y54.5484
G01 F100.00
G01 Z-6.8000
G01 F250.00
G01 X55.0092 Y54.5474
G01 X55.0185 Y54.5446
G01 X55.0271 Y54.5400
G01 X55.0346 Y54.5338
G01 X55.0408 Y54.5263
G01 X55.0454 Y54.5177
G01 X55.0482 Y54.5084
G01 X55.0491 Y54.4988
G01 X55.0482 Y54.4891
G01 X55.0454 Y54.4798
G01 X55.0408 Y54.4712
G01 X55.0346 Y54.4637
G01 X55.0271 Y54.4575
G01 X55.0185 Y54.4529
G01 X55.0092 Y54.4501
G01 X54.9995 Y54.4492
G01 X20.0009 Y54.4492
G01 X19.9912 Y54.4501
G01 X19.9819 Y54.4529
G01 X19.9733 Y54.4575
G01 X19.9658 Y54.4637
G01 X19.9596 Y54.4712
G01 X19.9551 Y54.4798
G01 X19.9522 Y54.4891
G01 X19.9513 Y54.4988
G01 X19.9522 Y54.5084
G01 X19.9551 Y54.5177
G01 X19.9596 Y54.5263
G01 X19.9658 Y54.5338
G01 X19.9733 Y54.5400
G01 X19.9819 Y54.5446
G01 X19.9912 Y54.5474
G01 X20.0009 Y54.5484
G01 X54.9995 Y54.5484
G00 X54.9995 Y54.5484
G01 F100.00
G01 Z-7.2000
G01 F250.00
G01 X55.0092 Y54.5474
G01 X55.0185 Y54.5446
G01 X55.0271 Y54.5400
G01 X55.0346 Y54.5338
G01 X55.0408 Y54.5263
G01 X55.0454 Y54.5177
G01 X55.0482 Y54.5084
G01 X55.0491 Y54.4988
G01 X55.0482 Y54.4891
G01 X55.0454 Y54.4798
G01 X55.0408 Y54.4712
G01 X55.0346 Y54.4637
G01 X55.0271 Y54.4575
G01 X55.0185 Y54.4529
G01 X55.0092 Y54.4501
G01 X54.9995 Y54.4492
G01 X20.0009 Y54.4492
G01 X19.9912 Y54.4501
G01 X19.9819 Y54.4529
G01 X19.9733 Y54.4575
G01 X19.9658 Y54.4637
G01 X19.9596 Y54.4712
G01 X19.9551 Y54.4798
G01 X19.9522 Y54.4891
G01 X19.9513 Y54.4988
G01 X19.9522 Y54.5084
G01 X19.9551 Y54.5177
G01 X19.9596 Y54.5263
G01 X19.9658 Y54.5338
G01 X19.9733 Y54.5400
G01 X19.9819 Y54.5446
G01 X19.9912 Y54.5474
G01 X20.0009 Y54.5484
G01 X54.9995 Y54.5484
G00 X54.9995 Y54.5484
G01 F100.00
G01 Z-7.6000
G01 F250.00
G01 X55.0092 Y54.5474
G01 X55.0185 Y54.5446
G01 X55.0271 Y54.5400
G01 X55.0346 Y54.5338
G01 X55.0408 Y54.5263
G01 X55.0454 Y54.5177
G01 X55.0482 Y54.5084
G01 X55.0491 Y54.4988
G01 X55.0482 Y54.4891
G01 X55.0454 Y54.4798
G01 X55.0408 Y54.4712
G01 X55.0346 Y54.4637
G01 X55.0271 Y54.4575
G01 X55.0185 Y54.4529
G01 X55.0092 Y54.4501
G01 X54.9995 Y54.4492
G01 X20.0009 Y54.4492
G01 X19.9912 Y54.4501
G01 X19.9819 Y54.4529
G01 X19.9733 Y54.4575
G01 X19.9658 Y54.4637
G01 X19.9596 Y54.4712
G01 X19.9551 Y54.4798
G01 X19.9522 Y54.4891
G01 X19.9513 Y54.4988
G01 X19.9522 Y54.5084
G01 X19.9551 Y54.5177
G01 X19.9596 Y54.5263
G01 X19.9658 Y54.5338
G01 X19.9733 Y54.5400
G01 X19.9819 Y54.5446
G01 X19.9912 Y54.5474
G01 X20.0009 Y54.5484
G01 X54.9995 Y54.5484
G00 X54.9995 Y54.5484
G01 F100.00
G01 Z-8.0000
G01 F250.00
G01 X55.0092 Y54.5474
G01 X55.0185 Y54.5446
G01 X55.0271 Y54.5400
G01 X55.0346 Y54.5338
G01 X55.0408 Y54.5263
G01 X55.0454 Y54.5177
G01 X55.0482 Y54.5084
G01 X55.0491 Y54.4988
G01 X55.0482 Y54.4891
G01 X55.0454 Y54.4798
G01 X55.0408 Y54.4712
G01 X55.0346 Y54.4637
G01 X55.0271 Y54.4575
G01 X55.0185 Y54.4529
G01 X55.0092 Y54.4501
G01 X54.9995 Y54.4492
G01 X20.0009 Y54.4492
G01 X19.9912 Y54.4501
G01 X19.9819 Y54.4529
G01 X19.9733 Y54.4575
G01 X19.9658 Y54.4637
G01 X19.9596 Y54.4712
G01 X19.9551 Y54.4798
G01 X19.9522 Y54.4891
G01 X19.9513 Y54.4988
G01 X19.9522 Y54.5084
G01 X19.9551 Y54.5177
G01 X19.9596 Y54.5263
G01 X19.9658 Y54.5338
G01 X19.9733 Y54.5400
G01 X19.9819 Y54.5446
G01 X19.9912 Y54.5474
G01 X20.0009 Y54.5484
G01 X54.9995 Y54.5484
G00 X54.9995 Y54.5484
G01 F100.00
G01 Z-8.4000
G01 F250.00
G01 X55.0092 Y54.5474
G01 X55.0185 Y54.5446
G01 X55.0271 Y54.5400
G01 X55.0346 Y54.5338
G01 X55.0408 Y54.5263
G01 X55.0454 Y54.5177
G01 X55.0482 Y54.5084
G01 X55.0491 Y54.4988
G01 X55.0482 Y54.4891
G01 X55.0454 Y54.4798
G01 X55.0408 Y54.4712
G01 X55.0346 Y54.4637
G01 X55.0271 Y54.4575
G01 X55.0185 Y54.4529
G01 X55.0092 Y54.4501
G01 X54.9995 Y54.4492
G01 X20.0009 Y54.4492
G01 X19.9912 Y54.4501
G01 X19.9819 Y54.4529
G01 X19.9733 Y54.4575
G01 X19.9658 Y54.4637
G01 X19.9596 Y54.4712
G01 X19.9551 Y54.4798
G01 X19.9522 Y54.4891
G01 X19.9513 Y54.4988
G01 X19.9522 Y54.5084
G01 X19.9551 Y54.5177
G01 X19.9596 Y54.5263
G01 X19.9658 Y54.5338
G01 X19.9733 Y54.5400
G01 X19.9819 Y54.5446
G01 X19.9912 Y54.5474
G01 X20.0009 Y54.5484
G01 X54.9995 Y54.5484
G00 X54.9995 Y54.5484
G01 F100.00
G01 Z-8.8000
G01 F250.00
G01 X55.0092 Y54.5474
G01 X55.0185 Y54.5446
G01 X55.0271 Y54.5400
G01 X55.0346 Y54.5338
G01 X55.0408 Y54.5263
G01 X55.0454 Y54.5177
G01 X55.0482 Y54.5084
G01 X55.0491 Y54.4988
G01 X55.0482 Y54.4891
G01 X55.0454 Y54.4798
G01 X55.0408 Y54.4712
G01 X55.0346 Y54.4637
G01 X55.0271 Y54.4575
G01 X55.0185 Y54.4529
G01 X55.0092 Y54.4501
G01 X54.9995 Y54.4492
G01 X20.0009 Y54.4492
G01 X19.9912 Y54.4501
G01 X19.9819 Y54.4529
G01 X19.9733 Y54.4575
G01 X19.9658 Y54.4637
G01 X19.9596 Y54.4712
G01 X19.9551 Y54.4798
G01 X19.9522 Y54.4891
G01 X19.9513 Y54.4988
G01 X19.9522 Y54.5084
G01 X19.9551 Y54.5177
G01 X19.9596 Y54.5263
G01 X19.9658 Y54.5338
G01 X19.9733 Y54.5400
G01 X19.9819 Y54.5446
G01 X19.9912 Y54.5474
G01 X20.0009 Y54.5484
G01 X54.9995 Y54.5484
G00 X54.9995 Y54.5484
G01 F100.00
G01 Z-9.2000
G01 F250.00
G01 X55.0092 Y54.5474
G01 X55.0185 Y54.5446
G01 X55.0271 Y54.5400
G01 X55.0346 Y54.5338
G01 X55.0408 Y54.5263
G01 X55.0454 Y54.5177
G01 X55.0482 Y54.5084
G01 X55.0491 Y54.4988
G01 X55.0482 Y54.4891
G01 X55.0454 Y54.4798
G01 X55.0408 Y54.4712
G01 X55.0346 Y54.4637
G01 X55.0271 Y54.4575
G01 X55.0185 Y54.4529
G01 X55.0092 Y54.4501
G01 X54.9995 Y54.4492
G01 X20.0009 Y54.4492
G01 X19.9912 Y54.4501
G01 X19.9819 Y54.4529
G01 X19.9733 Y54.4575
G01 X19.9658 Y54.4637
G01 X19.9596 Y54.4712
G01 X19.9551 Y54.4798
G01 X19.9522 Y54.4891
G01 X19.9513 Y54.4988
G01 X19.9522 Y54.5084
G01 X19.9551 Y54.5177
G01 X19.9596 Y54.5263
G01 X19.9658 Y54.5338
G01 X19.9733 Y54.5400
G01 X19.9819 Y54.5446
G01 X19.9912 Y54.5474
G01 X20.0009 Y54.5484
G01 X54.9995 Y54.5484
G00 X54.9995 Y54.5484
G01 F100.00
G01 Z-9.6000
G01 F250.00
G01 X55.0092 Y54.5474
G01 X55.0185 Y54.5446
G01 X55.0271 Y54.5400
G01 X55.0346 Y54.5338
G01 X55.0408 Y54.5263
G01 X55.0454 Y54.5177
G01 X55.0482 Y54.5084
G01 X55.0491 Y54.4988
G01 X55.0482 Y54.4891
G01 X55.0454 Y54.4798
G01 X55.0408 Y54.4712
G01 X55.0346 Y54.4637
G01 X55.0271 Y54.4575
G01 X55.0185 Y54.4529
G01 X55.0092 Y54.4501
G01 X54.9995 Y54.4492
G01 X20.0009 Y54.4492
G01 X19.9912 Y54.4501
G01 X19.9819 Y54.4529
G01 X19.9733 Y54.4575
G01 X19.9658 Y54.4637
G01 X19.9596 Y54.4712
G01 X19.9551 Y54.4798
G01 X19.9522 Y54.4891
G01 X19.9513 Y54.4988
G01 X19.9522 Y54.5084
G01 X19.9551 Y54.5177
G01 X19.9596 Y54.5263
G01 X19.9658 Y54.5338
G01 X19.9733 Y54.5400
G01 X19.9819 Y54.5446
G01 X19.9912 Y54.5474
G01 X20.0009 Y54.5484
G01 X54.9995 Y54.5484
G00 X54.9995 Y54.5484
G01 F100.00
G01 Z-10.0000
G01 F250.00
G01 X55.0092 Y54.5474
G01 X55.0185 Y54.5446
G01 X55.0271 Y54.5400
G01 X55.0346 Y54.5338
G01 X55.0408 Y54.5263
G01 X55.0454 Y54.5177
G01 X55.0482 Y54.5084
G01 X55.0491 Y54.4988
G01 X55.0482 Y54.4891
G01 X55.0454 Y54.4798
G01 X55.0408 Y54.4712
G01 X55.0346 Y54.4637
G01 X55.0271 Y54.4575
G01 X55.0185 Y54.4529
G01 X55.0092 Y54.4501
G01 X54.9995 Y54.4492
G01 X20.0009 Y54.4492
G01 X19.9912 Y54.4501
G01 X19.9819 Y54.4529
G01 X19.9733 Y54.4575
G01 X19.9658 Y54.4637
G01 X19.9596 Y54.4712
G01 X19.9551 Y54.4798
G01 X19.9522 Y54.4891
G01 X19.9513 Y54.4988
G01 X19.9522 Y54.5084
G01 X19.9551 Y54.5177
G01 X19.9596 Y54.5263
G01 X19.9658 Y54.5338
G01 X19.9733 Y54.5400
G01 X19.9819 Y54.5446
G01 X19.9912 Y54.5474
G01 X20.0009 Y54.5484
G01 X54.9995 Y54.5484
G00 X54.9995 Y54.5484
G01 F100.00
G01 Z-10.2000
G01 F250.00
G01 X55.0092 Y54.5474
G01 X55.0185 Y54.5446
G01 X55.0271 Y54.5400
G01 X55.0346 Y54.5338
G01 X55.0408 Y54.5263
G01 X55.0454 Y54.5177
G01 X55.0482 Y54.5084
G01 X55.0491 Y54.4988
G01 X55.0482 Y54.4891
G01 X55.0454 Y54.4798
G01 X55.0408 Y54.4712
G01 X55.0346 Y54.4637
G01 X55.0271 Y54.4575
G01 X55.0185 Y54.4529
G01 X55.0092 Y54.4501
G01 X54.9995 Y54.4492
G01 X20.0009 Y54.4492
G01 X19.9912 Y54.4501
G01 X19.9819 Y54.4529
G01 X19.9733 Y54.4575
G01 X19.9658 Y54.4637
G01 X19.9596 Y54.4712
G01 X19.9551 Y54.4798
G01 X19.9522 Y54.4891
G01 X19.9513 Y54.4988
G01 X19.9522 Y54.5084
G01 X19.9551 Y54.5177
G01 X19.9596 Y54.5263
G01 X19.9658 Y54.5338
G01 X19.9733 Y54.5400
G01 X19.9819 Y54.5446
G01 X19.9912 Y54.5474
G01 X20.0009 Y54.5484
G01 X54.9995 Y54.5484
G00 Z2.0000
G00 X50.0008 Y61.5486
G01 F100.00
G01 Z-0.4000
G01 F250.00
G01 X50.0105 Y61.5476
G01 X50.0198 Y61.5448
G01 X50.0284 Y61.5402
G01 X50.0359 Y61.5341
G01 X50.0421 Y61.5266
G01 X50.0466 Y61.5180
G01 X50.0495 Y61.5087
G01 X50.0504 Y61.4990
G01 X50.0495 Y61.4893
G01 X50.0466 Y61.4800
G01 X50.0421 Y61.4714
G01 X50.0359 Y61.4639
G01 X50.0284 Y61.4578
G01 X50.0198 Y61.4532
G01 X50.0105 Y61.4504
G01 X50.0008 Y61.4494
G01 X24.9996 Y61.4494
G01 X24.9899 Y61.4504
G01 X24.9806 Y61.4532
G01 X24.9720 Y61.4578
G01 X24.9645 Y61.4639
G01 X24.9584 Y61.4714
G01 X24.9538 Y61.4800
G01 X24.9510 Y61.4893
G01 X24.9500 Y61.4990
G01 X24.9510 Y61.5087
G01 X24.9538 Y61.5180
G01 X24.9584 Y61.5266
G01 X24.9645 Y61.5341
G01 X24.9720 Y61.5402
G01 X24.9806 Y61.5448
G01 X24.9899 Y61.5476
G01 X24.9996 Y61.5486
G01 X50.0008 Y61.5486
G00 X50.0008 Y61.5486
G01 F100.00
G01 Z-0.8000
G01 F250.00
G01 X50.0105 Y61.5476
G01 X50.0198 Y61.5448
G01 X50.0284 Y61.5402
G01 X50.0359 Y61.5341
G01 X50.0421 Y61.5266
G01 X50.0466 Y61.5180
G01 X50.0495 Y61.5087
G01 X50.0504 Y61.4990
G01 X50.0495 Y61.4893
G01 X50.0466 Y61.4800
G01 X50.0421 Y61.4714
G01 X50.0359 Y61.4639
G01 X50.0284 Y61.4578
G01 X50.0198 Y61.4532
G01 X50.0105 Y61.4504
G01 X50.0008 Y61.4494
G01 X24.9996 Y61.4494
G01 X24.9899 Y61.4504
G01 X24.9806 Y61.4532
G01 X24.9720 Y61.4578
G01 X24.9645 Y61.4639
G01 X24.9584 Y61.4714
G01 X24.9538 Y61.4800
G01 X24.9510 Y61.4893
G01 X24.9500 Y61.4990
G01 X24.9510 Y61.5087
G01 X24.9538 Y61.5180
G01 X24.9584 Y61.5266
G01 X24.9645 Y61.5341
G01 X24.9720 Y61.5402
G01 X24.9806 Y61.5448
G01 X24.9899 Y61.5476
G01 X24.9996 Y61.5486
G01 X50.0008 Y61.5486
G00 X50.0008 Y61.5486
G01 F100.00
G01 Z-1.2000
G01 F250.00
G01 X50.0105 Y61.5476
G01 X50.0198 Y61.5448
G01 X50.0284 Y61.5402
G01 X50.0359 Y61.5341
G01 X50.0421 Y61.5266
G01 X50.0466 Y61.5180
G01 X50.0495 Y61.5087
G01 X50.0504 Y61.4990
G01 X50.0495 Y61.4893
G01 X50.0466 Y61.4800
G01 X50.0421 Y61.4714
G01 X50.0359 Y61.4639
G01 X50.0284 Y61.4578
G01 X50.0198 Y61.4532
G01 X50.0105 Y61.4504
G01 X50.0008 Y61.4494
G01 X24.9996 Y61.4494
G01 X24.9899 Y61.4504
G01 X24.9806 Y61.4532
G01 X24.9720 Y61.4578
G01 X24.9645 Y61.4639
G01 X24.9584 Y61.4714
G01 X24.9538 Y61.4800
G01 X24.9510 Y61.4893
G01 X24.9500 Y61.4990
G01 X24.9510 Y61.5087
G01 X24.9538 Y61.5180
G01 X24.9584 Y61.5266
G01 X24.9645 Y61.5341
G01 X24.9720 Y61.5402
G01 X24.9806 Y61.5448
G01 X24.9899 Y61.5476
G01 X24.9996 Y61.5486
G01 X50.0008 Y61.5486
G00 X50.0008 Y61.5486
G01 F100.00
G01 Z-1.6000
G01 F250.00
G01 X50.0105 Y61.5476
G01 X50.0198 Y61.5448
G01 X50.0284 Y61.5402
G01 X50.0359 Y61.5341
G01 X50.0421 Y61.5266
G01 X50.0466 Y61.5180
G01 X50.0495 Y61.5087
G01 X50.0504 Y61.4990
G01 X50.0495 Y61.4893
G01 X50.0466 Y61.4800
G01 X50.0421 Y61.4714
G01 X50.0359 Y61.4639
G01 X50.0284 Y61.4578
G01 X50.0198 Y61.4532
G01 X50.0105 Y61.4504
G01 X50.0008 Y61.4494
G01 X24.9996 Y61.4494
G01 X24.9899 Y61.4504
G01 X24.9806 Y61.4532
G01 X24.9720 Y61.4578
G01 X24.9645 Y61.4639
G01 X24.9584 Y61.4714
G01 X24.9538 Y61.4800
G01 X24.9510 Y61.4893
G01 X24.9500 Y61.4990
G01 X24.9510 Y61.5087
G01 X24.9538 Y61.5180
G01 X24.9584 Y61.5266
G01 X24.9645 Y61.5341
G01 X24.9720 Y61.5402
G01 X24.9806 Y61.5448
G01 X24.9899 Y61.5476
G01 X24.9996 Y61.5486
G01 X50.0008 Y61.5486
G00 X50.0008 Y61.5486
G01 F100.00
G01 Z-2.0000
G01 F250.00
G01 X50.0105 Y61.5476
G01 X50.0198 Y61.5448
G01 X50.0284 Y61.5402
G01 X50.0359 Y61.5341
G01 X50.0421 Y61.5266
G01 X50.0466 Y61.5180
G01 X50.0495 Y61.5087
G01 X50.0504 Y61.4990
G01 X50.0495 Y61.4893
G01 X50.0466 Y61.4800
G01 X50.0421 Y61.4714
G01 X50.0359 Y61.4639
G01 X50.0284 Y61.4578
G01 X50.0198 Y61.4532
G01 X50.0105 Y61.4504
G01 X50.0008 Y61.4494
G01 X24.9996 Y61.4494
G01 X24.9899 Y61.4504
G01 X24.9806 Y61.4532
G01 X24.9720 Y61.4578
G01 X24.9645 Y61.4639
G01 X24.9584 Y61.4714
G01 X24.9538 Y61.4800
G01 X24.9510 Y61.4893
G01 X24.9500 Y61.4990
G01 X24.9510 Y61.5087
G01 X24.9538 Y61.5180
G01 X24.9584 Y61.5266
G01 X24.9645 Y61.5341
G01 X24.9720 Y61.5402
G01 X24.9806 Y61.5448
G01 X24.9899 Y61.5476
G01 X24.9996 Y61.5486
G01 X50.0008 Y61.5486
G00 X50.0008 Y61.5486
G01 F100.00
G01 Z-2.4000
G01 F250.00
G01 X50.0105 Y61.5476
G01 X50.0198 Y61.5448
G01 X50.0284 Y61.5402
G01 X50.0359 Y61.5341
G01 X50.0421 Y61.5266
G01 X50.0466 Y61.5180
G01 X50.0495 Y61.5087
G01 X50.0504 Y61.4990
G01 X50.0495 Y61.4893
G01 X50.0466 Y61.4800
G01 X50.0421 Y61.4714
G01 X50.0359 Y61.4639
G01 X50.0284 Y61.4578
G01 X50.0198 Y61.4532
G01 X50.0105 Y61.4504
G01 X50.0008 Y61.4494
G01 X24.9996 Y61.4494
G01 X24.9899 Y61.4504
G01 X24.9806 Y61.4532
G01 X24.9720 Y61.4578
G01 X24.9645 Y61.4639
G01 X24.9584 Y61.4714
G01 X24.9538 Y61.4800
G01 X24.9510 Y61.4893
G01 X24.9500 Y61.4990
G01 X24.9510 Y61.5087
G01 X24.9538 Y61.5180
G01 X24.9584 Y61.5266
G01 X24.9645 Y61.5341
G01 X24.9720 Y61.5402
G01 X24.9806 Y61.5448
G01 X24.9899 Y61.5476
G01 X24.9996 Y61.5486
G01 X50.0008 Y61.5486
G00 X50.0008 Y61.5486
G01 F100.00
G01 Z-2.8000
G01 F250.00
G01 X50.0105 Y61.5476
G01 X50.0198 Y61.5448
G01 X50.0284 Y61.5402
G01 X50.0359 Y61.5341
G01 X50.0421 Y61.5266
G01 X50.0466 Y61.5180
G01 X50.0495 Y61.5087
G01 X50.0504 Y61.4990
G01 X50.0495 Y61.4893
G01 X50.0466 Y61.4800
G01 X50.0421 Y61.4714
G01 X50.0359 Y61.4639
G01 X50.0284 Y61.4578
G01 X50.0198 Y61.4532
G01 X50.0105 Y61.4504
G01 X50.0008 Y61.4494
G01 X24.9996 Y61.4494
G01 X24.9899 Y61.4504
G01 X24.9806 Y61.4532
G01 X24.9720 Y61.4578
G01 X24.9645 Y61.4639
G01 X24.9584 Y61.4714
G01 X24.9538 Y61.4800
G01 X24.9510 Y61.4893
G01 X24.9500 Y61.4990
G01 X24.9510 Y61.5087
G01 X24.9538 Y61.5180
G01 X24.9584 Y61.5266
G01 X24.9645 Y61.5341
G01 X24.9720 Y61.5402
G01 X24.9806 Y61.5448
G01 X24.9899 Y61.5476
G01 X24.9996 Y61.5486
G01 X50.0008 Y61.5486
G00 X50.0008 Y61.5486
G01 F100.00
G01 Z-3.2000
G01 F250.00
G01 X50.0105 Y61.5476
G01 X50.0198 Y61.5448
G01 X50.0284 Y61.5402
G01 X50.0359 Y61.5341
G01 X50.0421 Y61.5266
G01 X50.0466 Y61.5180
G01 X50.0495 Y61.5087
G01 X50.0504 Y61.4990
G01 X50.0495 Y61.4893
G01 X50.0466 Y61.4800
G01 X50.0421 Y61.4714
G01 X50.0359 Y61.4639
G01 X50.0284 Y61.4578
G01 X50.0198 Y61.4532
G01 X50.0105 Y61.4504
G01 X50.0008 Y61.4494
G01 X24.9996 Y61.4494
G01 X24.9899 Y61.4504
G01 X24.9806 Y61.4532
G01 X24.9720 Y61.4578
G01 X24.9645 Y61.4639
G01 X24.9584 Y61.4714
G01 X24.9538 Y61.4800
G01 X24.9510 Y61.4893
G01 X24.9500 Y61.4990
G01 X24.9510 Y61.5087
G01 X24.9538 Y61.5180
G01 X24.9584 Y61.5266
G01 X24.9645 Y61.5341
G01 X24.9720 Y61.5402
G01 X24.9806 Y61.5448
G01 X24.9899 Y61.5476
G01 X24.9996 Y61.5486
G01 X50.0008 Y61.5486
G00 X50.0008 Y61.5486
G01 F100.00
G01 Z-3.6000
G01 F250.00
G01 X50.0105 Y61.5476
G01 X50.0198 Y61.5448
G01 X50.0284 Y61.5402
G01 X50.0359 Y61.5341
G01 X50.0421 Y61.5266
G01 X50.0466 Y61.5180
G01 X50.0495 Y61.5087
G01 X50.0504 Y61.4990
G01 X50.0495 Y61.4893
G01 X50.0466 Y61.4800
G01 X50.0421 Y61.4714
G01 X50.0359 Y61.4639
G01 X50.0284 Y61.4578
G01 X50.0198 Y61.4532
G01 X50.0105 Y61.4504
G01 X50.0008 Y61.4494
G01 X24.9996 Y61.4494
G01 X24.9899 Y61.4504
G01 X24.9806 Y61.4532
G01 X24.9720 Y61.4578
G01 X24.9645 Y61.4639
G01 X24.9584 Y61.4714
G01 X24.9538 Y61.4800
G01 X24.9510 Y61.4893
G01 X24.9500 Y61.4990
G01 X24.9510 Y61.5087
G01 X24.9538 Y61.5180
G01 X24.9584 Y61.5266
G01 X24.9645 Y61.5341
G01 X24.9720 Y61.5402
G01 X24.9806 Y61.5448
G01 X24.9899 Y61.5476
G01 X24.9996 Y61.5486
G01 X50.0008 Y61.5486
G00 X50.0008 Y61.5486
G01 F100.00
G01 Z-4.0000
G01 F250.00
G01 X50.0105 Y61.5476
G01 X50.0198 Y61.5448
G01 X50.0284 Y61.5402
G01 X50.0359 Y61.5341
G01 X50.0421 Y61.5266
G01 X50.0466 Y61.5180
G01 X50.0495 Y61.5087
G01 X50.0504 Y61.4990
G01 X50.0495 Y61.4893
G01 X50.0466 Y61.4800
G01 X50.0421 Y61.4714
G01 X50.0359 Y61.4639
G01 X50.0284 Y61.4578
G01 X50.0198 Y61.4532
G01 X50.0105 Y61.4504
G01 X50.0008 Y61.4494
G01 X24.9996 Y61.4494
G01 X24.9899 Y61.4504
G01 X24.9806 Y61.4532
G01 X24.9720 Y61.4578
G01 X24.9645 Y61.4639
G01 X24.9584 Y61.4714
G01 X24.9538 Y61.4800
G01 X24.9510 Y61.4893
G01 X24.9500 Y61.4990
G01 X24.9510 Y61.5087
G01 X24.9538 Y61.5180
G01 X24.9584 Y61.5266
G01 X24.9645 Y61.5341
G01 X24.9720 Y61.5402
G01 X24.9806 Y61.5448
G01 X24.9899 Y61.5476
G01 X24.9996 Y61.5486
G01 X50.0008 Y61.5486
G00 X50.0008 Y61.5486
G01 F100.00
G01 Z-4.4000
G01 F250.00
G01 X50.0105 Y61.5476
G01 X50.0198 Y61.5448
G01 X50.0284 Y61.5402
G01 X50.0359 Y61.5341
G01 X50.0421 Y61.5266
G01 X50.0466 Y61.5180
G01 X50.0495 Y61.5087
G01 X50.0504 Y61.4990
G01 X50.0495 Y61.4893
G01 X50.0466 Y61.4800
G01 X50.0421 Y61.4714
G01 X50.0359 Y61.4639
G01 X50.0284 Y61.4578
G01 X50.0198 Y61.4532
G01 X50.0105 Y61.4504
G01 X50.0008 Y61.4494
G01 X24.9996 Y61.4494
G01 X24.9899 Y61.4504
G01 X24.9806 Y61.4532
G01 X24.9720 Y61.4578
G01 X24.9645 Y61.4639
G01 X24.9584 Y61.4714
G01 X24.9538 Y61.4800
G01 X24.9510 Y61.4893
G01 X24.9500 Y61.4990
G01 X24.9510 Y61.5087
G01 X24.9538 Y61.5180
G01 X24.9584 Y61.5266
G01 X24.9645 Y61.5341
G01 X24.9720 Y61.5402
G01 X24.9806 Y61.5448
G01 X24.9899 Y61.5476
G01 X24.9996 Y61.5486
G01 X50.0008 Y61.5486
G00 X50.0008 Y61.5486
G01 F100.00
G01 Z-4.8000
G01 F250.00
G01 X50.0105 Y61.5476
G01 X50.0198 Y61.5448
G01 X50.0284 Y61.5402
G01 X50.0359 Y61.5341
G01 X50.0421 Y61.5266
G01 X50.0466 Y61.5180
G01 X50.0495 Y61.5087
G01 X50.0504 Y61.4990
G01 X50.0495 Y61.4893
G01 X50.0466 Y61.4800
G01 X50.0421 Y61.4714
G01 X50.0359 Y61.4639
G01 X50.0284 Y61.4578
G01 X50.0198 Y61.4532
G01 X50.0105 Y61.4504
G01 X50.0008 Y61.4494
G01 X24.9996 Y61.4494
G01 X24.9899 Y61.4504
G01 X24.9806 Y61.4532
G01 X24.9720 Y61.4578
G01 X24.9645 Y61.4639
G01 X24.9584 Y61.4714
G01 X24.9538 Y61.4800
G01 X24.9510 Y61.4893
G01 X24.9500 Y61.4990
G01 X24.9510 Y61.5087
G01 X24.9538 Y61.5180
G01 X24.9584 Y61.5266
G01 X24.9645 Y61.5341
G01 X24.9720 Y61.5402
G01 X24.9806 Y61.5448
G01 X24.9899 Y61.5476
G01 X24.9996 Y61.5486
G01 X50.0008 Y61.5486
G00 X50.0008 Y61.5486
G01 F100.00
G01 Z-5.2000
G01 F250.00
G01 X50.0105 Y61.5476
G01 X50.0198 Y61.5448
G01 X50.0284 Y61.5402
G01 X50.0359 Y61.5341
G01 X50.0421 Y61.5266
G01 X50.0466 Y61.5180
G01 X50.0495 Y61.5087
G01 X50.0504 Y61.4990
G01 X50.0495 Y61.4893
G01 X50.0466 Y61.4800
G01 X50.0421 Y61.4714
G01 X50.0359 Y61.4639
G01 X50.0284 Y61.4578
G01 X50.0198 Y61.4532
G01 X50.0105 Y61.4504
G01 X50.0008 Y61.4494
G01 X24.9996 Y61.4494
G01 X24.9899 Y61.4504
G01 X24.9806 Y61.4532
G01 X24.9720 Y61.4578
G01 X24.9645 Y61.4639
G01 X24.9584 Y61.4714
G01 X24.9538 Y61.4800
G01 X24.9510 Y61.4893
G01 X24.9500 Y61.4990
G01 X24.9510 Y61.5087
G01 X24.9538 Y61.5180
G01 X24.9584 Y61.5266
G01 X24.9645 Y61.5341
G01 X24.9720 Y61.5402
G01 X24.9806 Y61.5448
G01 X24.9899 Y61.5476
G01 X24.9996 Y61.5486
G01 X50.0008 Y61.5486
G00 X50.0008 Y61.5486
G01 F100.00
G01 Z-5.6000
G01 F250.00
G01 X50.0105 Y61.5476
G01 X50.0198 Y61.5448
G01 X50.0284 Y61.5402
G01 X50.0359 Y61.5341
G01 X50.0421 Y61.5266
G01 X50.0466 Y61.5180
G01 X50.0495 Y61.5087
G01 X50.0504 Y61.4990
G01 X50.0495 Y61.4893
G01 X50.0466 Y61.4800
G01 X50.0421 Y61.4714
G01 X50.0359 Y61.4639
