(G-CODE GENERATED BY FLATCAM v8.991 - www.flatcam.org - Version Date: 2019/12/27)

(Name: GrandCercle2_ncc_cnc)
(Type: G-code from Geometry)
(Units: MM)

(Created on Saturday, 28 September 2024 at 18:29)

(TOOL DIAMETER: 2.0 mm)
(Feedrate: 200.0 mm/min)
(Feedrate_Z: 100.0 mm/min)
(Feedrate rapids 1500.0 mm/min)

(Z_Cut: -3.0 mm)
(DepthPerCut: 0.6 mm <=>5 passes)
(Z_Move: 2.0 mm)
(Z Toolchange: 15.0 mm)
(X,Y Toolchange: 0.00, 0.00 mm)
(Z Start: None mm)
(Z End: 5.0 mm)
(Steps per circle: 64)
(Preprocessor Geometry: default)

(X range:   12.9262 ...   62.0738  mm)
(Y range:   22.9262 ...   72.0738  mm)

(Spindle Speed: None RPM)
G21
G90
G94




G01 F200.00
G00 Z2.0000

M03
G00 X12.9262 Y47.5000
G01 F100.00
G01 Z-0.6000
G01 F200.00
G01 X13.0446 Y49.9086
G01 X13.3984 Y52.2941
G01 X13.9844 Y54.6334
G01 X14.7968 Y56.9040
G01 X15.8279 Y59.0840
G01 X17.0677 Y61.1524
G01 X18.5042 Y63.0894
G01 X20.1237 Y64.8763
G01 X21.9106 Y66.4958
G01 X23.8476 Y67.9323
G01 X25.9160 Y69.1721
G01 X28.0960 Y70.2032
G01 X30.3666 Y71.0156
G01 X32.7059 Y71.6016
G01 X35.0914 Y71.9554
G01 X37.5000 Y72.0738
G01 X39.9086 Y71.9554
G01 X42.2941 Y71.6016
G01 X44.6334 Y71.0156
G01 X46.9040 Y70.2032
G01 X49.0840 Y69.1721
G01 X51.1524 Y67.9323
G01 X53.0894 Y66.4958
G01 X54.8763 Y64.8763
G01 X56.4958 Y63.0894
G01 X57.9323 Y61.1524
G01 X59.1721 Y59.0840
G01 X60.2032 Y56.9040
G01 X61.0156 Y54.6334
G01 X61.6016 Y52.2941
G01 X61.9554 Y49.9086
G01 X62.0738 Y47.5000
G01 X61.9554 Y45.0914
G01 X61.6016 Y42.7059
G01 X61.0156 Y40.3666
G01 X60.2032 Y38.0960
G01 X59.1721 Y35.9160
G01 X57.9323 Y33.8476
G01 X56.4958 Y31.9106
G01 X54.8763 Y30.1237
G01 X53.0894 Y28.5042
G01 X51.1524 Y27.0677
G01 X49.0840 Y25.8279
G01 X46.9040 Y24.7968
G01 X44.6334 Y23.9844
G01 X42.2941 Y23.3984
G01 X39.9086 Y23.0446
G01 X37.5000 Y22.9262
G01 X35.0914 Y23.0446
G01 X32.7059 Y23.3984
G01 X30.3666 Y23.9844
G01 X28.0960 Y24.7968
G01 X25.9160 Y25.8279
G01 X23.8476 Y27.0677
G01 X21.9106 Y28.5042
G01 X20.1237 Y30.1237
G01 X18.5042 Y31.9106
G01 X17.0677 Y33.8476
G01 X15.8279 Y35.9160
G01 X14.7968 Y38.0960
G01 X13.9844 Y40.3666
G01 X13.3984 Y42.7059
G01 X13.0446 Y45.0914
G01 X12.9262 Y47.5000
G00 X12.9262 Y47.5000
G01 F100.00
G01 Z-1.2000
G01 F200.00
G01 X13.0446 Y45.0914
G01 X13.3984 Y42.7059
G01 X13.9844 Y40.3666
G01 X14.7968 Y38.0960
G01 X15.8279 Y35.9160
G01 X17.0677 Y33.8476
G01 X18.5042 Y31.9106
G01 X20.1237 Y30.1237
G01 X21.9106 Y28.5042
G01 X23.8476 Y27.0677
G01 X25.9160 Y25.8279
G01 X28.0960 Y24.7968
G01 X30.3666 Y23.9844
G01 X32.7059 Y23.3984
G01 X35.0914 Y23.0446
G01 X37.5000 Y22.9262
G01 X39.9086 Y23.0446
G01 X42.2941 Y23.3984
G01 X44.6334 Y23.9844
G01 X46.9040 Y24.7968
G01 X49.0840 Y25.8279
G01 X51.1524 Y27.0677
G01 X53.0894 Y28.5042
G01 X54.8763 Y30.1237
G01 X56.4958 Y31.9106
G01 X57.9323 Y33.8476
G01 X59.1721 Y35.9160
G01 X60.2032 Y38.0960
G01 X61.0156 Y40.3666
G01 X61.6016 Y42.7059
G01 X61.9554 Y45.0914
G01 X62.0738 Y47.5000
G01 X61.9554 Y49.9086
G01 X61.6016 Y52.2941
G01 X61.0156 Y54.6334
G01 X60.2032 Y56.9040
G01 X59.1721 Y59.0840
G01 X57.9323 Y61.1524
G01 X56.4958 Y63.0894
G01 X54.8763 Y64.8763
G01 X53.0894 Y66.4958
G01 X51.1524 Y67.9323
G01 X49.0840 Y69.1721
G01 X46.9040 Y70.2032
G01 X44.6334 Y71.0156
G01 X42.2941 Y71.6016
G01 X39.9086 Y71.9554
G01 X37.5000 Y72.0738
G01 X35.0914 Y71.9554
G01 X32.7059 Y71.6016
G01 X30.3666 Y71.0156
G01 X28.0960 Y70.2032
G01 X25.9160 Y69.1721
G01 X23.8476 Y67.9323
G01 X21.9106 Y66.4958
G01 X20.1237 Y64.8763
G01 X18.5042 Y63.0894
G01 X17.0677 Y61.1524
G01 X15.8279 Y59.0840
G01 X14.7968 Y56.9040
G01 X13.9844 Y54.6334
G01 X13.3984 Y52.2941
G01 X13.0446 Y49.9086
G01 X12.9262 Y47.5000
G00 X12.9262 Y47.5000
G01 F100.00
G01 Z-1.8000
G01 F200.00
G01 X13.0446 Y49.9086
G01 X13.3984 Y52.2941
G01 X13.9844 Y54.6334
G01 X14.7968 Y56.9040
G01 X15.8279 Y59.0840
G01 X17.0677 Y61.1524
G01 X18.5042 Y63.0894
G01 X20.1237 Y64.8763
G01 X21.9106 Y66.4958
G01 X23.8476 Y67.9323
G01 X25.9160 Y69.1721
G01 X28.0960 Y70.2032
G01 X30.3666 Y71.0156
G01 X32.7059 Y71.6016
G01 X35.0914 Y71.9554
G01 X37.5000 Y72.0738
G01 X39.9086 Y71.9554
G01 X42.2941 Y71.6016
G01 X44.6334 Y71.0156
G01 X46.9040 Y70.2032
G01 X49.0840 Y69.1721
G01 X51.1524 Y67.9323
G01 X53.0894 Y66.4958
G01 X54.8763 Y64.8763
G01 X56.4958 Y63.0894
G01 X57.9323 Y61.1524
G01 X59.1721 Y59.0840
G01 X60.2032 Y56.9040
G01 X61.0156 Y54.6334
G01 X61.6016 Y52.2941
G01 X61.9554 Y49.9086
G01 X62.0738 Y47.5000
G01 X61.9554 Y45.0914
G01 X61.6016 Y42.7059
G01 X61.0156 Y40.3666
G01 X60.2032 Y38.0960
G01 X59.1721 Y35.9160
G01 X57.9323 Y33.8476
G01 X56.4958 Y31.9106
G01 X54.8763 Y30.1237
G01 X53.0894 Y28.5042
G01 X51.1524 Y27.0677
G01 X49.0840 Y25.8279
G01 X46.9040 Y24.7968
G01 X44.6334 Y23.9844
G01 X42.2941 Y23.3984
G01 X39.9086 Y23.0446
G01 X37.5000 Y22.9262
G01 X35.0914 Y23.0446
G01 X32.7059 Y23.3984
G01 X30.3666 Y23.9844
G01 X28.0960 Y24.7968
G01 X25.9160 Y25.8279
G01 X23.8476 Y27.0677
G01 X21.9106 Y28.5042
G01 X20.1237 Y30.1237
G01 X18.5042 Y31.9106
G01 X17.0677 Y33.8476
G01 X15.8279 Y35.9160
G01 X14.7968 Y38.0960
G01 X13.9844 Y40.3666
G01 X13.3984 Y42.7059
G01 X13.0446 Y45.0914
G01 X12.9262 Y47.5000
G00 X12.9262 Y47.5000
G01 F100.00
G01 Z-2.4000
G01 F200.00
G01 X13.0446 Y45.0914
G01 X13.3984 Y42.7059
G01 X13.9844 Y40.3666
G01 X14.7968 Y38.0960
G01 X15.8279 Y35.9160
G01 X17.0677 Y33.8476
G01 X18.5042 Y31.9106
G01 X20.1237 Y30.1237
G01 X21.9106 Y28.5042
G01 X23.8476 Y27.0677
G01 X25.9160 Y25.8279
G01 X28.0960 Y24.7968
G01 X30.3666 Y23.9844
G01 X32.7059 Y23.3984
G01 X35.0914 Y23.0446
G01 X37.5000 Y22.9262
G01 X39.9086 Y23.0446
G01 X42.2941 Y23.3984
G01 X44.6334 Y23.9844
G01 X46.9040 Y24.7968
G01 X49.0840 Y25.8279
G01 X51.1524 Y27.0677
G01 X53.0894 Y28.5042
G01 X54.8763 Y30.1237
G01 X56.4958 Y31.9106
G01 X57.9323 Y33.8476
G01 X59.1721 Y35.9160
G01 X60.2032 Y38.0960
G01 X61.0156 Y40.3666
G01 X61.6016 Y42.7059
G01 X61.9554 Y45.0914
G01 X62.0738 Y47.5000
G01 X61.9554 Y49.9086
G01 X61.6016 Y52.2941
G01 X61.0156 Y54.6334
G01 X60.2032 Y56.9040
G01 X59.1721 Y59.0840
G01 X57.9323 Y61.1524
G01 X56.4958 Y63.0894
G01 X54.8763 Y64.8763
G01 X53.0894 Y66.4958
G01 X51.1524 Y67.9323
G01 X49.0840 Y69.1721
G01 X46.9040 Y70.2032
G01 X44.6334 Y71.0156
G01 X42.2941 Y71.6016
G01 X39.9086 Y71.9554
G01 X37.5000 Y72.0738
G01 X35.0914 Y71.9554
G01 X32.7059 Y71.6016
G01 X30.3666 Y71.0156
G01 X28.0960 Y70.2032
G01 X25.9160 Y69.1721
G01 X23.8476 Y67.9323
G01 X21.9106 Y66.4958
G01 X20.1237 Y64.8763
G01 X18.5042 Y63.0894
G01 X17.0677 Y61.1524
G01 X15.8279 Y59.0840
G01 X14.7968 Y56.9040
G01 X13.9844 Y54.6334
G01 X13.3984 Y52.2941
G01 X13.0446 Y49.9086
G01 X12.9262 Y47.5000
G00 X12.9262 Y47.5000
G01 F100.00
G01 Z-3.0000
G01 F200.00
G01 X13.0446 Y49.9086
G01 X13.3984 Y52.2941
G01 X13.9844 Y54.6334
G01 X14.7968 Y56.9040
G01 X15.8279 Y59.0840
G01 X17.0677 Y61.1524
G01 X18.5042 Y63.0894
G01 X20.1237 Y64.8763
G01 X21.9106 Y66.4958
G01 X23.8476 Y67.9323
G01 X25.9160 Y69.1721
G01 X28.0960 Y70.2032
G01 X30.3666 Y71.0156
G01 X32.7059 Y71.6016
G01 X35.0914 Y71.9554
G01 X37.5000 Y72.0738
G01 X39.9086 Y71.9554
G01 X42.2941 Y71.6016
G01 X44.6334 Y71.0156
G01 X46.9040 Y70.2032
G01 X49.0840 Y69.1721
G01 X51.1524 Y67.9323
G01 X53.0894 Y66.4958
G01 X54.8763 Y64.8763
G01 X56.4958 Y63.0894
G01 X57.9323 Y61.1524
G01 X59.1721 Y59.0840
G01 X60.2032 Y56.9040
G01 X61.0156 Y54.6334
G01 X61.6016 Y52.2941
G01 X61.9554 Y49.9086
G01 X62.0738 Y47.5000
G01 X61.9554 Y45.0914
G01 X61.6016 Y42.7059
G01 X61.0156 Y40.3666
G01 X60.2032 Y38.0960
G01 X59.1721 Y35.9160
G01 X57.9323 Y33.8476
G01 X56.4958 Y31.9106
G01 X54.8763 Y30.1237
G01 X53.0894 Y28.5042
G01 X51.1524 Y27.0677
G01 X49.0840 Y25.8279
G01 X46.9040 Y24.7968
G01 X44.6334 Y23.9844
G01 X42.2941 Y23.3984
G01 X39.9086 Y23.0446
G01 X37.5000 Y22.9262
G01 X35.0914 Y23.0446
G01 X32.7059 Y23.3984
G01 X30.3666 Y23.9844
G01 X28.0960 Y24.7968
G01 X25.9160 Y25.8279
G01 X23.8476 Y27.0677
G01 X21.9106 Y28.5042
G01 X20.1237 Y30.1237
G01 X18.5042 Y31.9106
G01 X17.0677 Y33.8476
G01 X15.8279 Y35.9160
G01 X14.7968 Y38.0960
G01 X13.9844 Y40.3666
G01 X13.3984 Y42.7059
G01 X13.0446 Y45.0914
G01 X12.9262 Y47.5000
G00 Z2.0000
G00 X38.5000 Y47.5000
G01 F100.00
G01 Z-0.6000
G01 F200.00
G01 X38.4952 Y47.4020
G01 X38.4808 Y47.3049
G01 X38.4569 Y47.2097
G01 X38.4239 Y47.1173
G01 X38.3819 Y47.0286
G01 X38.3315 Y46.9444
G01 X38.2730 Y46.8656
G01 X38.2071 Y46.7929
G01 X38.1344 Y46.7270
G01 X38.0556 Y46.6685
G01 X37.9714 Y46.6181
G01 X37.8827 Y46.5761
G01 X37.7903 Y46.5431
G01 X37.6951 Y46.5192
G01 X37.5980 Y46.5048
G01 X37.5000 Y46.5000
G01 X37.4020 Y46.5048
G01 X37.3049 Y46.5192
G01 X37.2097 Y46.5431
G01 X37.1173 Y46.5761
G01 X37.0286 Y46.6181
G01 X36.9444 Y46.6685
G01 X36.8656 Y46.7270
G01 X36.7929 Y46.7929
G01 X36.7270 Y46.8656
G01 X36.6685 Y46.9444
G01 X36.6181 Y47.0286
G01 X36.5761 Y47.1173
G01 X36.5431 Y47.2097
G01 X36.5192 Y47.3049
G01 X36.5048 Y47.4020
G01 X36.5000 Y47.5000
G01 X36.5048 Y47.5980
G01 X36.5192 Y47.6951
G01 X36.5431 Y47.7903
G01 X36.5761 Y47.8827
G01 X36.6181 Y47.9714
G01 X36.6685 Y48.0556
G01 X36.7270 Y48.1344
G01 X36.7929 Y48.2071
G01 X36.8656 Y48.2730
G01 X36.9444 Y48.3315
G01 X37.0286 Y48.3819
G01 X37.1173 Y48.4239
G01 X37.2097 Y48.4569
G01 X37.3049 Y48.4808
G01 X37.4020 Y48.4952
G01 X37.5000 Y48.5000
G01 X37.5980 Y48.4952
G01 X37.6951 Y48.4808
G01 X37.7903 Y48.4569
G01 X37.8827 Y48.4239
G01 X37.9714 Y48.3819
G01 X38.0556 Y48.3315
G01 X38.1344 Y48.2730
G01 X38.2071 Y48.2071
G01 X38.2730 Y48.1344
G01 X38.3315 Y48.0556
G01 X38.3819 Y47.9714
G01 X38.4239 Y47.8827
G01 X38.4569 Y47.7903
G01 X38.4808 Y47.6951
G01 X38.4952 Y47.5980
G01 X38.5000 Y47.5000
G01 X40.5000 Y47.5000
G01 X40.4856 Y47.2059
G01 X40.4424 Y46.9147
G01 X40.3708 Y46.6291
G01 X40.2716 Y46.3519
G01 X40.1458 Y46.0858
G01 X39.9944 Y45.8333
G01 X39.8190 Y45.5968
G01 X39.6213 Y45.3787
G01 X39.4032 Y45.1810
G01 X39.1667 Y45.0056
G01 X38.9142 Y44.8542
G01 X38.6481 Y44.7284
G01 X38.3709 Y44.6292
G01 X38.0853 Y44.5576
G01 X37.7941 Y44.5144
G01 X37.5000 Y44.5000
G01 X37.2059 Y44.5144
G01 X36.9147 Y44.5576
G01 X36.6291 Y44.6292
G01 X36.3519 Y44.7284
G01 X36.0858 Y44.8542
G01 X35.8333 Y45.0056
G01 X35.5968 Y45.1810
G01 X35.3787 Y45.3787
G01 X35.1810 Y45.5968
G01 X35.0056 Y45.8333
G01 X34.8542 Y46.0858
G01 X34.7284 Y46.3519
G01 X34.6292 Y46.6291
G01 X34.5576 Y46.9147
G01 X34.5144 Y47.2059
G01 X34.5000 Y47.5000
G01 X34.5144 Y47.7941
G01 X34.5576 Y48.0853
G01 X34.6292 Y48.3709
G01 X34.7284 Y48.6481
G01 X34.8542 Y48.9142
G01 X35.0056 Y49.1667
G01 X35.1810 Y49.4032
G01 X35.3787 Y49.6213
G01 X35.5968 Y49.8190
G01 X35.8333 Y49.9944
G01 X36.0858 Y50.1458
G01 X36.3519 Y50.2716
G01 X36.6291 Y50.3708
G01 X36.9147 Y50.4424
G01 X37.2059 Y50.4856
G01 X37.5000 Y50.5000
G01 X37.7941 Y50.4856
G01 X38.0853 Y50.4424
G01 X38.3709 Y50.3708
G01 X38.6481 Y50.2716
G01 X38.9142 Y50.1458
G01 X39.1667 Y49.9944
G01 X39.4032 Y49.8190
G01 X39.6213 Y49.6213
G01 X39.8190 Y49.4032
G01 X39.9944 Y49.1667
G01 X40.1458 Y48.9142
G01 X40.2716 Y48.6481
G01 X40.3708 Y48.3709
G01 X40.4424 Y48.0853
G01 X40.4856 Y47.7941
G01 X40.5000 Y47.5000
G01 X42.5000 Y47.5000
G01 X42.4759 Y47.0099
G01 X42.4039 Y46.5245
G01 X42.2847 Y46.0486
G01 X42.1194 Y45.5866
G01 X41.9096 Y45.1430
G01 X41.6573 Y44.7221
G01 X41.3651 Y44.3280
G01 X41.0355 Y43.9645
G01 X40.6720 Y43.6349
G01 X40.2779 Y43.3427
G01 X39.8570 Y43.0904
G01 X39.4134 Y42.8806
G01 X38.9514 Y42.7153
G01 X38.4755 Y42.5961
G01 X37.9901 Y42.5241
G01 X37.5000 Y42.5000
G01 X37.0099 Y42.5241
G01 X36.5245 Y42.5961
G01 X36.0486 Y42.7153
G01 X35.5866 Y42.8806
G01 X35.1430 Y43.0904
G01 X34.7221 Y43.3427
G01 X34.3280 Y43.6349
G01 X33.9645 Y43.9645
G01 X33.6349 Y44.3280
G01 X33.3427 Y44.7221
G01 X33.0904 Y45.1430
G01 X32.8806 Y45.5866
G01 X32.7153 Y46.0486
G01 X32.5961 Y46.5245
G01 X32.5241 Y47.0099
G01 X32.5000 Y47.5000
G01 X32.5241 Y47.9901
G01 X32.5961 Y48.4755
G01 X32.7153 Y48.9514
G01 X32.8806 Y49.4134
G01 X33.0904 Y49.8570
G01 X33.3427 Y50.2779
G01 X33.6349 Y50.6720
G01 X33.9645 Y51.0355
G01 X34.3280 Y51.3651
G01 X34.7221 Y51.6573
G01 X35.1430 Y51.9096
G01 X35.5866 Y52.1194
G01 X36.0486 Y52.2847
G01 X36.5245 Y52.4039
G01 X37.0099 Y52.4759
G01 X37.5000 Y52.5000
G01 X37.9901 Y52.4759
G01 X38.4755 Y52.4039
G01 X38.9514 Y52.2847
G01 X39.4134 Y52.1194
G01 X39.8570 Y51.9096
G01 X40.2779 Y51.6573
G01 X40.6720 Y51.3651
G01 X41.0355 Y51.0355
G01 X41.3651 Y50.6720
G01 X41.6573 Y50.2779
G01 X41.9096 Y49.8570
G01 X42.1194 Y49.4134
G01 X42.2847 Y48.9514
G01 X42.4039 Y48.4755
G01 X42.4759 Y47.9901
G01 X42.5000 Y47.5000
G01 X44.5000 Y47.5000
G01 X44.4663 Y46.8139
G01 X44.3655 Y46.1344
G01 X44.1986 Y45.4680
G01 X43.9672 Y44.8212
G01 X43.6734 Y44.2002
G01 X43.3203 Y43.6110
G01 X42.9111 Y43.0592
G01 X42.4497 Y42.5503
G01 X41.9408 Y42.0889
G01 X41.3890 Y41.6797
G01 X40.7998 Y41.3266
G01 X40.1788 Y41.0328
G01 X39.5320 Y40.8014
G01 X38.8656 Y40.6345
G01 X38.1861 Y40.5337
G01 X37.5000 Y40.5000
G01 X36.8139 Y40.5337
G01 X36.1344 Y40.6345
G01 X35.4680 Y40.8014
G01 X34.8212 Y41.0328
G01 X34.2002 Y41.3266
G01 X33.6110 Y41.6797
G01 X33.0592 Y42.0889
G01 X32.5503 Y42.5503
G01 X32.0889 Y43.0592
G01 X31.6797 Y43.6110
G01 X31.3266 Y44.2002
G01 X31.0328 Y44.8212
G01 X30.8014 Y45.4680
G01 X30.6345 Y46.1344
G01 X30.5337 Y46.8139
G01 X30.5000 Y47.5000
G01 X30.5337 Y48.1861
G01 X30.6345 Y48.8656
G01 X30.8014 Y49.5320
G01 X31.0328 Y50.1788
G01 X31.3266 Y50.7998
G01 X31.6797 Y51.3890
G01 X32.0889 Y51.9408
G01 X32.5503 Y52.4497
G01 X33.0592 Y52.9111
G01 X33.6110 Y53.3203
G01 X34.2002 Y53.6734
G01 X34.8212 Y53.9672
G01 X35.4680 Y54.1986
G01 X36.1344 Y54.3655
G01 X36.8139 Y54.4663
G01 X37.5000 Y54.5000
G01 X38.1861 Y54.4663
G01 X38.8656 Y54.3655
G01 X39.5320 Y54.1986
G01 X40.1788 Y53.9672
G01 X40.7998 Y53.6734
G01 X41.3890 Y53.3203
G01 X41.9408 Y52.9111
G01 X42.4497 Y52.4497
G01 X42.9111 Y51.9408
G01 X43.3203 Y51.3890
G01 X43.6734 Y50.7998
G01 X43.9672 Y50.1788
G01 X44.1986 Y49.5320
G01 X44.3655 Y48.8656
G01 X44.4663 Y48.1861
G01 X44.5000 Y47.5000
G01 X46.5000 Y47.5000
G01 X46.4567 Y46.6178
G01 X46.3271 Y45.7442
G01 X46.1125 Y44.8874
G01 X45.8149 Y44.0558
G01 X45.4373 Y43.2574
G01 X44.9832 Y42.4999
G01 X44.4571 Y41.7905
G01 X43.8640 Y41.1360
G01 X43.2095 Y40.5429
G01 X42.5001 Y40.0168
G01 X41.7426 Y39.5627
G01 X40.9442 Y39.1851
G01 X40.1126 Y38.8875
G01 X39.2558 Y38.6729
G01 X38.3822 Y38.5433
G01 X37.5000 Y38.5000
G01 X36.6178 Y38.5433
G01 X35.7442 Y38.6729
G01 X34.8874 Y38.8875
G01 X34.0558 Y39.1851
G01 X33.2574 Y39.5627
G01 X32.4999 Y40.0168
G01 X31.7905 Y40.5429
G01 X31.1360 Y41.1360
G01 X30.5429 Y41.7905
G01 X30.0168 Y42.4999
G01 X29.5627 Y43.2574
G01 X29.1851 Y44.0558
G01 X28.8875 Y44.8874
G01 X28.6729 Y45.7442
G01 X28.5433 Y46.6178
G01 X28.5000 Y47.5000
G01 X28.5433 Y48.3822
G01 X28.6729 Y49.2558
G01 X28.8875 Y50.1126
G01 X29.1851 Y50.9442
G01 X29.5627 Y51.7426
G01 X30.0168 Y52.5001
G01 X30.5429 Y53.2095
G01 X31.1360 Y53.8640
G01 X31.7905 Y54.4571
G01 X32.4999 Y54.9832
G01 X33.2574 Y55.4373
G01 X34.0558 Y55.8149
G01 X34.8874 Y56.1125
G01 X35.7442 Y56.3271
G01 X36.6178 Y56.4567
G01 X37.5000 Y56.5000
G01 X38.3822 Y56.4567
G01 X39.2558 Y56.3271
G01 X40.1126 Y56.1125
G01 X40.9442 Y55.8149
G01 X41.7426 Y55.4373
G01 X42.5001 Y54.9832
G01 X43.2095 Y54.4571
G01 X43.8640 Y53.8640
G01 X44.4571 Y53.2095
G01 X44.9832 Y52.5001
G01 X45.4373 Y51.7426
G01 X45.8149 Y50.9442
G01 X46.1125 Y50.1126
G01 X46.3271 Y49.2558
G01 X46.4567 Y48.3822
G01 X46.5000 Y47.5000
G01 X48.5000 Y47.5000
G01 X48.4470 Y46.4218
G01 X48.2886 Y45.3540
G01 X48.0263 Y44.3069
G01 X47.6627 Y43.2905
G01 X47.2011 Y42.3146
G01 X46.6462 Y41.3887
G01 X46.0031 Y40.5217
G01 X45.2782 Y39.7218
G01 X44.4783 Y38.9969
G01 X43.6113 Y38.3538
G01 X42.6854 Y37.7989
G01 X41.7095 Y37.3373
G01 X40.6931 Y36.9737
G01 X39.6460 Y36.7114
G01 X38.5782 Y36.5530
G01 X37.5000 Y36.5000
G01 X36.4218 Y36.5530
G01 X35.3540 Y36.7114
G01 X34.3069 Y36.9737
G01 X33.2905 Y37.3373
G01 X32.3146 Y37.7989
G01 X31.3887 Y38.3538
G01 X30.5217 Y38.9969
G01 X29.7218 Y39.7218
G01 X28.9969 Y40.5217
G01 X28.3538 Y41.3887
G01 X27.7989 Y42.3146
G01 X27.3373 Y43.2905
G01 X26.9737 Y44.3069
G01 X26.7114 Y45.3540
G01 X26.5530 Y46.4218
G01 X26.5000 Y47.5000
G01 X26.5530 Y48.5782
G01 X26.7114 Y49.6460
G01 X26.9737 Y50.6931
G01 X27.3373 Y51.7095
G01 X27.7989 Y52.6854
G01 X28.3538 Y53.6113
G01 X28.9969 Y54.4783
G01 X29.7218 Y55.2782
G01 X30.5217 Y56.0031
G01 X31.3887 Y56.6462
G01 X32.3146 Y57.2011
G01 X33.2905 Y57.6627
G01 X34.3069 Y58.0263
G01 X35.3540 Y58.2886
G01 X36.4218 Y58.4470
G01 X37.5000 Y58.5000
G01 X38.5782 Y58.4470
G01 X39.6460 Y58.2886
G01 X40.6931 Y58.0263
G01 X41.7095 Y57.6627
G01 X42.6854 Y57.2011
G01 X43.6113 Y56.6462
G01 X44.4783 Y56.0031
G01 X45.2782 Y55.2782
G01 X46.0031 Y54.4783
G01 X46.6462 Y53.6113
G01 X47.2011 Y52.6854
G01 X47.6627 Y51.7095
G01 X48.0263 Y50.6931
G01 X48.2886 Y49.6460
G01 X48.4470 Y48.5782
G01 X48.5000 Y47.5000
G01 X50.5000 Y47.5000
G01 X50.4374 Y46.2258
G01 X50.2502 Y44.9638
G01 X49.9402 Y43.7263
G01 X49.5104 Y42.5251
G01 X48.9650 Y41.3718
G01 X48.3091 Y40.2776
G01 X47.5491 Y39.2529
G01 X46.6924 Y38.3076
G01 X45.7471 Y37.4509
G01 X44.7224 Y36.6909
G01 X43.6282 Y36.0350
G01 X42.4749 Y35.4896
G01 X41.2737 Y35.0598
G01 X40.0362 Y34.7498
G01 X38.7742 Y34.5626
G01 X37.5000 Y34.5000
G01 X36.2258 Y34.5626
G01 X34.9638 Y34.7498
G01 X33.7263 Y35.0598
G01 X32.5251 Y35.4896
G01 X31.3718 Y36.0350
G01 X30.2776 Y36.6909
G01 X29.2529 Y37.4509
G01 X28.3076 Y38.3076
G01 X27.4509 Y39.2529
G01 X26.6909 Y40.2776
G01 X26.0350 Y41.3718
G01 X25.4896 Y42.5251
G01 X25.0598 Y43.7263
G01 X24.7498 Y44.9638
G01 X24.5626 Y46.2258
G01 X24.5000 Y47.5000
G01 X24.5626 Y48.7742
G01 X24.7498 Y50.0362
G01 X25.0598 Y51.2737
G01 X25.4896 Y52.4749
G01 X26.0350 Y53.6282
G01 X26.6909 Y54.7224
G01 X27.4509 Y55.7471
G01 X28.3076 Y56.6924
G01 X29.2529 Y57.5491
G01 X30.2776 Y58.3091
G01 X31.3718 Y58.9650
G01 X32.5251 Y59.5104
G01 X33.7263 Y59.9402
G01 X34.9638 Y60.2502
G01 X36.2258 Y60.4374
G01 X37.5000 Y60.5000
G01 X38.7742 Y60.4374
G01 X40.0362 Y60.2502
G01 X41.2737 Y59.9402
G01 X42.4749 Y59.5104
G01 X43.6282 Y58.9650
G01 X44.7224 Y58.3091
G01 X45.7471 Y57.5491
G01 X46.6924 Y56.6924
G01 X47.5491 Y55.7471
G01 X48.3091 Y54.7224
G01 X48.9650 Y53.6282
G01 X49.5104 Y52.4749
G01 X49.9402 Y51.2737
G01 X50.2502 Y50.0362
G01 X50.4374 Y48.7742
G01 X50.5000 Y47.5000
G01 X52.5000 Y47.5000
G01 X52.4278 Y46.0297
G01 X52.2118 Y44.5736
G01 X51.8541 Y43.1457
G01 X51.3582 Y41.7597
G01 X50.7288 Y40.4290
G01 X49.9720 Y39.1664
G01 X49.0952 Y37.9841
G01 X48.1066 Y36.8934
G01 X47.0159 Y35.9048
G01 X45.8336 Y35.0280
G01 X44.5710 Y34.2712
G01 X43.2403 Y33.6418
G01 X41.8543 Y33.1459
G01 X40.4264 Y32.7882
G01 X38.9703 Y32.5722
G01 X37.5000 Y32.5000
G01 X36.0297 Y32.5722
G01 X34.5736 Y32.7882
G01 X33.1457 Y33.1459
G01 X31.7597 Y33.6418
G01 X30.4290 Y34.2712
G01 X29.1664 Y35.0280
G01 X27.9841 Y35.9048
G01 X26.8934 Y36.8934
G01 X25.9048 Y37.9841
G01 X25.0280 Y39.1664
G01 X24.2712 Y40.4290
G01 X23.6418 Y41.7597
G01 X23.1459 Y43.1457
G01 X22.7882 Y44.5736
G01 X22.5722 Y46.0297
G01 X22.5000 Y47.5000
G01 X22.5722 Y48.9703
G01 X22.7882 Y50.4264
G01 X23.1459 Y51.8543
G01 X23.6418 Y53.2403
G01 X24.2712 Y54.5710
G01 X25.0280 Y55.8336
G01 X25.9048 Y57.0159
G01 X26.8934 Y58.1066
G01 X27.9841 Y59.0952
G01 X29.1664 Y59.9720
G01 X30.4290 Y60.7288
G01 X31.7597 Y61.3582
G01 X33.1457 Y61.8541
G01 X34.5736 Y62.2118
G01 X36.0297 Y62.4278
G01 X37.5000 Y62.5000
G01 X38.9703 Y62.4278
G01 X40.4264 Y62.2118
G01 X41.8543 Y61.8541
G01 X43.2403 Y61.3582
G01 X44.5710 Y60.7288
G01 X45.8336 Y59.9720
G01 X47.0159 Y59.0952
G01 X48.1066 Y58.1066
G01 X49.0952 Y57.0159
G01 X49.9720 Y55.8336
G01 X50.7288 Y54.5710
G01 X51.3582 Y53.2403
G01 X51.8541 Y51.8543
G01 X52.2118 Y50.4264
G01 X52.4278 Y48.9703
G01 X52.5000 Y47.5000
G01 X54.5000 Y47.5000
G01 X54.4181 Y45.8337
G01 X54.1733 Y44.1835
G01 X53.7680 Y42.5652
G01 X53.2060 Y40.9944
G01 X52.4927 Y39.4863
G01 X51.6350 Y38.0553
G01 X50.6412 Y36.7153
G01 X49.5208 Y35.4792
G01 X48.2847 Y34.3588
G01 X46.9447 Y33.3650
G01 X45.5137 Y32.5073
G01 X44.0056 Y31.7940
G01 X42.4348 Y31.2320
G01 X40.8165 Y30.8267
G01 X39.1663 Y30.5819
G01 X37.5000 Y30.5000
G01 X35.8337 Y30.5819
G01 X34.1835 Y30.8267
G01 X32.5652 Y31.2320
G01 X30.9944 Y31.7940
G01 X29.4863 Y32.5073
G01 X28.0553 Y33.3650
G01 X26.7153 Y34.3588
G01 X25.4792 Y35.4792
G01 X24.3588 Y36.7153
G01 X23.3650 Y38.0553
G01 X22.5073 Y39.4863
G01 X21.7940 Y40.9944
G01 X21.2320 Y42.5652
G01 X20.8267 Y44.1835
G01 X20.5819 Y45.8337
G01 X20.5000 Y47.5000
G01 X20.5819 Y49.1663
G01 X20.8267 Y50.8165
G01 X21.2320 Y52.4348
G01 X21.7940 Y54.0056
G01 X22.5073 Y55.5137
G01 X23.3650 Y56.9447
G01 X24.3588 Y58.2847
G01 X25.4792 Y59.5208
G01 X26.7153 Y60.6412
G01 X28.0553 Y61.6350
G01 X29.4863 Y62.4927
G01 X30.9944 Y63.2060
G01 X32.5652 Y63.7680
G01 X34.1835 Y64.1733
G01 X35.8337 Y64.4181
G01 X37.5000 Y64.5000
G01 X39.1663 Y64.4181
G01 X40.8165 Y64.1733
G01 X42.4348 Y63.7680
G01 X44.0056 Y63.2060
G01 X45.5137 Y62.4927
G01 X46.9447 Y61.6350
G01 X48.2847 Y60.6412
G01 X49.5208 Y59.5208
G01 X50.6412 Y58.2847
G01 X51.6350 Y56.9447
G01 X52.4927 Y55.5137
G01 X53.2060 Y54.0056
G01 X53.7680 Y52.4348
G01 X54.1733 Y50.8165
G01 X54.4181 Y49.1663
G01 X54.5000 Y47.5000
G01 X56.5000 Y47.5000
G01 X56.4085 Y45.6377
G01 X56.1349 Y43.7933
G01 X55.6819 Y41.9846
G01 X55.0537 Y40.2290
G01 X54.2565 Y38.5435
G01 X53.2979 Y36.9442
G01 X52.1872 Y35.4465
G01 X50.9350 Y34.0650
G01 X49.5535 Y32.8128
G01 X48.0558 Y31.7021
G01 X46.4565 Y30.7435
G01 X44.7710 Y29.9463
G01 X43.0154 Y29.3181
G01 X41.2067 Y28.8651
G01 X39.3623 Y28.5915
G01 X37.5000 Y28.5000
G01 X35.6377 Y28.5915
G01 X33.7933 Y28.8651
G01 X31.9846 Y29.3181
G01 X30.2290 Y29.9463
G01 X28.5435 Y30.7435
G01 X26.9442 Y31.7021
G01 X25.4465 Y32.8128
G01 X24.0650 Y34.0650
G01 X22.8128 Y35.4465
G01 X21.7021 Y36.9442
G01 X20.7435 Y38.5435
G01 X19.9463 Y40.2290
G01 X19.3181 Y41.9846
G01 X18.8651 Y43.7933
G01 X18.5915 Y45.6377
G01 X18.5000 Y47.5000
G01 X18.5915 Y49.3623
G01 X18.8651 Y51.2067
G01 X19.3181 Y53.0154
G01 X19.9463 Y54.7710
G01 X20.7435 Y56.4565
G01 X21.7021 Y58.0558
G01 X22.8128 Y59.5535
G01 X24.0650 Y60.9350
G01 X25.4465 Y62.1872
G01 X26.9442 Y63.2979
G01 X28.5435 Y64.2565
G01 X30.2290 Y65.0537
G01 X31.9846 Y65.6819
G01 X33.7933 Y66.1349
G01 X35.6377 Y66.4085
G01 X37.5000 Y66.5000
G01 X39.3623 Y66.4085
G01 X41.2067 Y66.1349
G01 X43.0154 Y65.6819
G01 X44.7710 Y65.0537
G01 X46.4565 Y64.2565
G01 X48.0558 Y63.2979
G01 X49.5535 Y62.1872
G01 X50.9350 Y60.9350
G01 X52.1872 Y59.5535
G01 X53.2979 Y58.0558
G01 X54.2565 Y56.4565
G01 X55.0537 Y54.7710
G01 X55.6819 Y53.0154
G01 X56.1349 Y51.2067
G01 X56.4085 Y49.3623
G01 X56.5000 Y47.5000
G01 X58.5000 Y47.5000
G01 X58.3989 Y45.4416
G01 X58.0965 Y43.4031
G01 X57.5957 Y41.4040
G01 X56.9015 Y39.4636
G01 X56.0203 Y37.6007
G01 X54.9609 Y35.8330
G01 X53.7332 Y34.1777
G01 X52.3492 Y32.6508
G01 X50.8223 Y31.2668
G01 X49.1670 Y30.0391
G01 X47.3993 Y28.9797
G01 X45.5364 Y28.0985
G01 X43.5960 Y27.4043
G01 X41.5969 Y26.9035
G01 X39.5584 Y26.6011
G01 X37.5000 Y26.5000
G01 X35.4416 Y26.6011
G01 X33.4031 Y26.9035
G01 X31.4040 Y27.4043
G01 X29.4636 Y28.0985
G01 X27.6007 Y28.9797
G01 X25.8330 Y30.0391
G01 X24.1777 Y31.2668
G01 X22.6508 Y32.6508
G01 X21.2668 Y34.1777
G01 X20.0391 Y35.8330
G01 X18.9797 Y37.6007
G01 X18.0985 Y39.4636
G01 X17.4043 Y41.4040
G01 X16.9035 Y43.4031
G01 X16.6011 Y45.4416
G01 X16.5000 Y47.5000
G01 X16.6011 Y49.5584
G01 X16.9035 Y51.5969
G01 X17.4043 Y53.5960
G01 X18.0985 Y55.5364
G01 X18.9797 Y57.3993
G01 X20.0391 Y59.1670
G01 X21.2668 Y60.8223
G01 X22.6508 Y62.3492
G01 X24.1777 Y63.7332
G01 X25.8330 Y64.9609
G01 X27.6007 Y66.0203
G01 X29.4636 Y66.9015
G01 X31.4040 Y67.5957
G01 X33.4031 Y68.0965
G01 X35.4416 Y68.3989
G01 X37.5000 Y68.5000
G01 X39.5584 Y68.3989
G01 X41.5969 Y68.0965
G01 X43.5960 Y67.5957
G01 X45.5364 Y66.9015
G01 X47.3993 Y66.0203
G01 X49.1670 Y64.9609
G01 X50.8223 Y63.7332
G01 X52.3492 Y62.3492
G01 X53.7332 Y60.8223
G01 X54.9609 Y59.1670
G01 X56.0203 Y57.3993
G01 X56.9015 Y55.5364
G01 X57.5957 Y53.5960
G01 X58.0965 Y51.5969
G01 X58.3989 Y49.5584
G01 X58.5000 Y47.5000
G01 X60.5000 Y47.5000
G01 X60.3892 Y45.2456
G01 X60.0581 Y43.0129
G01 X59.5096 Y40.8235
G01 X58.7492 Y38.6983
G01 X57.7842 Y36.6579
G01 X56.6238 Y34.7219
G01 X55.2792 Y32.9090
G01 X53.7635 Y31.2365
G01 X52.0910 Y29.7208
G01 X50.2781 Y28.3762
G01 X48.3421 Y27.2158
G01 X46.3017 Y26.2508
G01 X44.1765 Y25.4904
G01 X41.9871 Y24.9419
G01 X39.7544 Y24.6108
G01 X37.5000 Y24.5000
G01 X35.2456 Y24.6108
G01 X33.0129 Y24.9419
G01 X30.8235 Y25.4904
G01 X28.6983 Y26.2508
G01 X26.6579 Y27.2158
G01 X24.7219 Y28.3762
G01 X22.9090 Y29.7208
G01 X21.2365 Y31.2365
G01 X19.7208 Y32.9090
G01 X18.3762 Y34.7219
G01 X17.2158 Y36.6579
G01 X16.2508 Y38.6983
G01 X15.4904 Y40.8235
G01 X14.9419 Y43.0129
G01 X14.6108 Y45.2456
G01 X14.5000 Y47.5000
G01 X14.6108 Y49.7544
G01 X14.9419 Y51.9871
G01 X15.4904 Y54.1765
G01 X16.2508 Y56.3017
G01 X17.2158 Y58.3421
G01 X18.3762 Y60.2781
G01 X19.7208 Y62.0910
G01 X21.2365 Y63.7635
G01 X22.9090 Y65.2792
G01 X24.7219 Y66.6238
G01 X26.6579 Y67.7842
G01 X28.6983 Y68.7492
G01 X30.8235 Y69.5096
G01 X33.0129 Y70.0581
G01 X35.2456 Y70.3892
G01 X37.5000 Y70.5000
G01 X39.7544 Y70.3892
G01 X41.9871 Y70.0581
G01 X44.1765 Y69.5096
G01 X46.3017 Y68.7492
G01 X48.3421 Y67.7842
G01 X50.2781 Y66.6238
G01 X52.0910 Y65.2792
G01 X53.7635 Y63.7635
G01 X55.2792 Y62.0910
G01 X56.6238 Y60.2781
G01 X57.7842 Y58.3421
G01 X58.7492 Y56.3017
G01 X59.5096 Y54.1765
G01 X60.0581 Y51.9871
G01 X60.3892 Y49.7544
G01 X60.5000 Y47.5000
G00 X60.5000 Y47.5000
G01 F100.00
G01 Z-1.2000
G01 F200.00
G01 X60.3892 Y49.7544
G01 X60.0581 Y51.9871
G01 X59.5096 Y54.1765
G01 X58.7492 Y56.3017
G01 X57.7842 Y58.3421
G01 X56.6238 Y60.2781
G01 X55.2792 Y62.0910
G01 X53.7635 Y63.7635
G01 X52.0910 Y65.2792
G01 X50.2781 Y66.6238
G01 X48.3421 Y67.7842
G01 X46.3017 Y68.7492
G01 X44.1765 Y69.5096
G01 X41.9871 Y70.0581
G01 X39.7544 Y70.3892
G01 X37.5000 Y70.5000
G01 X35.2456 Y70.3892
G01 X33.0129 Y70.0581
G01 X30.8235 Y69.5096
G01 X28.6983 Y68.7492
G01 X26.6579 Y67.7842
G01 X24.7219 Y66.6238
G01 X22.9090 Y65.2792
G01 X21.2365 Y63.7635
G01 X19.7208 Y62.0910
G01 X18.3762 Y60.2781
G01 X17.2158 Y58.3421
G01 X16.2508 Y56.3017
G01 X15.4904 Y54.1765
G01 X14.9419 Y51.9871
G01 X14.6108 Y49.7544
G01 X14.5000 Y47.5000
G01 X14.6108 Y45.2456
G01 X14.9419 Y43.0129
G01 X15.4904 Y40.8235
G01 X16.2508 Y38.6983
G01 X17.2158 Y36.6579
G01 X18.3762 Y34.7219
G01 X19.7208 Y32.9090
G01 X21.2365 Y31.2365
G01 X22.9090 Y29.7208
G01 X24.7219 Y28.3762
G01 X26.6579 Y27.2158
G01 X28.6983 Y26.2508
G01 X30.8235 Y25.4904
G01 X33.0129 Y24.9419
G01 X35.2456 Y24.6108
G01 X37.5000 Y24.5000
G01 X39.7544 Y24.6108
G01 X41.9871 Y24.9419
G01 X44.1765 Y25.4904
G01 X46.3017 Y26.2508
G01 X48.3421 Y27.2158
G01 X50.2781 Y28.3762
G01 X52.0910 Y29.7208
G01 X53.7635 Y31.2365
G01 X55.2792 Y32.9090
G01 X56.6238 Y34.7219
G01 X57.7842 Y36.6579
G01 X58.7492 Y38.6983
G01 X59.5096 Y40.8235
G01 X60.0581 Y43.0129
G01 X60.3892 Y45.2456
G01 X60.5000 Y47.5000
G01 X58.5000 Y47.5000
G01 X58.3989 Y49.5584
G01 X58.0965 Y51.5969
G01 X57.5957 Y53.5960
G01 X56.9015 Y55.5364
G01 X56.0203 Y57.3993
G01 X54.9609 Y59.1670
G01 X53.7332 Y60.8223
G01 X52.3492 Y62.3492
G01 X50.8223 Y63.7332
G01 X49.1670 Y64.9609
G01 X47.3993 Y66.0203
G01 X45.5364 Y66.9015
G01 X43.5960 Y67.5957
G01 X41.5969 Y68.0965
G01 X39.5584 Y68.3989
G01 X37.5000 Y68.5000
G01 X35.4416 Y68.3989
G01 X33.4031 Y68.0965
G01 X31.4040 Y67.5957
G01 X29.4636 Y66.9015
G01 X27.6007 Y66.0203
G01 X25.8330 Y64.9609
G01 X24.1777 Y63.7332
G01 X22.6508 Y62.3492
G01 X21.2668 Y60.8223
G01 X20.0391 Y59.1670
G01 X18.9797 Y57.3993
G01 X18.0985 Y55.5364
G01 X17.4043 Y53.5960
G01 X16.9035 Y51.5969
G01 X16.6011 Y49.5584
G01 X16.5000 Y47.5000
G01 X16.6011 Y45.4416
G01 X16.9035 Y43.4031
G01 X17.4043 Y41.4040
G01 X18.0985 Y39.4636
G01 X18.9797 Y37.6007
G01 X20.0391 Y35.8330
G01 X21.2668 Y34.1777
G01 X22.6508 Y32.6508
G01 X24.1777 Y31.2668
G01 X25.8330 Y30.0391
G01 X27.6007 Y28.9797
G01 X29.4636 Y28.0985
G01 X31.4040 Y27.4043
G01 X33.4031 Y26.9035
G01 X35.4416 Y26.6011
G01 X37.5000 Y26.5000
G01 X39.5584 Y26.6011
G01 X41.5969 Y26.9035
G01 X43.5960 Y27.4043
G01 X45.5364 Y28.0985
G01 X47.3993 Y28.9797
G01 X49.1670 Y30.0391
G01 X50.8223 Y31.2668
G01 X52.3492 Y32.6508
G01 X53.7332 Y34.1777
G01 X54.9609 Y35.8330
G01 X56.0203 Y37.6007
G01 X56.9015 Y39.4636
G01 X57.5957 Y41.4040
G01 X58.0965 Y43.4031
G01 X58.3989 Y45.4416
G01 X58.5000 Y47.5000
G01 X56.5000 Y47.5000
G01 X56.4085 Y49.3623
G01 X56.1349 Y51.2067
G01 X55.6819 Y53.0154
G01 X55.0537 Y54.7710
G01 X54.2565 Y56.4565
G01 X53.2979 Y58.0558
G01 X52.1872 Y59.5535
G01 X50.9350 Y60.9350
G01 X49.5535 Y62.1872
G01 X48.0558 Y63.2979
G01 X46.4565 Y64.2565
G01 X44.7710 Y65.0537
G01 X43.0154 Y65.6819
G01 X41.2067 Y66.1349
G01 X39.3623 Y66.4085
G01 X37.5000 Y66.5000
G01 X35.6377 Y66.4085
G01 X33.7933 Y66.1349
G01 X31.9846 Y65.6819
G01 X30.2290 Y65.0537
G01 X28.5435 Y64.2565
G01 X26.9442 Y63.2979
G01 X25.4465 Y62.1872
G01 X24.0650 Y60.9350
G01 X22.8128 Y59.5535
G01 X21.7021 Y58.0558
G01 X20.7435 Y56.4565
G01 X19.9463 Y54.7710
G01 X19.3181 Y53.0154
G01 X18.8651 Y51.2067
G01 X18.5915 Y49.3623
G01 X18.5000 Y47.5000
G01 X18.5915 Y45.6377
G01 X18.8651 Y43.7933
G01 X19.3181 Y41.9846
G01 X19.9463 Y40.2290
G01 X20.7435 Y38.5435
G01 X21.7021 Y36.9442
G01 X22.8128 Y35.4465
G01 X24.0650 Y34.0650
G01 X25.4465 Y32.8128
G01 X26.9442 Y31.7021
G01 X28.5435 Y30.7435
G01 X30.2290 Y29.9463
G01 X31.9846 Y29.3181
G01 X33.7933 Y28.8651
G01 X35.6377 Y28.5915
G01 X37.5000 Y28.5000
G01 X39.3623 Y28.5915
G01 X41.2067 Y28.8651
G01 X43.0154 Y29.3181
G01 X44.7710 Y29.9463
G01 X46.4565 Y30.7435
G01 X48.0558 Y31.7021
G01 X49.5535 Y32.8128
G01 X50.9350 Y34.0650
G01 X52.1872 Y35.4465
G01 X53.2979 Y36.9442
G01 X54.2565 Y38.5435
G01 X55.0537 Y40.2290
G01 X55.6819 Y41.9846
G01 X56.1349 Y43.7933
G01 X56.4085 Y45.6377
G01 X56.5000 Y47.5000
G01 X54.5000 Y47.5000
G01 X54.4181 Y49.1663
G01 X54.1733 Y50.8165
G01 X53.7680 Y52.4348
G01 X53.2060 Y54.0056
G01 X52.4927 Y55.5137
G01 X51.6350 Y56.9447
G01 X50.6412 Y58.2847
G01 X49.5208 Y59.5208
G01 X48.2847 Y60.6412
G01 X46.9447 Y61.6350
G01 X45.5137 Y62.4927
G01 X44.0056 Y63.2060
G01 X42.4348 Y63.7680
G01 X40.8165 Y64.1733
G01 X39.1663 Y64.4181
G01 X37.5000 Y64.5000
G01 X35.8337 Y64.4181
G01 X34.1835 Y64.1733
G01 X32.5652 Y63.7680
G01 X30.9944 Y63.2060
G01 X29.4863 Y62.4927
G01 X28.0553 Y61.6350
G01 X26.7153 Y60.6412
G01 X25.4792 Y59.5208
G01 X24.3588 Y58.2847
G01 X23.3650 Y56.9447
G01 X22.5073 Y55.5137
G01 X21.7940 Y54.0056
G01 X21.2320 Y52.4348
G01 X20.8267 Y50.8165
G01 X20.5819 Y49.1663
G01 X20.5000 Y47.5000
G01 X20.5819 Y45.8337
G01 X20.8267 Y44.1835
G01 X21.2320 Y42.5652
G01 X21.7940 Y40.9944
G01 X22.5073 Y39.4863
G01 X23.3650 Y38.0553
G01 X24.3588 Y36.7153
G01 X25.4792 Y35.4792
G01 X26.7153 Y34.3588
G01 X28.0553 Y33.3650
G01 X29.4863 Y32.5073
G01 X30.9944 Y31.7940
G01 X32.5652 Y31.2320
G01 X34.1835 Y30.8267
G01 X35.8337 Y30.5819
G01 X37.5000 Y30.5000
G01 X39.1663 Y30.5819
G01 X40.8165 Y30.8267
G01 X42.4348 Y31.2320
G01 X44.0056 Y31.7940
G01 X45.5137 Y32.5073
G01 X46.9447 Y33.3650
G01 X48.2847 Y34.3588
G01 X49.5208 Y35.4792
G01 X50.6412 Y36.7153
G01 X51.6350 Y38.0553
G01 X52.4927 Y39.4863
G01 X53.2060 Y40.9944
G01 X53.7680 Y42.5652
G01 X54.1733 Y44.1835
G01 X54.4181 Y45.8337
G01 X54.5000 Y47.5000
G01 X52.5000 Y47.5000
G01 X52.4278 Y48.9703
G01 X52.2118 Y50.4264
G01 X51.8541 Y51.8543
G01 X51.3582 Y53.2403
G01 X50.7288 Y54.5710
G01 X49.9720 Y55.8336
G01 X49.0952 Y57.0159
G01 X48.1066 Y58.1066
G01 X47.0159 Y59.0952
G01 X45.8336 Y59.9720
G01 X44.5710 Y60.7288
G01 X43.2403 Y61.3582
G01 X41.8543 Y61.8541
G01 X40.4264 Y62.2118
G01 X38.9703 Y62.4278
G01 X37.5000 Y62.5000
G01 X36.0297 Y62.4278
G01 X34.5736 Y62.2118
G01 X33.1457 Y61.8541
G01 X31.7597 Y61.3582
G01 X30.4290 Y60.7288
G01 X29.1664 Y59.9720
G01 X27.9841 Y59.0952
G01 X26.8934 Y58.1066
G01 X25.9048 Y57.0159
G01 X25.0280 Y55.8336
G01 X24.2712 Y54.5710
G01 X23.6418 Y53.2403
G01 X23.1459 Y51.8543
G01 X22.7882 Y50.4264
G01 X22.5722 Y48.9703
G01 X22.5000 Y47.5000
G01 X22.5722 Y46.0297
G01 X22.7882 Y44.5736
G01 X23.1459 Y43.1457
G01 X23.6418 Y41.7597
G01 X24.2712 Y40.4290
G01 X25.0280 Y39.1664
G01 X25.9048 Y37.9841
G01 X26.8934 Y36.8934
G01 X27.9841 Y35.9048
G01 X29.1664 Y35.0280
G01 X30.4290 Y34.2712
G01 X31.7597 Y33.6418
G01 X33.1457 Y33.1459
G01 X34.5736 Y32.7882
G01 X36.0297 Y32.5722
G01 X37.5000 Y32.5000
G01 X38.9703 Y32.5722
G01 X40.4264 Y32.7882
G01 X41.8543 Y33.1459
G01 X43.2403 Y33.6418
G01 X44.5710 Y34.2712
G01 X45.8336 Y35.0280
G01 X47.0159 Y35.9048
G01 X48.1066 Y36.8934
G01 X49.0952 Y37.9841
G01 X49.9720 Y39.1664
G01 X50.7288 Y40.4290
G01 X51.3582 Y41.7597
G01 X51.8541 Y43.1457
G01 X52.2118 Y44.5736
G01 X52.4278 Y46.0297
G01 X52.5000 Y47.5000
G01 X50.5000 Y47.5000
G01 X50.4374 Y48.7742
G01 X50.2502 Y50.0362
G01 X49.9402 Y51.2737
G01 X49.5104 Y52.4749
G01 X48.9650 Y53.6282
G01 X48.3091 Y54.7224
G01 X47.5491 Y55.7471
G01 X46.6924 Y56.6924
G01 X45.7471 Y57.5491
G01 X44.7224 Y58.3091
G01 X43.6282 Y58.9650
G01 X42.4749 Y59.5104
G01 X41.2737 Y59.9402
G01 X40.0362 Y60.2502
G01 X38.7742 Y60.4374
G01 X37.5000 Y60.5000
G01 X36.2258 Y60.4374
G01 X34.9638 Y60.2502
G01 X33.7263 Y59.9402
G01 X32.5251 Y59.5104
G01 X31.3718 Y58.9650
G01 X30.2776 Y58.3091
G01 X29.2529 Y57.5491
G01 X28.3076 Y56.6924
G01 X27.4509 Y55.7471
G01 X26.6909 Y54.7224
G01 X26.0350 Y53.6282
G01 X25.4896 Y52.4749
G01 X25.0598 Y51.2737
G01 X24.7498 Y50.0362
G01 X24.5626 Y48.7742
G01 X24.5000 Y47.5000
G01 X24.5626 Y46.2258
G01 X24.7498 Y44.9638
G01 X25.0598 Y43.7263
G01 X25.4896 Y42.5251
G01 X26.0350 Y41.3718
G01 X26.6909 Y40.2776
G01 X27.4509 Y39.2529
G01 X28.3076 Y38.3076
G01 X29.2529 Y37.4509
G01 X30.2776 Y36.6909
G01 X31.3718 Y36.0350
G01 X32.5251 Y35.4896
G01 X33.7263 Y35.0598
G01 X34.9638 Y34.7498
G01 X36.2258 Y34.5626
G01 X37.5000 Y34.5000
G01 X38.7742 Y34.5626
G01 X40.0362 Y34.7498
G01 X41.2737 Y35.0598
G01 X42.4749 Y35.4896
G01 X43.6282 Y36.0350
G01 X44.7224 Y36.6909
G01 X45.7471 Y37.4509
G01 X46.6924 Y38.3076
G01 X47.5491 Y39.2529
G01 X48.3091 Y40.2776
G01 X48.9650 Y41.3718
G01 X49.5104 Y42.5251
G01 X49.9402 Y43.7263
G01 X50.2502 Y44.9638
G01 X50.4374 Y46.2258
G01 X50.5000 Y47.5000
G01 X48.5000 Y47.5000
G01 X48.4470 Y48.5782
G01 X48.2886 Y49.6460
G01 X48.0263 Y50.6931
G01 X47.6627 Y51.7095
G01 X47.2011 Y52.6854
G01 X46.6462 Y53.6113
G01 X46.0031 Y54.4783
G01 X45.2782 Y55.2782
G01 X44.4783 Y56.0031
G01 X43.6113 Y56.6462
G01 X42.6854 Y57.2011
G01 X41.7095 Y57.6627
G01 X40.6931 Y58.0263
G01 X39.6460 Y58.2886
G01 X38.5782 Y58.4470
G01 X37.5000 Y58.5000
G01 X36.4218 Y58.4470
G01 X35.3540 Y58.2886
G01 X34.3069 Y58.0263
G01 X33.2905 Y57.6627
G01 X32.3146 Y57.2011
G01 X31.3887 Y56.6462
G01 X30.5217 Y56.0031
G01 X29.7218 Y55.2782
G01 X28.9969 Y54.4783
G01 X28.3538 Y53.6113
G01 X27.7989 Y52.6854
G01 X27.3373 Y51.7095
G01 X26.9737 Y50.6931
G01 X26.7114 Y49.6460
G01 X26.5530 Y48.5782
G01 X26.5000 Y47.5000
G01 X26.5530 Y46.4218
G01 X26.7114 Y45.3540
G01 X26.9737 Y44.3069
G01 X27.3373 Y43.2905
G01 X27.7989 Y42.3146
G01 X28.3538 Y41.3887
G01 X28.9969 Y40.5217
G01 X29.7218 Y39.7218
G01 X30.5217 Y38.9969
G01 X31.3887 Y38.3538
G01 X32.3146 Y37.7989
G01 X33.2905 Y37.3373
G01 X34.3069 Y36.9737
G01 X35.3540 Y36.7114
G01 X36.4218 Y36.5530
G01 X37.5000 Y36.5000
G01 X38.5782 Y36.5530
G01 X39.6460 Y36.7114
G01 X40.6931 Y36.9737
G01 X41.7095 Y37.3373
G01 X42.6854 Y37.7989
G01 X43.6113 Y38.3538
G01 X44.4783 Y38.9969
G01 X45.2782 Y39.7218
G01 X46.0031 Y40.5217
G01 X46.6462 Y41.3887
G01 X47.2011 Y42.3146
G01 X47.6627 Y43.2905
G01 X48.0263 Y44.3069
G01 X48.2886 Y45.3540
G01 X48.4470 Y46.4218
G01 X48.5000 Y47.5000
G01 X46.5000 Y47.5000
G01 X46.4567 Y48.3822
G01 X46.3271 Y49.2558
G01 X46.1125 Y50.1126
G01 X45.8149 Y50.9442
G01 X45.4373 Y51.7426
G01 X44.9832 Y52.5001
G01 X44.4571 Y53.2095
G01 X43.8640 Y53.8640
G01 X43.2095 Y54.4571
G01 X42.5001 Y54.9832
G01 X41.7426 Y55.4373
G01 X40.9442 Y55.8149
G01 X40.1126 Y56.1125
G01 X39.2558 Y56.3271
G01 X38.3822 Y56.4567
G01 X37.5000 Y56.5000
G01 X36.6178 Y56.4567
G01 X35.7442 Y56.3271
G01 X34.8874 Y56.1125
G01 X34.0558 Y55.8149
G01 X33.2574 Y55.4373
G01 X32.4999 Y54.9832
G01 X31.7905 Y54.4571
G01 X31.1360 Y53.8640
G01 X30.5429 Y53.2095
G01 X30.0168 Y52.5001
G01 X29.5627 Y51.7426
G01 X29.1851 Y50.9442
G01 X28.8875 Y50.1126
G01 X28.6729 Y49.2558
G01 X28.5433 Y48.3822
G01 X28.5000 Y47.5000
G01 X28.5433 Y46.6178
G01 X28.6729 Y45.7442
G01 X28.8875 Y44.8874
G01 X29.1851 Y44.0558
G01 X29.5627 Y43.2574
G01 X30.0168 Y42.4999
G01 X30.5429 Y41.7905
G01 X31.1360 Y41.1360
G01 X31.7905 Y40.5429
G01 X32.4999 Y40.0168
G01 X33.2574 Y39.5627
G01 X34.0558 Y39.1851
G01 X34.8874 Y38.8875
G01 X35.7442 Y38.6729
G01 X36.6178 Y38.5433
G01 X37.5000 Y38.5000
G01 X38.3822 Y38.5433
G01 X39.2558 Y38.6729
G01 X40.1126 Y38.8875
G01 X40.9442 Y39.1851
G01 X41.7426 Y39.5627
G01 X42.5001 Y40.0168
G01 X43.2095 Y40.5429
G01 X43.8640 Y41.1360
G01 X44.4571 Y41.7905
G01 X44.9832 Y42.4999
G01 X45.4373 Y43.2574
G01 X45.8149 Y44.0558
G01 X46.1125 Y44.8874
G01 X46.3271 Y45.7442
G01 X46.4567 Y46.6178
G01 X46.5000 Y47.5000
G01 X44.5000 Y47.5000
G01 X44.4663 Y48.1861
G01 X44.3655 Y48.8656
G01 X44.1986 Y49.5320
G01 X43.9672 Y50.1788
G01 X43.6734 Y50.7998
G01 X43.3203 Y51.3890
G01 X42.9111 Y51.9408
G01 X42.4497 Y52.4497
G01 X41.9408 Y52.9111
G01 X41.3890 Y53.3203
G01 X40.7998 Y53.6734
G01 X40.1788 Y53.9672
G01 X39.5320 Y54.1986
G01 X38.8656 Y54.3655
G01 X38.1861 Y54.4663
G01 X37.5000 Y54.5000
G01 X36.8139 Y54.4663
G01 X36.1344 Y54.3655
G01 X35.4680 Y54.1986
G01 X34.8212 Y53.9672
G01 X34.2002 Y53.6734
G01 X33.6110 Y53.3203
G01 X33.0592 Y52.9111
G01 X32.5503 Y52.4497
G01 X32.0889 Y51.9408
G01 X31.6797 Y51.3890
G01 X31.3266 Y50.7998
G01 X31.0328 Y50.1788
G01 X30.8014 Y49.5320
G01 X30.6345 Y48.8656
G01 X30.5337 Y48.1861
G01 X30.5000 Y47.5000
G01 X30.5337 Y46.8139
G01 X30.6345 Y46.1344
G01 X30.8014 Y45.4680
G01 X31.0328 Y44.8212
G01 X31.3266 Y44.2002
G01 X31.6797 Y43.6110
G01 X32.0889 Y43.0592
G01 X32.5503 Y42.5503
G01 X33.0592 Y42.0889
G01 X33.6110 Y41.6797
G01 X34.2002 Y41.3266
G01 X34.8212 Y41.0328
G01 X35.4680 Y40.8014
G01 X36.1344 Y40.6345
G01 X36.8139 Y40.5337
G01 X37.5000 Y40.5000
G01 X38.1861 Y40.5337
G01 X38.8656 Y40.6345
G01 X39.5320 Y40.8014
G01 X40.1788 Y41.0328
G01 X40.7998 Y41.3266
G01 X41.3890 Y41.6797
G01 X41.9408 Y42.0889
G01 X42.4497 Y42.5503
G01 X42.9111 Y43.0592
G01 X43.3203 Y43.6110
G01 X43.6734 Y44.2002
G01 X43.9672 Y44.8212
G01 X44.1986 Y45.4680
G01 X44.3655 Y46.1344
G01 X44.4663 Y46.8139
G01 X44.5000 Y47.5000
G01 X42.5000 Y47.5000
G01 X42.4759 Y47.9901
G01 X42.4039 Y48.4755
G01 X42.2847 Y48.9514
G01 X42.1194 Y49.4134
G01 X41.9096 Y49.8570
G01 X41.6573 Y50.2779
G01 X41.3651 Y50.6720
G01 X41.0355 Y51.0355
G01 X40.6720 Y51.3651
G01 X40.2779 Y51.6573
G01 X39.8570 Y51.9096
G01 X39.4134 Y52.1194
G01 X38.9514 Y52.2847
G01 X38.4755 Y52.4039
G01 X37.9901 Y52.4759
G01 X37.5000 Y52.5000
G01 X37.0099 Y52.4759
G01 X36.5245 Y52.4039
G01 X36.0486 Y52.2847
G01 X35.5866 Y52.1194
G01 X35.1430 Y51.9096
G01 X34.7221 Y51.6573
G01 X34.3280 Y51.3651
G01 X33.9645 Y51.0355
G01 X33.6349 Y50.6720
G01 X33.3427 Y50.2779
G01 X33.0904 Y49.8570
G01 X32.8806 Y49.4134
G01 X32.7153 Y48.9514
G01 X32.5961 Y48.4755
G01 X32.5241 Y47.9901
G01 X32.5000 Y47.5000
G01 X32.5241 Y47.0099
G01 X32.5961 Y46.5245
G01 X32.7153 Y46.0486
G01 X32.8806 Y45.5866
G01 X33.0904 Y45.1430
G01 X33.3427 Y44.7221
G01 X33.6349 Y44.3280
G01 X33.9645 Y43.9645
G01 X34.3280 Y43.6349
G01 X34.7221 Y43.3427
G01 X35.1430 Y43.0904
G01 X35.5866 Y42.8806
G01 X36.0486 Y42.7153
G01 X36.5245 Y42.5961
G01 X37.0099 Y42.5241
G01 X37.5000 Y42.5000
G01 X37.9901 Y42.5241
G01 X38.4755 Y42.5961
G01 X38.9514 Y42.7153
G01 X39.4134 Y42.8806
G01 X39.8570 Y43.0904
G01 X40.2779 Y43.3427
G01 X40.6720 Y43.6349
G01 X41.0355 Y43.9645
G01 X41.3651 Y44.3280
G01 X41.6573 Y44.7221
G01 X41.9096 Y45.1430
G01 X42.1194 Y45.5866
G01 X42.2847 Y46.0486
G01 X42.4039 Y46.5245
G01 X42.4759 Y47.0099
G01 X42.5000 Y47.5000
G01 X40.5000 Y47.5000
G01 X40.4856 Y47.7941
G01 X40.4424 Y48.0853
G01 X40.3708 Y48.3709
G01 X40.2716 Y48.6481
G01 X40.1458 Y48.9142
G01 X39.9944 Y49.1667
G01 X39.8190 Y49.4032
G01 X39.6213 Y49.6213
G01 X39.4032 Y49.8190
G01 X39.1667 Y49.9944
G01 X38.9142 Y50.1458
G01 X38.6481 Y50.2716
G01 X38.3709 Y50.3708
G01 X38.0853 Y50.4424
G01 X37.7941 Y50.4856
G01 X37.5000 Y50.5000
G01 X37.2059 Y50.4856
G01 X36.9147 Y50.4424
G01 X36.6291 Y50.3708
G01 X36.3519 Y50.2716
G01 X36.0858 Y50.1458
G01 X35.8333 Y49.9944
G01 X35.5968 Y49.8190
G01 X35.3787 Y49.6213
G01 X35.1810 Y49.4032
G01 X35.0056 Y49.1667
G01 X34.8542 Y48.9142
G01 X34.7284 Y48.6481
G01 X34.6292 Y48.3709
G01 X34.5576 Y48.0853
G01 X34.5144 Y47.7941
G01 X34.5000 Y47.5000
G01 X34.5144 Y47.2059
G01 X34.5576 Y46.9147
G01 X34.6292 Y46.6291
G01 X34.7284 Y46.3519
G01 X34.8542 Y46.0858
G01 X35.0056 Y45.8333
G01 X35.1810 Y45.5968
G01 X35.3787 Y45.3787
G01 X35.5968 Y45.1810
G01 X35.8333 Y45.0056
G01 X36.0858 Y44.8542
G01 X36.3519 Y44.7284
G01 X36.6291 Y44.6292
G01 X36.9147 Y44.5576
G01 X37.2059 Y44.5144
G01 X37.5000 Y44.5000
G01 X37.7941 Y44.5144
G01 X38.0853 Y44.5576
G01 X38.3709 Y44.6292
G01 X38.6481 Y44.7284
G01 X38.9142 Y44.8542
G01 X39.1667 Y45.0056
G01 X39.4032 Y45.1810
G01 X39.6213 Y45.3787
G01 X39.8190 Y45.5968
G01 X39.9944 Y45.8333
G01 X40.1458 Y46.0858
G01 X40.2716 Y46.3519
G01 X40.3708 Y46.6291
G01 X40.4424 Y46.9147
G01 X40.4856 Y47.2059
G01 X40.5000 Y47.5000
G01 X38.5000 Y47.5000
G01 X38.4952 Y47.5980
G01 X38.4808 Y47.6951
G01 X38.4569 Y47.7903
G01 X38.4239 Y47.8827
G01 X38.3819 Y47.9714
G01 X38.3315 Y48.0556
G01 X38.2730 Y48.1344
G01 X38.2071 Y48.2071
G01 X38.1344 Y48.2730
G01 X38.0556 Y48.3315
G01 X37.9714 Y48.3819
G01 X37.8827 Y48.4239
G01 X37.7903 Y48.4569
G01 X37.6951 Y48.4808
G01 X37.5980 Y48.4952
G01 X37.5000 Y48.5000
G01 X37.4020 Y48.4952
G01 X37.3049 Y48.4808
G01 X37.2097 Y48.4569
G01 X37.1173 Y48.4239
G01 X37.0286 Y48.3819
G01 X36.9444 Y48.3315
G01 X36.8656 Y48.2730
G01 X36.7929 Y48.2071
G01 X36.7270 Y48.1344
G01 X36.6685 Y48.0556
G01 X36.6181 Y47.9714
G01 X36.5761 Y47.8827
G01 X36.5431 Y47.7903
G01 X36.5192 Y47.6951
G01 X36.5048 Y47.5980
G01 X36.5000 Y47.5000
G01 X36.5048 Y47.4020
G01 X36.5192 Y47.3049
G01 X36.5431 Y47.2097
G01 X36.5761 Y47.1173
G01 X36.6181 Y47.0286
G01 X36.6685 Y46.9444
G01 X36.7270 Y46.8656
G01 X36.7929 Y46.7929
G01 X36.8656 Y46.7270
G01 X36.9444 Y46.6685
G01 X37.0286 Y46.6181
G01 X37.1173 Y46.5761
G01 X37.2097 Y46.5431
G01 X37.3049 Y46.5192
G01 X37.4020 Y46.5048
G01 X37.5000 Y46.5000
G01 X37.5980 Y46.5048
G01 X37.6951 Y46.5192
G01 X37.7903 Y46.5431
G01 X37.8827 Y46.5761
G01 X37.9714 Y46.6181
G01 X38.0556 Y46.6685
G01 X38.1344 Y46.7270
G01 X38.2071 Y46.7929
G01 X38.2730 Y46.8656
G01 X38.3315 Y46.9444
G01 X38.3819 Y47.0286
G01 X38.4239 Y47.1173
G01 X38.4569 Y47.2097
G01 X38.4808 Y47.3049
G01 X38.4952 Y47.4020
G01 X38.5000 Y47.5000
G00 X38.5000 Y47.5000
G01 F100.00
G01 Z-1.8000
G01 F200.00
G01 X38.4952 Y47.4020
G01 X38.4808 Y47.3049
G01 X38.4569 Y47.2097
G01 X38.4239 Y47.1173
G01 X38.3819 Y47.0286
G01 X38.3315 Y46.9444
G01 X38.2730 Y46.8656
G01 X38.2071 Y46.7929
G01 X38.1344 Y46.7270
G01 X38.0556 Y46.6685
G01 X37.9714 Y46.6181
G01 X37.8827 Y46.5761
G01 X37.7903 Y46.5431
G01 X37.6951 Y46.5192
G01 X37.5980 Y46.5048
G01 X37.5000 Y46.5000
G01 X37.4020 Y46.5048
G01 X37.3049 Y46.5192
G01 X37.2097 Y46.5431
G01 X37.1173 Y46.5761
G01 X37.0286 Y46.6181
G01 X36.9444 Y46.6685
G01 X36.8656 Y46.7270
G01 X36.7929 Y46.7929
G01 X36.7270 Y46.8656
G01 X36.6685 Y46.9444
G01 X36.6181 Y47.0286
G01 X36.5761 Y47.1173
G01 X36.5431 Y47.2097
G01 X36.5192 Y47.3049
G01 X36.5048 Y47.4020
G01 X36.5000 Y47.5000
G01 X36.5048 Y47.5980
G01 X36.5192 Y47.6951
G01 X36.5431 Y47.7903
G01 X36.5761 Y47.8827
G01 X36.6181 Y47.9714
G01 X36.6685 Y48.0556
G01 X36.7270 Y48.1344
G01 X36.7929 Y48.2071
G01 X36.8656 Y48.2730
G01 X36.9444 Y48.3315
G01 X37.0286 Y48.3819
G01 X37.1173 Y48.4239
G01 X37.2097 Y48.4569
G01 X37.3049 Y48.4808
G01 X37.4020 Y48.4952
G01 X37.5000 Y48.5000
G01 X37.5980 Y48.4952
G01 X37.6951 Y48.4808
G01 X37.7903 Y48.4569
G01 X37.8827 Y48.4239
G01 X37.9714 Y48.3819
G01 X38.0556 Y48.3315
G01 X38.1344 Y48.2730
G01 X38.2071 Y48.2071
G01 X38.2730 Y48.1344
G01 X38.3315 Y48.0556
G01 X38.3819 Y47.9714
G01 X38.4239 Y47.8827
G01 X38.4569 Y47.7903
G01 X38.4808 Y47.6951
G01 X38.4952 Y47.5980
G01 X38.5000 Y47.5000
G01 X40.5000 Y47.5000
G01 X40.4856 Y47.2059
G01 X40.4424 Y46.9147
G01 X40.3708 Y46.6291
G01 X40.2716 Y46.3519
G01 X40.1458 Y46.0858
G01 X39.9944 Y45.8333
G01 X39.8190 Y45.5968
G01 X39.6213 Y45.3787
G01 X39.4032 Y45.1810
G01 X39.1667 Y45.0056
G01 X38.9142 Y44.8542
G01 X38.6481 Y44.7284
G01 X38.3709 Y44.6292
G01 X38.0853 Y44.5576
G01 X37.7941 Y44.5144
G01 X37.5000 Y44.5000
G01 X37.2059 Y44.5144
G01 X36.9147 Y44.5576
G01 X36.6291 Y44.6292
G01 X36.3519 Y44.7284
G01 X36.0858 Y44.8542
G01 X35.8333 Y45.0056
G01 X35.5968 Y45.1810
G01 X35.3787 Y45.3787
G01 X35.1810 Y45.5968
G01 X35.0056 Y45.8333
G01 X34.8542 Y46.0858
G01 X34.7284 Y46.3519
G01 X34.6292 Y46.6291
G01 X34.5576 Y46.9147
G01 X34.5144 Y47.2059
G01 X34.5000 Y47.5000
G01 X34.5144 Y47.7941
G01 X34.5576 Y48.0853
G01 X34.6292 Y48.3709
G01 X34.7284 Y48.6481
G01 X34.8542 Y48.9142
G01 X35.0056 Y49.1667
G01 X35.1810 Y49.4032
G01 X35.3787 Y49.6213
G01 X35.5968 Y49.8190
G01 X35.8333 Y49.9944
G01 X36.0858 Y50.1458
G01 X36.3519 Y50.2716
G01 X36.6291 Y50.3708
G01 X36.9147 Y50.4424
G01 X37.2059 Y50.4856
G01 X37.5000 Y50.5000
G01 X37.7941 Y50.4856
G01 X38.0853 Y50.4424
G01 X38.3709 Y50.3708
G01 X38.6481 Y50.2716
G01 X38.9142 Y50.1458
G01 X39.1667 Y49.9944
G01 X39.4032 Y49.8190
G01 X39.6213 Y49.6213
G01 X39.8190 Y49.4032
G01 X39.9944 Y49.1667
G01 X40.1458 Y48.9142
G01 X40.2716 Y48.6481
G01 X40.3708 Y48.3709
G01 X40.4424 Y48.0853
G01 X40.4856 Y47.7941
G01 X40.5000 Y47.5000
G01 X42.5000 Y47.5000
G01 X42.4759 Y47.0099
G01 X42.4039 Y46.5245
G01 X42.2847 Y46.0486
G01 X42.1194 Y45.5866
G01 X41.9096 Y45.1430
G01 X41.6573 Y44.7221
G01 X41.3651 Y44.3280
G01 X41.0355 Y43.9645
G01 X40.6720 Y43.6349
G01 X40.2779 Y43.3427
G01 X39.8570 Y43.0904
G01 X39.4134 Y42.8806
G01 X38.9514 Y42.7153
G01 X38.4755 Y42.5961
G01 X37.9901 Y42.5241
G01 X37.5000 Y42.5000
G01 X37.0099 Y42.5241
G01 X36.5245 Y42.5961
G01 X36.0486 Y42.7153
G01 X35.5866 Y42.8806
G01 X35.1430 Y43.0904
G01 X34.7221 Y43.3427
G01 X34.3280 Y43.6349
G01 X33.9645 Y43.9645
G01 X33.6349 Y44.3280
G01 X33.3427 Y44.7221
G01 X33.0904 Y45.1430
G01 X32.8806 Y45.5866
G01 X32.7153 Y46.0486
G01 X32.5961 Y46.5245
G01 X32.5241 Y47.0099
G01 X32.5000 Y47.5000
G01 X32.5241 Y47.9901
G01 X32.5961 Y48.4755
G01 X32.7153 Y48.9514
G01 X32.8806 Y49.4134
G01 X33.0904 Y49.8570
G01 X33.3427 Y50.2779
G01 X33.6349 Y50.6720
G01 X33.9645 Y51.0355
G01 X34.3280 Y51.3651
G01 X34.7221 Y51.6573
G01 X35.1430 Y51.9096
G01 X35.5866 Y52.1194
G01 X36.0486 Y52.2847
G01 X36.5245 Y52.4039
G01 X37.0099 Y52.4759
G01 X37.5000 Y52.5000
G01 X37.9901 Y52.4759
G01 X38.4755 Y52.4039
G01 X38.9514 Y52.2847
G01 X39.4134 Y52.1194
G01 X39.8570 Y51.9096
G01 X40.2779 Y51.6573
G01 X40.6720 Y51.3651
G01 X41.0355 Y51.0355
G01 X41.3651 Y50.6720
G01 X41.6573 Y50.2779
G01 X41.9096 Y49.8570
G01 X42.1194 Y49.4134
G01 X42.2847 Y48.9514
G01 X42.4039 Y48.4755
G01 X42.4759 Y47.9901
G01 X42.5000 Y47.5000
G01 X44.5000 Y47.5000
G01 X44.4663 Y46.8139
G01 X44.3655 Y46.1344
G01 X44.1986 Y45.4680
G01 X43.9672 Y44.8212
G01 X43.6734 Y44.2002
G01 X43.3203 Y43.6110
G01 X42.9111 Y43.0592
G01 X42.4497 Y42.5503
G01 X41.9408 Y42.0889
G01 X41.3890 Y41.6797
G01 X40.7998 Y41.3266
G01 X40.1788 Y41.0328
G01 X39.5320 Y40.8014
G01 X38.8656 Y40.6345
G01 X38.1861 Y40.5337
G01 X37.5000 Y40.5000
G01 X36.8139 Y40.5337
G01 X36.1344 Y40.6345
G01 X35.4680 Y40.8014
G01 X34.8212 Y41.0328
G01 X34.2002 Y41.3266
G01 X33.6110 Y41.6797
G01 X33.0592 Y42.0889
G01 X32.5503 Y42.5503
G01 X32.0889 Y43.0592
G01 X31.6797 Y43.6110
G01 X31.3266 Y44.2002
G01 X31.0328 Y44.8212
G01 X30.8014 Y45.4680
G01 X30.6345 Y46.1344
G01 X30.5337 Y46.8139
G01 X30.5000 Y47.5000
G01 X30.5337 Y48.1861
G01 X30.6345 Y48.8656
G01 X30.8014 Y49.5320
G01 X31.0328 Y50.1788
G01 X31.3266 Y50.7998
G01 X31.6797 Y51.3890
G01 X32.0889 Y51.9408
G01 X32.5503 Y52.4497
G01 X33.0592 Y52.9111
G01 X33.6110 Y53.3203
G01 X34.2002 Y53.6734
G01 X34.8212 Y53.9672
G01 X35.4680 Y54.1986
G01 X36.1344 Y54.3655
G01 X36.8139 Y54.4663
G01 X37.5000 Y54.5000
G01 X38.1861 Y54.4663
G01 X38.8656 Y54.3655
G01 X39.5320 Y54.1986
G01 X40.1788 Y53.9672
G01 X40.7998 Y53.6734
G01 X41.3890 Y53.3203
G01 X41.9408 Y52.9111
G01 X42.4497 Y52.4497
G01 X42.9111 Y51.9408
G01 X43.3203 Y51.3890
G01 X43.6734 Y50.7998
G01 X43.9672 Y50.1788
G01 X44.1986 Y49.5320
G01 X44.3655 Y48.8656
G01 X44.4663 Y48.1861
G01 X44.5000 Y47.5000
G01 X46.5000 Y47.5000
G01 X46.4567 Y46.6178
G01 X46.3271 Y45.7442
G01 X46.1125 Y44.8874
G01 X45.8149 Y44.0558
G01 X45.4373 Y43.2574
G01 X44.9832 Y42.4999
G01 X44.4571 Y41.7905
G01 X43.8640 Y41.1360
G01 X43.2095 Y40.5429
G01 X42.5001 Y40.0168
G01 X41.7426 Y39.5627
G01 X40.9442 Y39.1851
G01 X40.1126 Y38.8875
G01 X39.2558 Y38.6729
G01 X38.3822 Y38.5433
G01 X37.5000 Y38.5000
G01 X36.6178 Y38.5433
G01 X35.7442 Y38.6729
G01 X34.8874 Y38.8875
G01 X34.0558 Y39.1851
G01 X33.2574 Y39.5627
G01 X32.4999 Y40.0168
G01 X31.7905 Y40.5429
G01 X31.1360 Y41.1360
G01 X30.5429 Y41.7905
G01 X30.0168 Y42.4999
G01 X29.5627 Y43.2574
G01 X29.1851 Y44.0558
G01 X28.8875 Y44.8874
G01 X28.6729 Y45.7442
G01 X28.5433 Y46.6178
G01 X28.5000 Y47.5000
G01 X28.5433 Y48.3822
G01 X28.6729 Y49.2558
G01 X28.8875 Y50.1126
G01 X29.1851 Y50.9442
G01 X29.5627 Y51.7426
G01 X30.0168 Y52.5001
G01 X30.5429 Y53.2095
G01 X31.1360 Y53.8640
G01 X31.7905 Y54.4571
G01 X32.4999 Y54.9832
G01 X33.2574 Y55.4373
G01 X34.0558 Y55.8149
G01 X34.8874 Y56.1125
G01 X35.7442 Y56.3271
G01 X36.6178 Y56.4567
G01 X37.5000 Y56.5000
G01 X38.3822 Y56.4567
G01 X39.2558 Y56.3271
G01 X40.1126 Y56.1125
G01 X40.9442 Y55.8149
G01 X41.7426 Y55.4373
G01 X42.5001 Y54.9832
G01 X43.2095 Y54.4571
G01 X43.8640 Y53.8640
G01 X44.4571 Y53.2095
G01 X44.9832 Y52.5001
G01 X45.4373 Y51.7426
G01 X45.8149 Y50.9442
G01 X46.1125 Y50.1126
G01 X46.3271 Y49.2558
G01 X46.4567 Y48.3822
G01 X46.5000 Y47.5000
G01 X48.5000 Y47.5000
G01 X48.4470 Y46.4218
G01 X48.2886 Y45.3540
G01 X48.0263 Y44.3069
G01 X47.6627 Y43.2905
G01 X47.2011 Y42.3146
G01 X46.6462 Y41.3887
G01 X46.0031 Y40.5217
G01 X45.2782 Y39.7218
G01 X44.4783 Y38.9969
G01 X43.6113 Y38.3538
G01 X42.6854 Y37.7989
G01 X41.7095 Y37.3373
G01 X40.6931 Y36.9737
G01 X39.6460 Y36.7114
G01 X38.5782 Y36.5530
G01 X37.5000 Y36.5000
G01 X36.4218 Y36.5530
G01 X35.3540 Y36.7114
G01 X34.3069 Y36.9737
G01 X33.2905 Y37.3373
G01 X32.3146 Y37.7989
G01 X31.3887 Y38.3538
G01 X30.5217 Y38.9969
G01 X29.7218 Y39.7218
G01 X28.9969 Y40.5217
G01 X28.3538 Y41.3887
G01 X27.7989 Y42.3146
G01 X27.3373 Y43.2905
G01 X26.9737 Y44.3069
G01 X26.7114 Y45.3540
G01 X26.5530 Y46.4218
G01 X26.5000 Y47.5000
G01 X26.5530 Y48.5782
G01 X26.7114 Y49.6460
G01 X26.9737 Y50.6931
G01 X27.3373 Y51.7095
G01 X27.7989 Y52.6854
G01 X28.3538 Y53.6113
G01 X28.9969 Y54.4783
G01 X29.7218 Y55.2782
G01 X30.5217 Y56.0031
G01 X31.3887 Y56.6462
G01 X32.3146 Y57.2011
G01 X33.2905 Y57.6627
G01 X34.3069 Y58.0263
G01 X35.3540 Y58.2886
G01 X36.4218 Y58.4470
G01 X37.5000 Y58.5000
G01 X38.5782 Y58.4470
G01 X39.6460 Y58.2886
G01 X40.6931 Y58.0263
G01 X41.7095 Y57.6627
G01 X42.6854 Y57.2011
G01 X43.6113 Y56.6462
G01 X44.4783 Y56.0031
G01 X45.2782 Y55.2782
G01 X46.0031 Y54.4783
G01 X46.6462 Y53.6113
G01 X47.2011 Y52.6854
G01 X47.6627 Y51.7095
G01 X48.0263 Y50.6931
G01 X48.2886 Y49.6460
G01 X48.4470 Y48.5782
G01 X48.5000 Y47.5000
G01 X50.5000 Y47.5000
G01 X50.4374 Y46.2258
G01 X50.2502 Y44.9638
G01 X49.9402 Y43.7263
G01 X49.5104 Y42.5251
G01 X48.9650 Y41.3718
G01 X48.3091 Y40.2776
G01 X47.5491 Y39.2529
G01 X46.6924 Y38.3076
G01 X45.7471 Y37.4509
G01 X44.7224 Y36.6909
G01 X43.6282 Y36.0350
G01 X42.4749 Y35.4896
G01 X41.2737 Y35.0598
G01 X40.0362 Y34.7498
G01 X38.7742 Y34.5626
G01 X37.5000 Y34.5000
G01 X36.2258 Y34.5626
G01 X34.9638 Y34.7498
G01 X33.7263 Y35.0598
G01 X32.5251 Y35.4896
G01 X31.3718 Y36.0350
G01 X30.2776 Y36.6909
G01 X29.2529 Y37.4509
G01 X28.3076 Y38.3076
G01 X27.4509 Y39.2529
G01 X26.6909 Y40.2776
G01 X26.0350 Y41.3718
G01 X25.4896 Y42.5251
G01 X25.0598 Y43.7263
G01 X24.7498 Y44.9638
G01 X24.5626 Y46.2258
G01 X24.5000 Y47.5000
G01 X24.5626 Y48.7742
G01 X24.7498 Y50.0362
G01 X25.0598 Y51.2737
G01 X25.4896 Y52.4749
G01 X26.0350 Y53.6282
G01 X26.6909 Y54.7224
G01 X27.4509 Y55.7471
G01 X28.3076 Y56.6924
G01 X29.2529 Y57.5491
G01 X30.2776 Y58.3091
G01 X31.3718 Y58.9650
G01 X32.5251 Y59.5104
G01 X33.7263 Y59.9402
G01 X34.9638 Y60.2502
G01 X36.2258 Y60.4374
G01 X37.5000 Y60.5000
G01 X38.7742 Y60.4374
G01 X40.0362 Y60.2502
G01 X41.2737 Y59.9402
G01 X42.4749 Y59.5104
G01 X43.6282 Y58.9650
G01 X44.7224 Y58.3091
G01 X45.7471 Y57.5491
G01 X46.6924 Y56.6924
G01 X47.5491 Y55.7471
G01 X48.3091 Y54.7224
G01 X48.9650 Y53.6282
G01 X49.5104 Y52.4749
G01 X49.9402 Y51.2737
G01 X50.2502 Y50.0362
G01 X50.4374 Y48.7742
G01 X50.5000 Y47.5000
G01 X52.5000 Y47.5000
G01 X52.4278 Y46.0297
G01 X52.2118 Y44.5736
G01 X51.8541 Y43.1457
G01 X51.3582 Y41.7597
G01 X50.7288 Y40.4290
G01 X49.9720 Y39.1664
G01 X49.0952 Y37.9841
G01 X48.1066 Y36.8934
G01 X47.0159 Y35.9048
G01 X45.8336 Y35.0280
G01 X44.5710 Y34.2712
G01 X43.2403 Y33.6418
G01 X41.8543 Y33.1459
G01 X40.4264 Y32.7882
G01 X38.9703 Y32.5722
G01 X37.5000 Y32.5000
G01 X36.0297 Y32.5722
G01 X34.5736 Y32.7882
G01 X33.1457 Y33.1459
G01 X31.7597 Y33.6418
G01 X30.4290 Y34.2712
G01 X29.1664 Y35.0280
G01 X27.9841 Y35.9048
G01 X26.8934 Y36.8934
G01 X25.9048 Y37.9841
G01 X25.0280 Y39.1664
G01 X24.2712 Y40.4290
G01 X23.6418 Y41.7597
G01 X23.1459 Y43.1457
G01 X22.7882 Y44.5736
G01 X22.5722 Y46.0297
G01 X22.5000 Y47.5000
G01 X22.5722 Y48.9703
G01 X22.7882 Y50.4264
G01 X23.1459 Y51.8543
G01 X23.6418 Y53.2403
G01 X24.2712 Y54.5710
G01 X25.0280 Y55.8336
G01 X25.9048 Y57.0159
G01 X26.8934 Y58.1066
G01 X27.9841 Y59.0952
G01 X29.1664 Y59.9720
G01 X30.4290 Y60.7288
G01 X31.7597 Y61.3582
G01 X33.1457 Y61.8541
G01 X34.5736 Y62.2118
G01 X36.0297 Y62.4278
G01 X37.5000 Y62.5000
G01 X38.9703 Y62.4278
G01 X40.4264 Y62.2118
G01 X41.8543 Y61.8541
G01 X43.2403 Y61.3582
G01 X44.5710 Y60.7288
G01 X45.8336 Y59.9720
G01 X47.0159 Y59.0952
G01 X48.1066 Y58.1066
G01 X49.0952 Y57.0159
G01 X49.9720 Y55.8336
G01 X50.7288 Y54.5710
G01 X51.3582 Y53.2403
G01 X51.8541 Y51.8543
G01 X52.2118 Y50.4264
G01 X52.4278 Y48.9703
G01 X52.5000 Y47.5000
G01 X54.5000 Y47.5000
G01 X54.4181 Y45.8337
G01 X54.1733 Y44.1835
G01 X53.7680 Y42.5652
G01 X53.2060 Y40.9944
G01 X52.4927 Y39.4863
G01 X51.6350 Y38.0553
G01 X50.6412 Y36.7153
G01 X49.5208 Y35.4792
G01 X48.2847 Y34.3588
G01 X46.9447 Y33.3650
G01 X45.5137 Y32.5073
G01 X44.0056 Y31.7940
G01 X42.4348 Y31.2320
G01 X40.8165 Y30.8267
G01 X39.1663 Y30.5819
G01 X37.5000 Y30.5000
G01 X35.8337 Y30.5819
G01 X34.1835 Y30.8267
G01 X32.5652 Y31.2320
G01 X30.9944 Y31.7940
G01 X29.4863 Y32.5073
G01 X28.0553 Y33.3650
G01 X26.7153 Y34.3588
G01 X25.4792 Y35.4792
G01 X24.3588 Y36.7153
G01 X23.3650 Y38.0553
G01 X22.5073 Y39.4863
G01 X21.7940 Y40.9944
G01 X21.2320 Y42.5652
G01 X20.8267 Y44.1835
G01 X20.5819 Y45.8337
G01 X20.5000 Y47.5000
G01 X20.5819 Y49.1663
G01 X20.8267 Y50.8165
G01 X21.2320 Y52.4348
G01 X21.7940 Y54.0056
G01 X22.5073 Y55.5137
G01 X23.3650 Y56.9447
G01 X24.3588 Y58.2847
G01 X25.4792 Y59.5208
G01 X26.7153 Y60.6412
G01 X28.0553 Y61.6350
G01 X29.4863 Y62.4927
G01 X30.9944 Y63.2060
G01 X32.5652 Y63.7680
G01 X34.1835 Y64.1733
G01 X35.8337 Y64.4181
G01 X37.5000 Y64.5000
G01 X39.1663 Y64.4181
G01 X40.8165 Y64.1733
G01 X42.4348 Y63.7680
G01 X44.0056 Y63.2060
G01 X45.5137 Y62.4927
G01 X46.9447 Y61.6350
G01 X48.2847 Y60.6412
G01 X49.5208 Y59.5208
G01 X50.6412 Y58.2847
G01 X51.6350 Y56.9447
G01 X52.4927 Y55.5137
G01 X53.2060 Y54.0056
G01 X53.7680 Y52.4348
G01 X54.1733 Y50.8165
G01 X54.4181 Y49.1663
G01 X54.5000 Y47.5000
G01 X56.5000 Y47.5000
G01 X56.4085 Y45.6377
G01 X56.1349 Y43.7933
G01 X55.6819 Y41.9846
G01 X55.0537 Y40.2290
G01 X54.2565 Y38.5435
G01 X53.2979 Y36.9442
G01 X52.1872 Y35.4465
G01 X50.9350 Y34.0650
G01 X49.5535 Y32.8128
G01 X48.0558 Y31.7021
G01 X46.4565 Y30.7435
G01 X44.7710 Y29.9463
G01 X43.0154 Y29.3181
G01 X41.2067 Y28.8651
G01 X39.3623 Y28.5915
G01 X37.5000 Y28.5000
G01 X35.6377 Y28.5915
G01 X33.7933 Y28.8651
G01 X31.9846 Y29.3181
G01 X30.2290 Y29.9463
G01 X28.5435 Y30.7435
G01 X26.9442 Y31.7021
G01 X25.4465 Y32.8128
G01 X24.0650 Y34.0650
G01 X22.8128 Y35.4465
G01 X21.7021 Y36.9442
G01 X20.7435 Y38.5435
G01 X19.9463 Y40.2290
G01 X19.3181 Y41.9846
G01 X18.8651 Y43.7933
G01 X18.5915 Y45.6377
G01 X18.5000 Y47.5000
G01 X18.5915 Y49.3623
G01 X18.8651 Y51.2067
G01 X19.3181 Y53.0154
G01 X19.9463 Y54.7710
G01 X20.7435 Y56.4565
G01 X21.7021 Y58.0558
G01 X22.8128 Y59.5535
G01 X24.0650 Y60.9350
G01 X25.4465 Y62.1872
G01 X26.9442 Y63.2979
G01 X28.5435 Y64.2565
G01 X30.2290 Y65.0537
G01 X31.9846 Y65.6819
G01 X33.7933 Y66.1349
G01 X35.6377 Y66.4085
G01 X37.5000 Y66.5000
G01 X39.3623 Y66.4085
G01 X41.2067 Y66.1349
G01 X43.0154 Y65.6819
G01 X44.7710 Y65.0537
G01 X46.4565 Y64.2565
G01 X48.0558 Y63.2979
G01 X49.5535 Y62.1872
G01 X50.9350 Y60.9350
G01 X52.1872 Y59.5535
G01 X53.2979 Y58.0558
G01 X54.2565 Y56.4565
G01 X55.0537 Y54.7710
G01 X55.6819 Y53.0154
G01 X56.1349 Y51.2067
G01 X56.4085 Y49.3623
G01 X56.5000 Y47.5000
G01 X58.5000 Y47.5000
G01 X58.3989 Y45.4416
G01 X58.0965 Y43.4031
G01 X57.5957 Y41.4040
G01 X56.9015 Y39.4636
G01 X56.0203 Y37.6007
G01 X54.9609 Y35.8330
G01 X53.7332 Y34.1777
G01 X52.3492 Y32.6508
G01 X50.8223 Y31.2668
G01 X49.1670 Y30.0391
G01 X47.3993 Y28.9797
G01 X45.5364 Y28.0985
G01 X43.5960 Y27.4043
G01 X41.5969 Y26.9035
G01 X39.5584 Y26.6011
G01 X37.5000 Y26.5000
G01 X35.4416 Y26.6011
G01 X33.4031 Y26.9035
G01 X31.4040 Y27.4043
G01 X29.4636 Y28.0985
G01 X27.6007 Y28.9797
G01 X25.8330 Y30.0391
G01 X24.1777 Y31.2668
G01 X22.6508 Y32.6508
G01 X21.2668 Y34.1777
G01 X20.0391 Y35.8330
G01 X18.9797 Y37.6007
G01 X18.0985 Y39.4636
G01 X17.4043 Y41.4040
G01 X16.9035 Y43.4031
G01 X16.6011 Y45.4416
G01 X16.5000 Y47.5000
G01 X16.6011 Y49.5584
G01 X16.9035 Y51.5969
G01 X17.4043 Y53.5960
G01 X18.0985 Y55.5364
G01 X18.9797 Y57.3993
G01 X20.0391 Y59.1670
G01 X21.2668 Y60.8223
G01 X22.6508 Y62.3492
G01 X24.1777 Y63.7332
G01 X25.8330 Y64.9609
G01 X27.6007 Y66.0203
G01 X29.4636 Y66.9015
G01 X31.4040 Y67.5957
G01 X33.4031 Y68.0965
G01 X35.4416 Y68.3989
G01 X37.5000 Y68.5000
G01 X39.5584 Y68.3989
G01 X41.5969 Y68.0965
G01 X43.5960 Y67.5957
G01 X45.5364 Y66.9015
G01 X47.3993 Y66.0203
G01 X49.1670 Y64.9609
G01 X50.8223 Y63.7332
G01 X52.3492 Y62.3492
G01 X53.7332 Y60.8223
G01 X54.9609 Y59.1670
G01 X56.0203 Y57.3993
G01 X56.9015 Y55.5364
G01 X57.5957 Y53.5960
G01 X58.0965 Y51.5969
G01 X58.3989 Y49.5584
G01 X58.5000 Y47.5000
G01 X60.5000 Y47.5000
G01 X60.3892 Y45.2456
G01 X60.0581 Y43.0129
G01 X59.5096 Y40.8235
G01 X58.7492 Y38.6983
G01 X57.7842 Y36.6579
G01 X56.6238 Y34.7219
G01 X55.2792 Y32.9090
G01 X53.7635 Y31.2365
G01 X52.0910 Y29.7208
G01 X50.2781 Y28.3762
G01 X48.3421 Y27.2158
G01 X46.3017 Y26.2508
G01 X44.1765 Y25.4904
G01 X41.9871 Y24.9419
G01 X39.7544 Y24.6108
G01 X37.5000 Y24.5000
G01 X35.2456 Y24.6108
G01 X33.0129 Y24.9419
G01 X30.8235 Y25.4904
G01 X28.6983 Y26.2508
G01 X26.6579 Y27.2158
G01 X24.7219 Y28.3762
G01 X22.9090 Y29.7208
G01 X21.2365 Y31.2365
G01 X19.7208 Y32.9090
G01 X18.3762 Y34.7219
G01 X17.2158 Y36.6579
G01 X16.2508 Y38.6983
G01 X15.4904 Y40.8235
G01 X14.9419 Y43.0129
G01 X14.6108 Y45.2456
G01 X14.5000 Y47.5000
G01 X14.6108 Y49.7544
G01 X14.9419 Y51.9871
G01 X15.4904 Y54.1765
G01 X16.2508 Y56.3017
G01 X17.2158 Y58.3421
G01 X18.3762 Y60.2781
G01 X19.7208 Y62.0910
G01 X21.2365 Y63.7635
G01 X22.9090 Y65.2792
G01 X24.7219 Y66.6238
G01 X26.6579 Y67.7842
G01 X28.6983 Y68.7492
G01 X30.8235 Y69.5096
G01 X33.0129 Y70.0581
G01 X35.2456 Y70.3892
G01 X37.5000 Y70.5000
G01 X39.7544 Y70.3892
G01 X41.9871 Y70.0581
G01 X44.1765 Y69.5096
G01 X46.3017 Y68.7492
G01 X48.3421 Y67.7842
G01 X50.2781 Y66.6238
G01 X52.0910 Y65.2792
G01 X53.7635 Y63.7635
G01 X55.2792 Y62.0910
G01 X56.6238 Y60.2781
G01 X57.7842 Y58.3421
G01 X58.7492 Y56.3017
G01 X59.5096 Y54.1765
G01 X60.0581 Y51.9871
G01 X60.3892 Y49.7544
G01 X60.5000 Y47.5000
G00 X60.5000 Y47.5000
G01 F100.00
G01 Z-2.4000
G01 F200.00
G01 X60.3892 Y49.7544
G01 X60.0581 Y51.9871
G01 X59.5096 Y54.1765
G01 X58.7492 Y56.3017
G01 X57.7842 Y58.3421
G01 X56.6238 Y60.2781
G01 X55.2792 Y62.0910
G01 X53.7635 Y63.7635
G01 X52.0910 Y65.2792
G01 X50.2781 Y66.6238
G01 X48.3421 Y67.7842
G01 X46.3017 Y68.7492
G01 X44.1765 Y69.5096
G01 X41.9871 Y70.0581
G01 X39.7544 Y70.3892
G01 X37.5000 Y70.5000
G01 X35.2456 Y70.3892
G01 X33.0129 Y70.0581
G01 X30.8235 Y69.5096
G01 X28.6983 Y68.7492
G01 X26.6579 Y67.7842
G01 X24.7219 Y66.6238
G01 X22.9090 Y65.2792
G01 X21.2365 Y63.7635
G01 X19.7208 Y62.0910
G01 X18.3762 Y60.2781
G01 X17.2158 Y58.3421
G01 X16.2508 Y56.3017
G01 X15.4904 Y54.1765
G01 X14.9419 Y51.9871
G01 X14.6108 Y49.7544
G01 X14.5000 Y47.5000
G01 X14.6108 Y45.2456
G01 X14.9419 Y43.0129
G01 X15.4904 Y40.8235
G01 X16.2508 Y38.6983
G01 X17.2158 Y36.6579
G01 X18.3762 Y34.7219
G01 X19.7208 Y32.9090
G01 X21.2365 Y31.2365
G01 X22.9090 Y29.7208
G01 X24.7219 Y28.3762
G01 X26.6579 Y27.2158
G01 X28.6983 Y26.2508
G01 X30.8235 Y25.4904
G01 X33.0129 Y24.9419
G01 X35.2456 Y24.6108
G01 X37.5000 Y24.5000
G01 X39.7544 Y24.6108
G01 X41.9871 Y24.9419
G01 X44.1765 Y25.4904
G01 X46.3017 Y26.2508
G01 X48.3421 Y27.2158
G01 X50.2781 Y28.3762
G01 X52.0910 Y29.7208
G01 X53.7635 Y31.2365
G01 X55.2792 Y32.9090
G01 X56.6238 Y34.7219
G01 X57.7842 Y36.6579
G01 X58.7492 Y38.6983
G01 X59.5096 Y40.8235
G01 X60.0581 Y43.0129
G01 X60.3892 Y45.2456
G01 X60.5000 Y47.5000
G01 X58.5000 Y47.5000
G01 X58.3989 Y49.5584
G01 X58.0965 Y51.5969
G01 X57.5957 Y53.5960
G01 X56.9015 Y55.5364
G01 X56.0203 Y57.3993
G01 X54.9609 Y59.1670
G01 X53.7332 Y60.8223
G01 X52.3492 Y62.3492
G01 X50.8223 Y63.7332
G01 X49.1670 Y64.9609
G01 X47.3993 Y66.0203
G01 X45.5364 Y66.9015
G01 X43.5960 Y67.5957
G01 X41.5969 Y68.0965
G01 X39.5584 Y68.3989
G01 X37.5000 Y68.5000
G01 X35.4416 Y68.3989
G01 X33.4031 Y68.0965
G01 X31.4040 Y67.5957
G01 X29.4636 Y66.9015
G01 X27.6007 Y66.0203
G01 X25.8330 Y64.9609
G01 X24.1777 Y63.7332
G01 X22.6508 Y62.3492
G01 X21.2668 Y60.8223
G01 X20.0391 Y59.1670
G01 X18.9797 Y57.3993
G01 X18.0985 Y55.5364
G01 X17.4043 Y53.5960
G01 X16.9035 Y51.5969
G01 X16.6011 Y49.5584
G01 X16.5000 Y47.5000
G01 X16.6011 Y45.4416
G01 X16.9035 Y43.4031
G01 X17.4043 Y41.4040
G01 X18.0985 Y39.4636
G01 X18.9797 Y37.6007
G01 X20.0391 Y35.8330
G01 X21.2668 Y34.1777
G01 X22.6508 Y32.6508
G01 X24.1777 Y31.2668
G01 X25.8330 Y30.0391
G01 X27.6007 Y28.9797
G01 X29.4636 Y28.0985
G01 X31.4040 Y27.4043
G01 X33.4031 Y26.9035
G01 X35.4416 Y26.6011
G01 X37.5000 Y26.5000
G01 X39.5584 Y26.6011
G01 X41.5969 Y26.9035
G01 X43.5960 Y27.4043
G01 X45.5364 Y28.0985
G01 X47.3993 Y28.9797
G01 X49.1670 Y30.0391
G01 X50.8223 Y31.2668
G01 X52.3492 Y32.6508
G01 X53.7332 Y34.1777
G01 X54.9609 Y35.8330
G01 X56.0203 Y37.6007
G01 X56.9015 Y39.4636
G01 X57.5957 Y41.4040
G01 X58.0965 Y43.4031
G01 X58.3989 Y45.4416
G01 X58.5000 Y47.5000
G01 X56.5000 Y47.5000
G01 X56.4085 Y49.3623
G01 X56.1349 Y51.2067
G01 X55.6819 Y53.0154
G01 X55.0537 Y54.7710
G01 X54.2565 Y56.4565
G01 X53.2979 Y58.0558
G01 X52.1872 Y59.5535
G01 X50.9350 Y60.9350
G01 X49.5535 Y62.1872
G01 X48.0558 Y63.2979
G01 X46.4565 Y64.2565
G01 X44.7710 Y65.0537
G01 X43.0154 Y65.6819
G01 X41.2067 Y66.1349
G01 X39.3623 Y66.4085
G01 X37.5000 Y66.5000
G01 X35.6377 Y66.4085
G01 X33.7933 Y66.1349
G01 X31.9846 Y65.6819
G01 X30.2290 Y65.0537
G01 X28.5435 Y64.2565
G01 X26.9442 Y63.2979
G01 X25.4465 Y62.1872
G01 X24.0650 Y60.9350
G01 X22.8128 Y59.5535
G01 X21.7021 Y58.0558
G01 X20.7435 Y56.4565
G01 X19.9463 Y54.7710
G01 X19.3181 Y53.0154
G01 X18.8651 Y51.2067
G01 X18.5915 Y49.3623
G01 X18.5000 Y47.5000
G01 X18.5915 Y45.6377
G01 X18.8651 Y43.7933
G01 X19.3181 Y41.9846
G01 X19.9463 Y40.2290
G01 X20.7435 Y38.5435
G01 X21.7021 Y36.9442
G01 X22.8128 Y35.4465
G01 X24.0650 Y34.0650
G01 X25.4465 Y32.8128
G01 X26.9442 Y31.7021
G01 X28.5435 Y30.7435
G01 X30.2290 Y29.9463
G01 X31.9846 Y29.3181
G01 X33.7933 Y28.8651
G01 X35.6377 Y28.5915
G01 X37.5000 Y28.5000
G01 X39.3623 Y28.5915
G01 X41.2067 Y28.8651
G01 X43.0154 Y29.3181
G01 X44.7710 Y29.9463
G01 X46.4565 Y30.7435
G01 X48.0558 Y31.7021
G01 X49.5535 Y32.8128
G01 X50.9350 Y34.0650
G01 X52.1872 Y35.4465
G01 X53.2979 Y36.9442
G01 X54.2565 Y38.5435
G01 X55.0537 Y40.2290
G01 X55.6819 Y41.9846
G01 X56.1349 Y43.7933
G01 X56.4085 Y45.6377
G01 X56.5000 Y47.5000
G01 X54.5000 Y47.5000
G01 X54.4181 Y49.1663
G01 X54.1733 Y50.8165
G01 X53.7680 Y52.4348
G01 X53.2060 Y54.0056
G01 X52.4927 Y55.5137
G01 X51.6350 Y56.9447
G01 X50.6412 Y58.2847
G01 X49.5208 Y59.5208
G01 X48.2847 Y60.6412
G01 X46.9447 Y61.6350
G01 X45.5137 Y62.4927
G01 X44.0056 Y63.2060
G01 X42.4348 Y63.7680
G01 X40.8165 Y64.1733
G01 X39.1663 Y64.4181
G01 X37.5000 Y64.5000
G01 X35.8337 Y64.4181
G01 X34.1835 Y64.1733
G01 X32.5652 Y63.7680
G01 X30.9944 Y63.2060
G01 X29.4863 Y62.4927
G01 X28.0553 Y61.6350
G01 X26.7153 Y60.6412
G01 X25.4792 Y59.5208
G01 X24.3588 Y58.2847
G01 X23.3650 Y56.9447
G01 X22.5073 Y55.5137
G01 X21.7940 Y54.0056
G01 X21.2320 Y52.4348
G01 X20.8267 Y50.8165
G01 X20.5819 Y49.1663
G01 X20.5000 Y47.5000
G01 X20.5819 Y45.8337
G01 X20.8267 Y44.1835
G01 X21.2320 Y42.5652
G01 X21.7940 Y40.9944
G01 X22.5073 Y39.4863
G01 X23.3650 Y38.0553
G01 X24.3588 Y36.7153
G01 X25.4792 Y35.4792
G01 X26.7153 Y34.3588
G01 X28.0553 Y33.3650
G01 X29.4863 Y32.5073
G01 X30.9944 Y31.7940
G01 X32.5652 Y31.2320
G01 X34.1835 Y30.8267
G01 X35.8337 Y30.5819
G01 X37.5000 Y30.5000
G01 X39.1663 Y30.5819
G01 X40.8165 Y30.8267
G01 X42.4348 Y31.2320
G01 X44.0056 Y31.7940
G01 X45.5137 Y32.5073
G01 X46.9447 Y33.3650
G01 X48.2847 Y34.3588
G01 X49.5208 Y35.4792
G01 X50.6412 Y36.7153
G01 X51.6350 Y38.0553
G01 X52.4927 Y39.4863
G01 X53.2060 Y40.9944
G01 X53.7680 Y42.5652
G01 X54.1733 Y44.1835
G01 X54.4181 Y45.8337
G01 X54.5000 Y47.5000
G01 X52.5000 Y47.5000
G01 X52.4278 Y48.9703
G01 X52.2118 Y50.4264
G01 X51.8541 Y51.8543
G01 X51.3582 Y53.2403
G01 X50.7288 Y54.5710
G01 X49.9720 Y55.8336
G01 X49.0952 Y57.0159
G01 X48.1066 Y58.1066
G01 X47.0159 Y59.0952
G01 X45.8336 Y59.9720
G01 X44.5710 Y60.7288
G01 X43.2403 Y61.3582
G01 X41.8543 Y61.8541
G01 X40.4264 Y62.2118
G01 X38.9703 Y62.4278
G01 X37.5000 Y62.5000
G01 X36.0297 Y62.4278
G01 X34.5736 Y62.2118
G01 X33.1457 Y61.8541
G01 X31.7597 Y61.3582
G01 X30.4290 Y60.7288
G01 X29.1664 Y59.9720
G01 X27.9841 Y59.0952
G01 X26.8934 Y58.1066
G01 X25.9048 Y57.0159
G01 X25.0280 Y55.8336
G01 X24.2712 Y54.5710
G01 X23.6418 Y53.2403
G01 X23.1459 Y51.8543
G01 X22.7882 Y50.4264
G01 X22.5722 Y48.9703
G01 X22.5000 Y47.5000
G01 X22.5722 Y46.0297
G01 X22.7882 Y44.5736
G01 X23.1459 Y43.1457
G01 X23.6418 Y41.7597
G01 X24.2712 Y40.4290
G01 X25.0280 Y39.1664
G01 X25.9048 Y37.9841
G01 X26.8934 Y36.8934
G01 X27.9841 Y35.9048
G01 X29.1664 Y35.0280
G01 X30.4290 Y34.2712
G01 X31.7597 Y33.6418
G01 X33.1457 Y33.1459
G01 X34.5736 Y32.7882
G01 X36.0297 Y32.5722
G01 X37.5000 Y32.5000
G01 X38.9703 Y32.5722
G01 X40.4264 Y32.7882
G01 X41.8543 Y33.1459
G01 X43.2403 Y33.6418
G01 X44.5710 Y34.2712
G01 X45.8336 Y35.0280
G01 X47.0159 Y35.9048
G01 X48.1066 Y36.8934
G01 X49.0952 Y37.9841
G01 X49.9720 Y39.1664
G01 X50.7288 Y40.4290
G01 X51.3582 Y41.7597
G01 X51.8541 Y43.1457
G01 X52.2118 Y44.5736
G01 X52.4278 Y46.0297
G01 X52.5000 Y47.5000
G01 X50.5000 Y47.5000
G01 X50.4374 Y48.7742
G01 X50.2502 Y50.0362
G01 X49.9402 Y51.2737
G01 X49.5104 Y52.4749
G01 X48.9650 Y53.6282
G01 X48.3091 Y54.7224
G01 X47.5491 Y55.7471
G01 X46.6924 Y56.6924
G01 X45.7471 Y57.5491
G01 X44.7224 Y58.3091
G01 X43.6282 Y58.9650
G01 X42.4749 Y59.5104
G01 X41.2737 Y59.9402
G01 X40.0362 Y60.2502
G01 X38.7742 Y60.4374
G01 X37.5000 Y60.5000
G01 X36.2258 Y60.4374
G01 X34.9638 Y60.2502
G01 X33.7263 Y59.9402
G01 X32.5251 Y59.5104
G01 X31.3718 Y58.9650
G01 X30.2776 Y58.3091
G01 X29.2529 Y57.5491
G01 X28.3076 Y56.6924
G01 X27.4509 Y55.7471
G01 X26.6909 Y54.7224
G01 X26.0350 Y53.6282
G01 X25.4896 Y52.4749
G01 X25.0598 Y51.2737
G01 X24.7498 Y50.0362
G01 X24.5626 Y48.7742
G01 X24.5000 Y47.5000
G01 X24.5626 Y46.2258
G01 X24.7498 Y44.9638
G01 X25.0598 Y43.7263
G01 X25.4896 Y42.5251
G01 X26.0350 Y41.3718
G01 X26.6909 Y40.2776
G01 X27.4509 Y39.2529
G01 X28.3076 Y38.3076
G01 X29.2529 Y37.4509
G01 X30.2776 Y36.6909
G01 X31.3718 Y36.0350
G01 X32.5251 Y35.4896
G01 X33.7263 Y35.0598
G01 X34.9638 Y34.7498
G01 X36.2258 Y34.5626
G01 X37.5000 Y34.5000
G01 X38.7742 Y34.5626
G01 X40.0362 Y34.7498
G01 X41.2737 Y35.0598
G01 X42.4749 Y35.4896
G01 X43.6282 Y36.0350
G01 X44.7224 Y36.6909
G01 X45.7471 Y37.4509
G01 X46.6924 Y38.3076
G01 X47.5491 Y39.2529
G01 X48.3091 Y40.2776
G01 X48.9650 Y41.3718
G01 X49.5104 Y42.5251
G01 X49.9402 Y43.7263
G01 X50.2502 Y44.9638
G01 X50.4374 Y46.2258
G01 X50.5000 Y47.5000
G01 X48.5000 Y47.5000
G01 X48.4470 Y48.5782
G01 X48.2886 Y49.6460
G01 X48.0263 Y50.6931
G01 X47.6627 Y51.7095
G01 X47.2011 Y52.6854
G01 X46.6462 Y53.6113
G01 X46.0031 Y54.4783
G01 X45.2782 Y55.2782
G01 X44.4783 Y56.0031
G01 X43.6113 Y56.6462
G01 X42.6854 Y57.2011
G01 X41.7095 Y57.6627
G01 X40.6931 Y58.0263
G01 X39.6460 Y58.2886
G01 X38.5782 Y58.4470
G01 X37.5000 Y58.5000
G01 X36.4218 Y58.4470
G01 X35.3540 Y58.2886
G01 X34.3069 Y58.0263
G01 X33.2905 Y57.6627
G01 X32.3146 Y57.2011
G01 X31.3887 Y56.6462
G01 X30.5217 Y56.0031
G01 X29.7218 Y55.2782
G01 X28.9969 Y54.4783
G01 X28.3538 Y53.6113
G01 X27.7989 Y52.6854
G01 X27.3373 Y51.7095
G01 X26.9737 Y50.6931
G01 X26.7114 Y49.6460
G01 X26.5530 Y48.5782
G01 X26.5000 Y47.5000
G01 X26.5530 Y46.4218
G01 X26.7114 Y45.3540
G01 X26.9737 Y44.3069
G01 X27.3373 Y43.2905
G01 X27.7989 Y42.3146
G01 X28.3538 Y41.3887
G01 X28.9969 Y40.5217
G01 X29.7218 Y39.7218
G01 X30.5217 Y38.9969
G01 X31.3887 Y38.3538
G01 X32.3146 Y37.7989
G01 X33.2905 Y37.3373
G01 X34.3069 Y36.9737
G01 X35.3540 Y36.7114
G01 X36.4218 Y36.5530
G01 X37.5000 Y36.5000
G01 X38.5782 Y36.5530
G01 X39.6460 Y36.7114
G01 X40.6931 Y36.9737
G01 X41.7095 Y37.3373
G01 X42.6854 Y37.7989
G01 X43.6113 Y38.3538
G01 X44.4783 Y38.9969
G01 X45.2782 Y39.7218
G01 X46.0031 Y40.5217
G01 X46.6462 Y41.3887
G01 X47.2011 Y42.3146
G01 X47.6627 Y43.2905
G01 X48.0263 Y44.3069
G01 X48.2886 Y45.3540
G01 X48.4470 Y46.4218
G01 X48.5000 Y47.5000
G01 X46.5000 Y47.5000
G01 X46.4567 Y48.3822
G01 X46.3271 Y49.2558
G01 X46.1125 Y50.1126
G01 X45.8149 Y50.9442
G01 X45.4373 Y51.7426
G01 X44.9832 Y52.5001
G01 X44.4571 Y53.2095
G01 X43.8640 Y53.8640
G01 X43.2095 Y54.4571
G01 X42.5001 Y54.9832
G01 X41.7426 Y55.4373
G01 X40.9442 Y55.8149
G01 X40.1126 Y56.1125
G01 X39.2558 Y56.3271
G01 X38.3822 Y56.4567
G01 X37.5000 Y56.5000
G01 X36.6178 Y56.4567
G01 X35.7442 Y56.3271
G01 X34.8874 Y56.1125
G01 X34.0558 Y55.8149
G01 X33.2574 Y55.4373
G01 X32.4999 Y54.9832
G01 X31.7905 Y54.4571
G01 X31.1360 Y53.8640
G01 X30.5429 Y53.2095
G01 X30.0168 Y52.5001
G01 X29.5627 Y51.7426
G01 X29.1851 Y50.9442
G01 X28.8875 Y50.1126
G01 X28.6729 Y49.2558
G01 X28.5433 Y48.3822
G01 X28.5000 Y47.5000
G01 X28.5433 Y46.6178
G01 X28.6729 Y45.7442
G01 X28.8875 Y44.8874
G01 X29.1851 Y44.0558
G01 X29.5627 Y43.2574
G01 X30.0168 Y42.4999
G01 X30.5429 Y41.7905
G01 X31.1360 Y41.1360
G01 X31.7905 Y40.5429
G01 X32.4999 Y40.0168
G01 X33.2574 Y39.5627
G01 X34.0558 Y39.1851
G01 X34.8874 Y38.8875
G01 X35.7442 Y38.6729
G01 X36.6178 Y38.5433
G01 X37.5000 Y38.5000
G01 X38.3822 Y38.5433
G01 X39.2558 Y38.6729
G01 X40.1126 Y38.8875
G01 X40.9442 Y39.1851
G01 X41.7426 Y39.5627
G01 X42.5001 Y40.0168
G01 X43.2095 Y40.5429
G01 X43.8640 Y41.1360
G01 X44.4571 Y41.7905
G01 X44.9832 Y42.4999
G01 X45.4373 Y43.2574
G01 X45.8149 Y44.0558
G01 X46.1125 Y44.8874
G01 X46.3271 Y45.7442
G01 X46.4567 Y46.6178
G01 X46.5000 Y47.5000
G01 X44.5000 Y47.5000
G01 X44.4663 Y48.1861
G01 X44.3655 Y48.8656
G01 X44.1986 Y49.5320
G01 X43.9672 Y50.1788
G01 X43.6734 Y50.7998
G01 X43.3203 Y51.3890
G01 X42.9111 Y51.9408
G01 X42.4497 Y52.4497
G01 X41.9408 Y52.9111
G01 X41.3890 Y53.3203
G01 X40.7998 Y53.6734
G01 X40.1788 Y53.9672
G01 X39.5320 Y54.1986
G01 X38.8656 Y54.3655
G01 X38.1861 Y54.4663
G01 X37.5000 Y54.5000
G01 X36.8139 Y54.4663
G01 X36.1344 Y54.3655
G01 X35.4680 Y54.1986
G01 X34.8212 Y53.9672
G01 X34.2002 Y53.6734
G01 X33.6110 Y53.3203
G01 X33.0592 Y52.9111
G01 X32.5503 Y52.4497
G01 X32.0889 Y51.9408
G01 X31.6797 Y51.3890
G01 X31.3266 Y50.7998
G01 X31.0328 Y50.1788
G01 X30.8014 Y49.5320
G01 X30.6345 Y48.8656
G01 X30.5337 Y48.1861
G01 X30.5000 Y47.5000
G01 X30.5337 Y46.8139
G01 X30.6345 Y46.1344
G01 X30.8014 Y45.4680
G01 X31.0328 Y44.8212
G01 X31.3266 Y44.2002
G01 X31.6797 Y43.6110
G01 X32.0889 Y43.0592
G01 X32.5503 Y42.5503
G01 X33.0592 Y42.0889
G01 X33.6110 Y41.6797
G01 X34.2002 Y41.3266
G01 X34.8212 Y41.0328
G01 X35.4680 Y40.8014
G01 X36.1344 Y40.6345
G01 X36.8139 Y40.5337
G01 X37.5000 Y40.5000
G01 X38.1861 Y40.5337
G01 X38.8656 Y40.6345
G01 X39.5320 Y40.8014
G01 X40.1788 Y41.0328
G01 X40.7998 Y41.3266
G01 X41.3890 Y41.6797
G01 X41.9408 Y42.0889
G01 X42.4497 Y42.5503
G01 X42.9111 Y43.0592
G01 X43.3203 Y43.6110
G01 X43.6734 Y44.2002
G01 X43.9672 Y44.8212
G01 X44.1986 Y45.4680
G01 X44.3655 Y46.1344
G01 X44.4663 Y46.8139
G01 X44.5000 Y47.5000
G01 X42.5000 Y47.5000
G01 X42.4759 Y47.9901
G01 X42.4039 Y48.4755
G01 X42.2847 Y48.9514
G01 X42.1194 Y49.4134
G01 X41.9096 Y49.8570
G01 X41.6573 Y50.2779
G01 X41.3651 Y50.6720
G01 X41.0355 Y51.0355
G01 X40.6720 Y51.3651
G01 X40.2779 Y51.6573
G01 X39.8570 Y51.9096
G01 X39.4134 Y52.1194
G01 X38.9514 Y52.2847
G01 X38.4755 Y52.4039
G01 X37.9901 Y52.4759
G01 X37.5000 Y52.5000
G01 X37.0099 Y52.4759
G01 X36.5245 Y52.4039
G01 X36.0486 Y52.2847
G01 X35.5866 Y52.1194
G01 X35.1430 Y51.9096
G01 X34.7221 Y51.6573
G01 X34.3280 Y51.3651
G01 X33.9645 Y51.0355
G01 X33.6349 Y50.6720
G01 X33.3427 Y50.2779
G01 X33.0904 Y49.8570
G01 X32.8806 Y49.4134
G01 X32.7153 Y48.9514
G01 X32.5961 Y48.4755
G01 X32.5241 Y47.9901
G01 X32.5000 Y47.5000
G01 X32.5241 Y47.0099
G01 X32.5961 Y46.5245
G01 X32.7153 Y46.0486
G01 X32.8806 Y45.5866
G01 X33.0904 Y45.1430
G01 X33.3427 Y44.7221
G01 X33.6349 Y44.3280
G01 X33.9645 Y43.9645
G01 X34.3280 Y43.6349
G01 X34.7221 Y43.3427
G01 X35.1430 Y43.0904
G01 X35.5866 Y42.8806
G01 X36.0486 Y42.7153
G01 X36.5245 Y42.5961
G01 X37.0099 Y42.5241
G01 X37.5000 Y42.5000
G01 X37.9901 Y42.5241
G01 X38.4755 Y42.5961
G01 X38.9514 Y42.7153
G01 X39.4134 Y42.8806
G01 X39.8570 Y43.0904
G01 X40.2779 Y43.3427
G01 X40.6720 Y43.6349
G01 X41.0355 Y43.9645
G01 X41.3651 Y44.3280
G01 X41.6573 Y44.7221
G01 X41.9096 Y45.1430
G01 X42.1194 Y45.5866
G01 X42.2847 Y46.0486
G01 X42.4039 Y46.5245
G01 X42.4759 Y47.0099
G01 X42.5000 Y47.5000
G01 X40.5000 Y47.5000
G01 X40.4856 Y47.7941
G01 X40.4424 Y48.0853
G01 X40.3708 Y48.3709
G01 X40.2716 Y48.6481
G01 X40.1458 Y48.9142
G01 X39.9944 Y49.1667
G01 X39.8190 Y49.4032
G01 X39.6213 Y49.6213
G01 X39.4032 Y49.8190
G01 X39.1667 Y49.9944
G01 X38.9142 Y50.1458
G01 X38.6481 Y50.2716
G01 X38.3709 Y50.3708
G01 X38.0853 Y50.4424
G01 X37.7941 Y50.4856
G01 X37.5000 Y50.5000
G01 X37.2059 Y50.4856
G01 X36.9147 Y50.4424
G01 X36.6291 Y50.3708
G01 X36.3519 Y50.2716
G01 X36.0858 Y50.1458
G01 X35.8333 Y49.9944
G01 X35.5968 Y49.8190
G01 X35.3787 Y49.6213
G01 X35.1810 Y49.4032
G01 X35.0056 Y49.1667
G01 X34.8542 Y48.9142
G01 X34.7284 Y48.6481
G01 X34.6292 Y48.3709
G01 X34.5576 Y48.0853
G01 X34.5144 Y47.7941
G01 X34.5000 Y47.5000
G01 X34.5144 Y47.2059
G01 X34.5576 Y46.9147
G01 X34.6292 Y46.6291
G01 X34.7284 Y46.3519
G01 X34.8542 Y46.0858
G01 X35.0056 Y45.8333
G01 X35.1810 Y45.5968
G01 X35.3787 Y45.3787
G01 X35.5968 Y45.1810
G01 X35.8333 Y45.0056
G01 X36.0858 Y44.8542
G01 X36.3519 Y44.7284
G01 X36.6291 Y44.6292
G01 X36.9147 Y44.5576
G01 X37.2059 Y44.5144
G01 X37.5000 Y44.5000
G01 X37.7941 Y44.5144
G01 X38.0853 Y44.5576
G01 X38.3709 Y44.6292
G01 X38.6481 Y44.7284
G01 X38.9142 Y44.8542
G01 X39.1667 Y45.0056
G01 X39.4032 Y45.1810
G01 X39.6213 Y45.3787
G01 X39.8190 Y45.5968
G01 X39.9944 Y45.8333
G01 X40.1458 Y46.0858
G01 X40.2716 Y46.3519
G01 X40.3708 Y46.6291
G01 X40.4424 Y46.9147
G01 X40.4856 Y47.2059
G01 X40.5000 Y47.5000
G01 X38.5000 Y47.5000
G01 X38.4952 Y47.5980
G01 X38.4808 Y47.6951
G01 X38.4569 Y47.7903
G01 X38.4239 Y47.8827
G01 X38.3819 Y47.9714
G01 X38.3315 Y48.0556
G01 X38.2730 Y48.1344
G01 X38.2071 Y48.2071
G01 X38.1344 Y48.2730
G01 X38.0556 Y48.3315
G01 X37.9714 Y48.3819
G01 X37.8827 Y48.4239
G01 X37.7903 Y48.4569
G01 X37.6951 Y48.4808
G01 X37.5980 Y48.4952
G01 X37.5000 Y48.5000
G01 X37.4020 Y48.4952
G01 X37.3049 Y48.4808
G01 X37.2097 Y48.4569
G01 X37.1173 Y48.4239
G01 X37.0286 Y48.3819
G01 X36.9444 Y48.3315
G01 X36.8656 Y48.2730
G01 X36.7929 Y48.2071
G01 X36.7270 Y48.1344
G01 X36.6685 Y48.0556
G01 X36.6181 Y47.9714
G01 X36.5761 Y47.8827
G01 X36.5431 Y47.7903
G01 X36.5192 Y47.6951
G01 X36.5048 Y47.5980
G01 X36.5000 Y47.5000
G01 X36.5048 Y47.4020
G01 X36.5192 Y47.3049
G01 X36.5431 Y47.2097
G01 X36.5761 Y47.1173
G01 X36.6181 Y47.0286
G01 X36.6685 Y46.9444
G01 X36.7270 Y46.8656
G01 X36.7929 Y46.7929
G01 X36.8656 Y46.7270
G01 X36.9444 Y46.6685
G01 X37.0286 Y46.6181
G01 X37.1173 Y46.5761
G01 X37.2097 Y46.5431
G01 X37.3049 Y46.5192
G01 X37.4020 Y46.5048
G01 X37.5000 Y46.5000
G01 X37.5980 Y46.5048
G01 X37.6951 Y46.5192
G01 X37.7903 Y46.5431
G01 X37.8827 Y46.5761
G01 X37.9714 Y46.6181
G01 X38.0556 Y46.6685
G01 X38.1344 Y46.7270
G01 X38.2071 Y46.7929
G01 X38.2730 Y46.8656
G01 X38.3315 Y46.9444
G01 X38.3819 Y47.0286
G01 X38.4239 Y47.1173
G01 X38.4569 Y47.2097
G01 X38.4808 Y47.3049
G01 X38.4952 Y47.4020
G01 X38.5000 Y47.5000
G00 X38.5000 Y47.5000
G01 F100.00
G01 Z-3.0000
G01 F200.00
G01 X38.4952 Y47.4020
G01 X38.4808 Y47.3049
G01 X38.4569 Y47.2097
G01 X38.4239 Y47.1173
G01 X38.3819 Y47.0286
G01 X38.3315 Y46.9444
G01 X38.2730 Y46.8656
G01 X38.2071 Y46.7929
G01 X38.1344 Y46.7270
G01 X38.0556 Y46.6685
G01 X37.9714 Y46.6181
G01 X37.8827 Y46.5761
G01 X37.7903 Y46.5431
G01 X37.6951 Y46.5192
G01 X37.5980 Y46.5048
G01 X37.5000 Y46.5000
G01 X37.4020 Y46.5048
G01 X37.3049 Y46.5192
G01 X37.2097 Y46.5431
G01 X37.1173 Y46.5761
G01 X37.0286 Y46.6181
G01 X36.9444 Y46.6685
G01 X36.8656 Y46.7270
G01 X36.7929 Y46.7929
G01 X36.7270 Y46.8656
G01 X36.6685 Y46.9444
G01 X36.6181 Y47.0286
G01 X36.5761 Y47.1173
G01 X36.5431 Y47.2097
G01 X36.5192 Y47.3049
G01 X36.5048 Y47.4020
G01 X36.5000 Y47.5000
G01 X36.5048 Y47.5980
G01 X36.5192 Y47.6951
G01 X36.5431 Y47.7903
G01 X36.5761 Y47.8827
G01 X36.6181 Y47.9714
G01 X36.6685 Y48.0556
G01 X36.7270 Y48.1344
G01 X36.7929 Y48.2071
G01 X36.8656 Y48.2730
G01 X36.9444 Y48.3315
G01 X37.0286 Y48.3819
G01 X37.1173 Y48.4239
G01 X37.2097 Y48.4569
G01 X37.3049 Y48.4808
G01 X37.4020 Y48.4952
G01 X37.5000 Y48.5000
G01 X37.5980 Y48.4952
G01 X37.6951 Y48.4808
G01 X37.7903 Y48.4569
G01 X37.8827 Y48.4239
G01 X37.9714 Y48.3819
G01 X38.0556 Y48.3315
G01 X38.1344 Y48.2730
G01 X38.2071 Y48.2071
G01 X38.2730 Y48.1344
G01 X38.3315 Y48.0556
G01 X38.3819 Y47.9714
G01 X38.4239 Y47.8827
G01 X38.4569 Y47.7903
G01 X38.4808 Y47.6951
G01 X38.4952 Y47.5980
G01 X38.5000 Y47.5000
G01 X40.5000 Y47.5000
G01 X40.4856 Y47.2059
G01 X40.4424 Y46.9147
G01 X40.3708 Y46.6291
G01 X40.2716 Y46.3519
G01 X40.1458 Y46.0858
G01 X39.9944 Y45.8333
G01 X39.8190 Y45.5968
G01 X39.6213 Y45.3787
G01 X39.4032 Y45.1810
G01 X39.1667 Y45.0056
G01 X38.9142 Y44.8542
G01 X38.6481 Y44.7284
G01 X38.3709 Y44.6292
G01 X38.0853 Y44.5576
G01 X37.7941 Y44.5144
G01 X37.5000 Y44.5000
G01 X37.2059 Y44.5144
G01 X36.9147 Y44.5576
G01 X36.6291 Y44.6292
G01 X36.3519 Y44.7284
G01 X36.0858 Y44.8542
G01 X35.8333 Y45.0056
G01 X35.5968 Y45.1810
G01 X35.3787 Y45.3787
G01 X35.1810 Y45.5968
G01 X35.0056 Y45.8333
G01 X34.8542 Y46.0858
G01 X34.7284 Y46.3519
G01 X34.6292 Y46.6291
G01 X34.5576 Y46.9147
G01 X34.5144 Y47.2059
G01 X34.5000 Y47.5000
G01 X34.5144 Y47.7941
G01 X34.5576 Y48.0853
G01 X34.6292 Y48.3709
G01 X34.7284 Y48.6481
G01 X34.8542 Y48.9142
G01 X35.0056 Y49.1667
G01 X35.1810 Y49.4032
G01 X35.3787 Y49.6213
G01 X35.5968 Y49.8190
G01 X35.8333 Y49.9944
G01 X36.0858 Y50.1458
G01 X36.3519 Y50.2716
G01 X36.6291 Y50.3708
G01 X36.9147 Y50.4424
G01 X37.2059 Y50.4856
G01 X37.5000 Y50.5000
G01 X37.7941 Y50.4856
G01 X38.0853 Y50.4424
G01 X38.3709 Y50.3708
G01 X38.6481 Y50.2716
G01 X38.9142 Y50.1458
G01 X39.1667 Y49.9944
G01 X39.4032 Y49.8190
G01 X39.6213 Y49.6213
G01 X39.8190 Y49.4032
G01 X39.9944 Y49.1667
G01 X40.1458 Y48.9142
G01 X40.2716 Y48.6481
G01 X40.3708 Y48.3709
G01 X40.4424 Y48.0853
G01 X40.4856 Y47.7941
G01 X40.5000 Y47.5000
G01 X42.5000 Y47.5000
G01 X42.4759 Y47.0099
G01 X42.4039 Y46.5245
G01 X42.2847 Y46.0486
G01 X42.1194 Y45.5866
G01 X41.9096 Y45.1430
G01 X41.6573 Y44.7221
G01 X41.3651 Y44.3280
G01 X41.0355 Y43.9645
G01 X40.6720 Y43.6349
G01 X40.2779 Y43.3427
G01 X39.8570 Y43.0904
G01 X39.4134 Y42.8806
G01 X38.9514 Y42.7153
G01 X38.4755 Y42.5961
G01 X37.9901 Y42.5241
G01 X37.5000 Y42.5000
G01 X37.0099 Y42.5241
G01 X36.5245 Y42.5961
G01 X36.0486 Y42.7153
G01 X35.5866 Y42.8806
G01 X35.1430 Y43.0904
G01 X34.7221 Y43.3427
G01 X34.3280 Y43.6349
G01 X33.9645 Y43.9645
G01 X33.6349 Y44.3280
G01 X33.3427 Y44.7221
G01 X33.0904 Y45.1430
G01 X32.8806 Y45.5866
G01 X32.7153 Y46.0486
G01 X32.5961 Y46.5245
G01 X32.5241 Y47.0099
G01 X32.5000 Y47.5000
G01 X32.5241 Y47.9901
G01 X32.5961 Y48.4755
G01 X32.7153 Y48.9514
G01 X32.8806 Y49.4134
G01 X33.0904 Y49.8570
G01 X33.3427 Y50.2779
G01 X33.6349 Y50.6720
G01 X33.9645 Y51.0355
G01 X34.3280 Y51.3651
G01 X34.7221 Y51.6573
G01 X35.1430 Y51.9096
G01 X35.5866 Y52.1194
G01 X36.0486 Y52.2847
G01 X36.5245 Y52.4039
G01 X37.0099 Y52.4759
G01 X37.5000 Y52.5000
G01 X37.9901 Y52.4759
G01 X38.4755 Y52.4039
G01 X38.9514 Y52.2847
G01 X39.4134 Y52.1194
G01 X39.8570 Y51.9096
G01 X40.2779 Y51.6573
G01 X40.6720 Y51.3651
G01 X41.0355 Y51.0355
G01 X41.3651 Y50.6720
G01 X41.6573 Y50.2779
G01 X41.9096 Y49.8570
G01 X42.1194 Y49.4134
G01 X42.2847 Y48.9514
G01 X42.4039 Y48.4755
G01 X42.4759 Y47.9901
G01 X42.5000 Y47.5000
G01 X44.5000 Y47.5000
G01 X44.4663 Y46.8139
G01 X44.3655 Y46.1344
G01 X44.1986 Y45.4680
G01 X43.9672 Y44.8212
G01 X43.6734 Y44.2002
G01 X43.3203 Y43.6110
G01 X42.9111 Y43.0592
G01 X42.4497 Y42.5503
G01 X41.9408 Y42.0889
G01 X41.3890 Y41.6797
G01 X40.7998 Y41.3266
G01 X40.1788 Y41.0328
G01 X39.5320 Y40.8014
G01 X38.8656 Y40.6345
G01 X38.1861 Y40.5337
G01 X37.5000 Y40.5000
G01 X36.8139 Y40.5337
G01 X36.1344 Y40.6345
G01 X35.4680 Y40.8014
G01 X34.8212 Y41.0328
G01 X34.2002 Y41.3266
G01 X33.6110 Y41.6797
G01 X33.0592 Y42.0889
G01 X32.5503 Y42.5503
G01 X32.0889 Y43.0592
G01 X31.6797 Y43.6110
G01 X31.3266 Y44.2002
G01 X31.0328 Y44.8212
G01 X30.8014 Y45.4680
G01 X30.6345 Y46.1344
G01 X30.5337 Y46.8139
G01 X30.5000 Y47.5000
G01 X30.5337 Y48.1861
G01 X30.6345 Y48.8656
G01 X30.8014 Y49.5320
G01 X31.0328 Y50.1788
G01 X31.3266 Y50.7998
G01 X31.6797 Y51.3890
G01 X32.0889 Y51.9408
G01 X32.5503 Y52.4497
G01 X33.0592 Y52.9111
G01 X33.6110 Y53.3203
G01 X34.2002 Y53.6734
G01 X34.8212 Y53.9672
G01 X35.4680 Y54.1986
G01 X36.1344 Y54.3655
G01 X36.8139 Y54.4663
G01 X37.5000 Y54.5000
G01 X38.1861 Y54.4663
G01 X38.8656 Y54.3655
G01 X39.5320 Y54.1986
G01 X40.1788 Y53.9672
G01 X40.7998 Y53.6734
G01 X41.3890 Y53.3203
G01 X41.9408 Y52.9111
G01 X42.4497 Y52.4497
G01 X42.9111 Y51.9408
G01 X43.3203 Y51.3890
G01 X43.6734 Y50.7998
G01 X43.9672 Y50.1788
G01 X44.1986 Y49.5320
G01 X44.3655 Y48.8656
G01 X44.4663 Y48.1861
G01 X44.5000 Y47.5000
G01 X46.5000 Y47.5000
G01 X46.4567 Y46.6178
G01 X46.3271 Y45.7442
G01 X46.1125 Y44.8874
G01 X45.8149 Y44.0558
G01 X45.4373 Y43.2574
G01 X44.9832 Y42.4999
G01 X44.4571 Y41.7905
G01 X43.8640 Y41.1360
G01 X43.2095 Y40.5429
G01 X42.5001 Y40.0168
G01 X41.7426 Y39.5627
G01 X40.9442 Y39.1851
G01 X40.1126 Y38.8875
G01 X39.2558 Y38.6729
G01 X38.3822 Y38.5433
G01 X37.5000 Y38.5000
G01 X36.6178 Y38.5433
G01 X35.7442 Y38.6729
G01 X34.8874 Y38.8875
G01 X34.0558 Y39.1851
G01 X33.2574 Y39.5627
G01 X32.4999 Y40.0168
G01 X31.7905 Y40.5429
G01 X31.1360 Y41.1360
G01 X30.5429 Y41.7905
G01 X30.0168 Y42.4999
G01 X29.5627 Y43.2574
G01 X29.1851 Y44.0558
G01 X28.8875 Y44.8874
G01 X28.6729 Y45.7442
G01 X28.5433 Y46.6178
G01 X28.5000 Y47.5000
G01 X28.5433 Y48.3822
G01 X28.6729 Y49.2558
G01 X28.8875 Y50.1126
G01 X29.1851 Y50.9442
G01 X29.5627 Y51.7426
G01 X30.0168 Y52.5001
G01 X30.5429 Y53.2095
G01 X31.1360 Y53.8640
G01 X31.7905 Y54.4571
G01 X32.4999 Y54.9832
G01 X33.2574 Y55.4373
G01 X34.0558 Y55.8149
G01 X34.8874 Y56.1125
G01 X35.7442 Y56.3271
G01 X36.6178 Y56.4567
G01 X37.5000 Y56.5000
G01 X38.3822 Y56.4567
G01 X39.2558 Y56.3271
G01 X40.1126 Y56.1125
G01 X40.9442 Y55.8149
G01 X41.7426 Y55.4373
G01 X42.5001 Y54.9832
G01 X43.2095 Y54.4571
G01 X43.8640 Y53.8640
G01 X44.4571 Y53.2095
G01 X44.9832 Y52.5001
G01 X45.4373 Y51.7426
G01 X45.8149 Y50.9442
G01 X46.1125 Y50.1126
G01 X46.3271 Y49.2558
G01 X46.4567 Y48.3822
G01 X46.5000 Y47.5000
G01 X48.5000 Y47.5000
G01 X48.4470 Y46.4218
G01 X48.2886 Y45.3540
G01 X48.0263 Y44.3069
G01 X47.6627 Y43.2905
G01 X47.2011 Y42.3146
G01 X46.6462 Y41.3887
G01 X46.0031 Y40.5217
G01 X45.2782 Y39.7218
G01 X44.4783 Y38.9969
G01 X43.6113 Y38.3538
G01 X42.6854 Y37.7989
G01 X41.7095 Y37.3373
G01 X40.6931 Y36.9737
G01 X39.6460 Y36.7114
G01 X38.5782 Y36.5530
G01 X37.5000 Y36.5000
G01 X36.4218 Y36.5530
G01 X35.3540 Y36.7114
G01 X34.3069 Y36.9737
G01 X33.2905 Y37.3373
G01 X32.3146 Y37.7989
G01 X31.3887 Y38.3538
G01 X30.5217 Y38.9969
G01 X29.7218 Y39.7218
G01 X28.9969 Y40.5217
G01 X28.3538 Y41.3887
G01 X27.7989 Y42.3146
G01 X27.3373 Y43.2905
G01 X26.9737 Y44.3069
G01 X26.7114 Y45.3540
G01 X26.5530 Y46.4218
G01 X26.5000 Y47.5000
G01 X26.5530 Y48.5782
G01 X26.7114 Y49.6460
G01 X26.9737 Y50.6931
G01 X27.3373 Y51.7095
G01 X27.7989 Y52.6854
G01 X28.3538 Y53.6113
G01 X28.9969 Y54.4783
G01 X29.7218 Y55.2782
G01 X30.5217 Y56.0031
G01 X31.3887 Y56.6462
G01 X32.3146 Y57.2011
G01 X33.2905 Y57.6627
G01 X34.3069 Y58.0263
G01 X35.3540 Y58.2886
G01 X36.4218 Y58.4470
G01 X37.5000 Y58.5000
G01 X38.5782 Y58.4470
G01 X39.6460 Y58.2886
G01 X40.6931 Y58.0263
G01 X41.7095 Y57.6627
G01 X42.6854 Y57.2011
G01 X43.6113 Y56.6462
G01 X44.4783 Y56.0031
G01 X45.2782 Y55.2782
G01 X46.0031 Y54.4783
G01 X46.6462 Y53.6113
G01 X47.2011 Y52.6854
G01 X47.6627 Y51.7095
G01 X48.0263 Y50.6931
G01 X48.2886 Y49.6460
G01 X48.4470 Y48.5782
G01 X48.5000 Y47.5000
G01 X50.5000 Y47.5000
G01 X50.4374 Y46.2258
G01 X50.2502 Y44.9638
G01 X49.9402 Y43.7263
G01 X49.5104 Y42.5251
G01 X48.9650 Y41.3718
G01 X48.3091 Y40.2776
G01 X47.5491 Y39.2529
G01 X46.6924 Y38.3076
G01 X45.7471 Y37.4509
G01 X44.7224 Y36.6909
G01 X43.6282 Y36.0350
G01 X42.4749 Y35.4896
G01 X41.2737 Y35.0598
G01 X40.0362 Y34.7498
G01 X38.7742 Y34.5626
G01 X37.5000 Y34.5000
G01 X36.2258 Y34.5626
G01 X34.9638 Y34.7498
G01 X33.7263 Y35.0598
G01 X32.5251 Y35.4896
G01 X31.3718 Y36.0350
G01 X30.2776 Y36.6909
G01 X29.2529 Y37.4509
G01 X28.3076 Y38.3076
G01 X27.4509 Y39.2529
G01 X26.6909 Y40.2776
G01 X26.0350 Y41.3718
G01 X25.4896 Y42.5251
G01 X25.0598 Y43.7263
G01 X24.7498 Y44.9638
G01 X24.5626 Y46.2258
G01 X24.5000 Y47.5000
G01 X24.5626 Y48.7742
G01 X24.7498 Y50.0362
G01 X25.0598 Y51.2737
G01 X25.4896 Y52.4749
G01 X26.0350 Y53.6282
G01 X26.6909 Y54.7224
G01 X27.4509 Y55.7471
G01 X28.3076 Y56.6924
G01 X29.2529 Y57.5491
G01 X30.2776 Y58.3091
G01 X31.3718 Y58.9650
G01 X32.5251 Y59.5104
G01 X33.7263 Y59.9402
G01 X34.9638 Y60.2502
G01 X36.2258 Y60.4374
G01 X37.5000 Y60.5000
G01 X38.7742 Y60.4374
G01 X40.0362 Y60.2502
G01 X41.2737 Y59.9402
G01 X42.4749 Y59.5104
G01 X43.6282 Y58.9650
G01 X44.7224 Y58.3091
G01 X45.7471 Y57.5491
G01 X46.6924 Y56.6924
G01 X47.5491 Y55.7471
G01 X48.3091 Y54.7224
G01 X48.9650 Y53.6282
G01 X49.5104 Y52.4749
G01 X49.9402 Y51.2737
G01 X50.2502 Y50.0362
G01 X50.4374 Y48.7742
G01 X50.5000 Y47.5000
G01 X52.5000 Y47.5000
G01 X52.4278 Y46.0297
G01 X52.2118 Y44.5736
G01 X51.8541 Y43.1457
G01 X51.3582 Y41.7597
G01 X50.7288 Y40.4290
G01 X49.9720 Y39.1664
G01 X49.0952 Y37.9841
G01 X48.1066 Y36.8934
G01 X47.0159 Y35.9048
G01 X45.8336 Y35.0280
G01 X44.5710 Y34.2712
G01 X43.2403 Y33.6418
G01 X41.8543 Y33.1459
G01 X40.4264 Y32.7882
G01 X38.9703 Y32.5722
G01 X37.5000 Y32.5000
G01 X36.0297 Y32.5722
G01 X34.5736 Y32.7882
G01 X33.1457 Y33.1459
G01 X31.7597 Y33.6418
G01 X30.4290 Y34.2712
G01 X29.1664 Y35.0280
G01 X27.9841 Y35.9048
G01 X26.8934 Y36.8934
G01 X25.9048 Y37.9841
G01 X25.0280 Y39.1664
G01 X24.2712 Y40.4290
G01 X23.6418 Y41.7597
G01 X23.1459 Y43.1457
G01 X22.7882 Y44.5736
G01 X22.5722 Y46.0297
G01 X22.5000 Y47.5000
G01 X22.5722 Y48.9703
G01 X22.7882 Y50.4264
G01 X23.1459 Y51.8543
G01 X23.6418 Y53.2403
G01 X24.2712 Y54.5710
G01 X25.0280 Y55.8336
G01 X25.9048 Y57.0159
G01 X26.8934 Y58.1066
G01 X27.9841 Y59.0952
G01 X29.1664 Y59.9720
G01 X30.4290 Y60.7288
G01 X31.7597 Y61.3582
G01 X33.1457 Y61.8541
G01 X34.5736 Y62.2118
G01 X36.0297 Y62.4278
G01 X37.5000 Y62.5000
G01 X38.9703 Y62.4278
G01 X40.4264 Y62.2118
G01 X41.8543 Y61.8541
G01 X43.2403 Y61.3582
G01 X44.5710 Y60.7288
G01 X45.8336 Y59.9720
G01 X47.0159 Y59.0952
G01 X48.1066 Y58.1066
G01 X49.0952 Y57.0159
G01 X49.9720 Y55.8336
G01 X50.7288 Y54.5710
G01 X51.3582 Y53.2403
G01 X51.8541 Y51.8543
G01 X52.2118 Y50.4264
G01 X52.4278 Y48.9703
G01 X52.5000 Y47.5000
G01 X54.5000 Y47.5000
G01 X54.4181 Y45.8337
G01 X54.1733 Y44.1835
G01 X53.7680 Y42.5652
G01 X53.2060 Y40.9944
G01 X52.4927 Y39.4863
G01 X51.6350 Y38.0553
G01 X50.6412 Y36.7153
G01 X49.5208 Y35.4792
G01 X48.2847 Y34.3588
G01 X46.9447 Y33.3650
G01 X45.5137 Y32.5073
G01 X44.0056 Y31.7940
G01 X42.4348 Y31.2320
G01 X40.8165 Y30.8267
G01 X39.1663 Y30.5819
G01 X37.5000 Y30.5000
G01 X35.8337 Y30.5819
G01 X34.1835 Y30.8267
G01 X32.5652 Y31.2320
G01 X30.9944 Y31.7940
G01 X29.4863 Y32.5073
G01 X28.0553 Y33.3650
G01 X26.7153 Y34.3588
G01 X25.4792 Y35.4792
G01 X24.3588 Y36.7153
G01 X23.3650 Y38.0553
G01 X22.5073 Y39.4863
G01 X21.7940 Y40.9944
G01 X21.2320 Y42.5652
G01 X20.8267 Y44.1835
G01 X20.5819 Y45.8337
G01 X20.5000 Y47.5000
G01 X20.5819 Y49.1663
G01 X20.8267 Y50.8165
G01 X21.2320 Y52.4348
G01 X21.7940 Y54.0056
G01 X22.5073 Y55.5137
G01 X23.3650 Y56.9447
G01 X24.3588 Y58.2847
G01 X25.4792 Y59.5208
G01 X26.7153 Y60.6412
G01 X28.0553 Y61.6350
G01 X29.4863 Y62.4927
G01 X30.9944 Y63.2060
G01 X32.5652 Y63.7680
G01 X34.1835 Y64.1733
G01 X35.8337 Y64.4181
G01 X37.5000 Y64.5000
G01 X39.1663 Y64.4181
G01 X40.8165 Y64.1733
G01 X42.4348 Y63.7680
G01 X44.0056 Y63.2060
G01 X45.5137 Y62.4927
G01 X46.9447 Y61.6350
G01 X48.2847 Y60.6412
G01 X49.5208 Y59.5208
G01 X50.6412 Y58.2847
G01 X51.6350 Y56.9447
G01 X52.4927 Y55.5137
G01 X53.2060 Y54.0056
G01 X53.7680 Y52.4348
G01 X54.1733 Y50.8165
G01 X54.4181 Y49.1663
G01 X54.5000 Y47.5000
G01 X56.5000 Y47.5000
G01 X56.4085 Y45.6377
G01 X56.1349 Y43.7933
G01 X55.6819 Y41.9846
G01 X55.0537 Y40.2290
G01 X54.2565 Y38.5435
G01 X53.2979 Y36.9442
G01 X52.1872 Y35.4465
G01 X50.9350 Y34.0650
G01 X49.5535 Y32.8128
G01 X48.0558 Y31.7021
G01 X46.4565 Y30.7435
G01 X44.7710 Y29.9463
G01 X43.0154 Y29.3181
G01 X41.2067 Y28.8651
G01 X39.3623 Y28.5915
G01 X37.5000 Y28.5000
G01 X35.6377 Y28.5915
G01 X33.7933 Y28.8651
G01 X31.9846 Y29.3181
G01 X30.2290 Y29.9463
G01 X28.5435 Y30.7435
G01 X26.9442 Y31.7021
G01 X25.4465 Y32.8128
G01 X24.0650 Y34.0650
G01 X22.8128 Y35.4465
G01 X21.7021 Y36.9442
G01 X20.7435 Y38.5435
G01 X19.9463 Y40.2290
G01 X19.3181 Y41.9846
G01 X18.8651 Y43.7933
G01 X18.5915 Y45.6377
G01 X18.5000 Y47.5000
G01 X18.5915 Y49.3623
G01 X18.8651 Y51.2067
G01 X19.3181 Y53.0154
G01 X19.9463 Y54.7710
G01 X20.7435 Y56.4565
G01 X21.7021 Y58.0558
G01 X22.8128 Y59.5535
G01 X24.0650 Y60.9350
G01 X25.4465 Y62.1872
G01 X26.9442 Y63.2979
G01 X28.5435 Y64.2565
G01 X30.2290 Y65.0537
G01 X31.9846 Y65.6819
G01 X33.7933 Y66.1349
G01 X35.6377 Y66.4085
G01 X37.5000 Y66.5000
G01 X39.3623 Y66.4085
G01 X41.2067 Y66.1349
G01 X43.0154 Y65.6819
G01 X44.7710 Y65.0537
G01 X46.4565 Y64.2565
G01 X48.0558 Y63.2979
G01 X49.5535 Y62.1872
G01 X50.9350 Y60.9350
G01 X52.1872 Y59.5535
G01 X53.2979 Y58.0558
G01 X54.2565 Y56.4565
G01 X55.0537 Y54.7710
G01 X55.6819 Y53.0154
G01 X56.1349 Y51.2067
G01 X56.4085 Y49.3623
G01 X56.5000 Y47.5000
G01 X58.5000 Y47.5000
G01 X58.3989 Y45.4416
G01 X58.0965 Y43.4031
G01 X57.5957 Y41.4040
G01 X56.9015 Y39.4636
G01 X56.0203 Y37.6007
G01 X54.9609 Y35.8330
G01 X53.7332 Y34.1777
G01 X52.3492 Y32.6508
G01 X50.8223 Y31.2668
G01 X49.1670 Y30.0391
G01 X47.3993 Y28.9797
G01 X45.5364 Y28.0985
G01 X43.5960 Y27.4043
G01 X41.5969 Y26.9035
G01 X39.5584 Y26.6011
G01 X37.5000 Y26.5000
G01 X35.4416 Y26.6011
G01 X33.4031 Y26.9035
G01 X31.4040 Y27.4043
G01 X29.4636 Y28.0985
G01 X27.6007 Y28.9797
G01 X25.8330 Y30.0391
G01 X24.1777 Y31.2668
G01 X22.6508 Y32.6508
G01 X21.2668 Y34.1777
G01 X20.0391 Y35.8330
G01 X18.9797 Y37.6007
G01 X18.0985 Y39.4636
G01 X17.4043 Y41.4040
G01 X16.9035 Y43.4031
G01 X16.6011 Y45.4416
G01 X16.5000 Y47.5000
G01 X16.6011 Y49.5584
G01 X16.9035 Y51.5969
G01 X17.4043 Y53.5960
G01 X18.0985 Y55.5364
G01 X18.9797 Y57.3993
G01 X20.0391 Y59.1670
G01 X21.2668 Y60.8223
G01 X22.6508 Y62.3492
G01 X24.1777 Y63.7332
G01 X25.8330 Y64.9609
G01 X27.6007 Y66.0203
G01 X29.4636 Y66.9015
G01 X31.4040 Y67.5957
G01 X33.4031 Y68.0965
G01 X35.4416 Y68.3989
G01 X37.5000 Y68.5000
G01 X39.5584 Y68.3989
G01 X41.5969 Y68.0965
G01 X43.5960 Y67.5957
G01 X45.5364 Y66.9015
G01 X47.3993 Y66.0203
G01 X49.1670 Y64.9609
G01 X50.8223 Y63.7332
G01 X52.3492 Y62.3492
G01 X53.7332 Y60.8223
G01 X54.9609 Y59.1670
G01 X56.0203 Y57.3993
G01 X56.9015 Y55.5364
G01 X57.5957 Y53.5960
G01 X58.0965 Y51.5969
G01 X58.3989 Y49.5584
G01 X58.5000 Y47.5000
G01 X60.5000 Y47.5000
G01 X60.3892 Y45.2456
G01 X60.0581 Y43.0129
G01 X59.5096 Y40.8235
G01 X58.7492 Y38.6983
G01 X57.7842 Y36.6579
G01 X56.6238 Y34.7219
G01 X55.2792 Y32.9090
G01 X53.7635 Y31.2365
G01 X52.0910 Y29.7208
G01 X50.2781 Y28.3762
G01 X48.3421 Y27.2158
G01 X46.3017 Y26.2508
G01 X44.1765 Y25.4904
G01 X41.9871 Y24.9419
G01 X39.7544 Y24.6108
G01 X37.5000 Y24.5000
G01 X35.2456 Y24.6108
G01 X33.0129 Y24.9419
G01 X30.8235 Y25.4904
G01 X28.6983 Y26.2508
G01 X26.6579 Y27.2158
G01 X24.7219 Y28.3762
G01 X22.9090 Y29.7208
G01 X21.2365 Y31.2365
G01 X19.7208 Y32.9090
G01 X18.3762 Y34.7219
G01 X17.2158 Y36.6579
G01 X16.2508 Y38.6983
G01 X15.4904 Y40.8235
G01 X14.9419 Y43.0129
G01 X14.6108 Y45.2456
G01 X14.5000 Y47.5000
G01 X14.6108 Y49.7544
G01 X14.9419 Y51.9871
G01 X15.4904 Y54.1765
G01 X16.2508 Y56.3017
G01 X17.2158 Y58.3421
G01 X18.3762 Y60.2781
G01 X19.7208 Y62.0910
G01 X21.2365 Y63.7635
G01 X22.9090 Y65.2792
G01 X24.7219 Y66.6238
G01 X26.6579 Y67.7842
G01 X28.6983 Y68.7492
G01 X30.8235 Y69.5096
G01 X33.0129 Y70.0581
G01 X35.2456 Y70.3892
G01 X37.5000 Y70.5000
G01 X39.7544 Y70.3892
G01 X41.9871 Y70.0581
G01 X44.1765 Y69.5096
G01 X46.3017 Y68.7492
G01 X48.3421 Y67.7842
G01 X50.2781 Y66.6238
G01 X52.0910 Y65.2792
G01 X53.7635 Y63.7635
G01 X55.2792 Y62.0910
G01 X56.6238 Y60.2781
G01 X57.7842 Y58.3421
G01 X58.7492 Y56.3017
G01 X59.5096 Y54.1765
G01 X60.0581 Y51.9871
G01 X60.3892 Y49.7544
G01 X60.5000 Y47.5000
G00 Z2.0000
M05
G00 Z2.0000
G00 Z5.00
G00 X0.0 Y0.0

