(G-CODE GENERATED BY FLATCAM v8.991 - www.flatcam.org - Version Date: 2019/12/27)

(Name: GrandCercle_ncc_cnc)
(Type: G-code from Geometry)
(Units: MM)

(Created on Saturday, 28 September 2024 at 12:56)

(TOOL DIAMETER: 2.0 mm)
(Feedrate: 200.0 mm/min)
(Feedrate_Z: 100.0 mm/min)
(Feedrate rapids 1500.0 mm/min)

(Z_Cut: -3.0 mm)
(DepthPerCut: 0.4 mm <=>8 passes)
(Z_Move: 2.0 mm)
(Z Toolchange: 15.0 mm)
(X,Y Toolchange: 0.00, 0.00 mm)
(Z Start: None mm)
(Z End: 5.0 mm)
(Steps per circle: 64)
(Preprocessor Geometry: default)

(X range:   15.0281 ...   59.9719  mm)
(Y range:   25.0281 ...   69.9719  mm)

(Spindle Speed: None RPM)
G21
G90
G94




G01 F200.00
G00 Z2.0000

M03
G00 X15.0281 Y47.5000
G01 F100.00
G01 Z-0.4000
G01 F200.00
G01 X15.1363 Y49.7026
G01 X15.4599 Y51.8841
G01 X15.9957 Y54.0233
G01 X16.7386 Y56.0996
G01 X17.6815 Y58.0932
G01 X18.8153 Y59.9847
G01 X20.1290 Y61.7560
G01 X21.6099 Y63.3901
G01 X23.2440 Y64.8710
G01 X25.0153 Y66.1847
G01 X26.9068 Y67.3185
G01 X28.9004 Y68.2614
G01 X30.9767 Y69.0043
G01 X33.1159 Y69.5401
G01 X35.2974 Y69.8637
G01 X37.5000 Y69.9719
G01 X39.7026 Y69.8637
G01 X41.8841 Y69.5401
G01 X44.0233 Y69.0043
G01 X46.0996 Y68.2614
G01 X48.0932 Y67.3185
G01 X49.9847 Y66.1847
G01 X51.7560 Y64.8710
G01 X53.3901 Y63.3901
G01 X54.8710 Y61.7560
G01 X56.1847 Y59.9847
G01 X57.3185 Y58.0932
G01 X58.2614 Y56.0996
G01 X59.0043 Y54.0233
G01 X59.5401 Y51.8841
G01 X59.8637 Y49.7026
G01 X59.9719 Y47.5000
G01 X59.8637 Y45.2974
G01 X59.5401 Y43.1159
G01 X59.0043 Y40.9767
G01 X58.2614 Y38.9004
G01 X57.3185 Y36.9068
G01 X56.1847 Y35.0153
G01 X54.8710 Y33.2440
G01 X53.3901 Y31.6099
G01 X51.7560 Y30.1290
G01 X49.9847 Y28.8153
G01 X48.0932 Y27.6815
G01 X46.0996 Y26.7386
G01 X44.0233 Y25.9957
G01 X41.8841 Y25.4599
G01 X39.7026 Y25.1363
G01 X37.5000 Y25.0281
G01 X35.2974 Y25.1363
G01 X33.1159 Y25.4599
G01 X30.9767 Y25.9957
G01 X28.9004 Y26.7386
G01 X26.9068 Y27.6815
G01 X25.0153 Y28.8153
G01 X23.2440 Y30.1290
G01 X21.6099 Y31.6099
G01 X20.1290 Y33.2440
G01 X18.8153 Y35.0153
G01 X17.6815 Y36.9068
G01 X16.7386 Y38.9004
G01 X15.9957 Y40.9767
G01 X15.4599 Y43.1159
G01 X15.1363 Y45.2974
G01 X15.0281 Y47.5000
G01 X16.2295 Y47.5000
G01 X16.3319 Y49.5849
G01 X16.6382 Y51.6497
G01 X17.1454 Y53.6745
G01 X17.8486 Y55.6399
G01 X18.7411 Y57.5268
G01 X19.8142 Y59.3173
G01 X21.0577 Y60.9939
G01 X22.4595 Y62.5405
G01 X24.0061 Y63.9423
G01 X25.6827 Y65.1858
G01 X27.4732 Y66.2589
G01 X29.3601 Y67.1514
G01 X31.3255 Y67.8546
G01 X33.3503 Y68.3618
G01 X35.4151 Y68.6681
G01 X37.5000 Y68.7705
G01 X39.5849 Y68.6681
G01 X41.6497 Y68.3618
G01 X43.6745 Y67.8546
G01 X45.6399 Y67.1514
G01 X47.5268 Y66.2589
G01 X49.3173 Y65.1858
G01 X50.9939 Y63.9423
G01 X52.5405 Y62.5405
G01 X53.9423 Y60.9939
G01 X55.1858 Y59.3173
G01 X56.2589 Y57.5268
G01 X57.1514 Y55.6399
G01 X57.8546 Y53.6745
G01 X58.3618 Y51.6497
G01 X58.6681 Y49.5849
G01 X58.7705 Y47.5000
G01 X58.6681 Y45.4151
G01 X58.3618 Y43.3503
G01 X57.8546 Y41.3255
G01 X57.1514 Y39.3601
G01 X56.2589 Y37.4732
G01 X55.1858 Y35.6827
G01 X53.9423 Y34.0061
G01 X52.5405 Y32.4595
G01 X50.9939 Y31.0577
G01 X49.3173 Y29.8142
G01 X47.5268 Y28.7411
G01 X45.6399 Y27.8486
G01 X43.6745 Y27.1454
G01 X41.6497 Y26.6382
G01 X39.5849 Y26.3319
G01 X37.5000 Y26.2295
G01 X35.4151 Y26.3319
G01 X33.3503 Y26.6382
G01 X31.3255 Y27.1454
G01 X29.3601 Y27.8486
G01 X27.4732 Y28.7411
G01 X25.6827 Y29.8142
G01 X24.0061 Y31.0577
G01 X22.4595 Y32.4595
G01 X21.0577 Y34.0061
G01 X19.8142 Y35.6827
G01 X18.7411 Y37.4732
G01 X17.8486 Y39.3601
G01 X17.1454 Y41.3255
G01 X16.6382 Y43.3503
G01 X16.3319 Y45.4151
G01 X16.2295 Y47.5000
G01 X17.4310 Y47.5000
G01 X17.5276 Y49.4671
G01 X17.8166 Y51.4153
G01 X18.2951 Y53.3257
G01 X18.9586 Y55.1801
G01 X19.8007 Y56.9605
G01 X20.8132 Y58.6498
G01 X21.9864 Y60.2317
G01 X23.3090 Y61.6910
G01 X24.7683 Y63.0136
G01 X26.3502 Y64.1868
G01 X28.0395 Y65.1993
G01 X29.8199 Y66.0414
G01 X31.6743 Y66.7049
G01 X33.5847 Y67.1834
G01 X35.5329 Y67.4724
G01 X37.5000 Y67.5690
G01 X39.4671 Y67.4724
G01 X41.4153 Y67.1834
G01 X43.3257 Y66.7049
G01 X45.1801 Y66.0414
G01 X46.9605 Y65.1993
G01 X48.6498 Y64.1868
G01 X50.2317 Y63.0136
G01 X51.6910 Y61.6910
G01 X53.0136 Y60.2317
G01 X54.1868 Y58.6498
G01 X55.1993 Y56.9605
G01 X56.0414 Y55.1801
G01 X56.7049 Y53.3257
G01 X57.1834 Y51.4153
G01 X57.4724 Y49.4671
G01 X57.5690 Y47.5000
G01 X57.4724 Y45.5329
G01 X57.1834 Y43.5847
G01 X56.7049 Y41.6743
G01 X56.0414 Y39.8199
G01 X55.1993 Y38.0395
G01 X54.1868 Y36.3502
G01 X53.0136 Y34.7683
G01 X51.6910 Y33.3090
G01 X50.2317 Y31.9864
G01 X48.6498 Y30.8132
G01 X46.9605 Y29.8007
G01 X45.1801 Y28.9586
G01 X43.3257 Y28.2951
G01 X41.4153 Y27.8166
G01 X39.4671 Y27.5276
G01 X37.5000 Y27.4310
G01 X35.5329 Y27.5276
G01 X33.5847 Y27.8166
G01 X31.6743 Y28.2951
G01 X29.8199 Y28.9586
G01 X28.0395 Y29.8007
G01 X26.3502 Y30.8132
G01 X24.7683 Y31.9864
G01 X23.3090 Y33.3090
G01 X21.9864 Y34.7683
G01 X20.8132 Y36.3502
G01 X19.8007 Y38.0395
G01 X18.9586 Y39.8199
G01 X18.2951 Y41.6743
G01 X17.8166 Y43.5847
G01 X17.5276 Y45.5329
G01 X17.4310 Y47.5000
G01 X18.6324 Y47.5000
G01 X18.7233 Y49.3493
G01 X18.9949 Y51.1809
G01 X19.4448 Y52.9770
G01 X20.0686 Y54.7203
G01 X20.8603 Y56.3941
G01 X21.8122 Y57.9823
G01 X22.9151 Y59.4695
G01 X24.1586 Y60.8414
G01 X25.5305 Y62.0849
G01 X27.0177 Y63.1878
G01 X28.6059 Y64.1397
G01 X30.2797 Y64.9314
G01 X32.0230 Y65.5552
G01 X33.8191 Y66.0051
G01 X35.6507 Y66.2767
G01 X37.5000 Y66.3676
G01 X39.3493 Y66.2767
G01 X41.1809 Y66.0051
G01 X42.9770 Y65.5552
G01 X44.7203 Y64.9314
G01 X46.3941 Y64.1397
G01 X47.9823 Y63.1878
G01 X49.4695 Y62.0849
G01 X50.8414 Y60.8414
G01 X52.0849 Y59.4695
G01 X53.1878 Y57.9823
G01 X54.1397 Y56.3941
G01 X54.9314 Y54.7203
G01 X55.5552 Y52.9770
G01 X56.0051 Y51.1809
G01 X56.2767 Y49.3493
G01 X56.3676 Y47.5000
G01 X56.2767 Y45.6507
G01 X56.0051 Y43.8191
G01 X55.5552 Y42.0230
G01 X54.9314 Y40.2797
G01 X54.1397 Y38.6059
G01 X53.1878 Y37.0177
G01 X52.0849 Y35.5305
G01 X50.8414 Y34.1586
G01 X49.4695 Y32.9151
G01 X47.9823 Y31.8122
G01 X46.3941 Y30.8603
G01 X44.7203 Y30.0686
G01 X42.9770 Y29.4448
G01 X41.1809 Y28.9949
G01 X39.3493 Y28.7233
G01 X37.5000 Y28.6324
G01 X35.6507 Y28.7233
G01 X33.8191 Y28.9949
G01 X32.0230 Y29.4448
G01 X30.2797 Y30.0686
G01 X28.6059 Y30.8603
G01 X27.0177 Y31.8122
G01 X25.5305 Y32.9151
G01 X24.1586 Y34.1586
G01 X22.9151 Y35.5305
G01 X21.8122 Y37.0177
G01 X20.8603 Y38.6059
G01 X20.0686 Y40.2797
G01 X19.4448 Y42.0230
G01 X18.9949 Y43.8191
G01 X18.7233 Y45.6507
G01 X18.6324 Y47.5000
G01 X19.8338 Y47.5000
G01 X19.9189 Y49.2316
G01 X20.1733 Y50.9465
G01 X20.5945 Y52.6282
G01 X21.1786 Y54.2605
G01 X21.9198 Y55.8278
G01 X22.8111 Y57.3148
G01 X23.8439 Y58.7073
G01 X25.0081 Y59.9919
G01 X26.2927 Y61.1561
G01 X27.6852 Y62.1889
G01 X29.1722 Y63.0802
G01 X30.7395 Y63.8214
G01 X32.3718 Y64.4055
G01 X34.0535 Y64.8267
G01 X35.7684 Y65.0811
G01 X37.5000 Y65.1662
G01 X39.2316 Y65.0811
G01 X40.9465 Y64.8267
G01 X42.6282 Y64.4055
G01 X44.2605 Y63.8214
G01 X45.8278 Y63.0802
G01 X47.3148 Y62.1889
G01 X48.7073 Y61.1561
G01 X49.9919 Y59.9919
G01 X51.1561 Y58.7073
G01 X52.1889 Y57.3148
G01 X53.0802 Y55.8278
G01 X53.8214 Y54.2605
G01 X54.4055 Y52.6282
G01 X54.8267 Y50.9465
G01 X55.0811 Y49.2316
G01 X55.1662 Y47.5000
G01 X55.0811 Y45.7684
G01 X54.8267 Y44.0535
G01 X54.4055 Y42.3718
G01 X53.8214 Y40.7395
G01 X53.0802 Y39.1722
G01 X52.1889 Y37.6852
G01 X51.1561 Y36.2927
G01 X49.9919 Y35.0081
G01 X48.7073 Y33.8439
G01 X47.3148 Y32.8111
G01 X45.8278 Y31.9198
G01 X44.2605 Y31.1786
G01 X42.6282 Y30.5945
G01 X40.9465 Y30.1733
G01 X39.2316 Y29.9189
G01 X37.5000 Y29.8338
G01 X35.7684 Y29.9189
G01 X34.0535 Y30.1733
G01 X32.3718 Y30.5945
G01 X30.7395 Y31.1786
G01 X29.1722 Y31.9198
G01 X27.6852 Y32.8111
G01 X26.2927 Y33.8439
G01 X25.0081 Y35.0081
G01 X23.8439 Y36.2927
G01 X22.8111 Y37.6852
G01 X21.9198 Y39.1722
G01 X21.1786 Y40.7395
G01 X20.5945 Y42.3718
G01 X20.1733 Y44.0535
G01 X19.9189 Y45.7684
G01 X19.8338 Y47.5000
G01 X21.0353 Y47.5000
G01 X21.1146 Y49.1138
G01 X21.3517 Y50.7121
G01 X21.7443 Y52.2795
G01 X22.2886 Y53.8008
G01 X22.9794 Y55.2614
G01 X23.8101 Y56.6473
G01 X24.7726 Y57.9451
G01 X25.8577 Y59.1423
G01 X27.0549 Y60.2274
G01 X28.3527 Y61.1899
G01 X29.7386 Y62.0206
G01 X31.1992 Y62.7114
G01 X32.7205 Y63.2557
G01 X34.2879 Y63.6483
G01 X35.8862 Y63.8854
G01 X37.5000 Y63.9647
G01 X39.1138 Y63.8854
G01 X40.7121 Y63.6483
G01 X42.2795 Y63.2557
G01 X43.8008 Y62.7114
G01 X45.2614 Y62.0206
G01 X46.6473 Y61.1899
G01 X47.9451 Y60.2274
G01 X49.1423 Y59.1423
G01 X50.2274 Y57.9451
G01 X51.1899 Y56.6473
G01 X52.0206 Y55.2614
G01 X52.7114 Y53.8008
G01 X53.2557 Y52.2795
G01 X53.6483 Y50.7121
G01 X53.8854 Y49.1138
G01 X53.9647 Y47.5000
G01 X53.8854 Y45.8862
G01 X53.6483 Y44.2879
G01 X53.2557 Y42.7205
G01 X52.7114 Y41.1992
G01 X52.0206 Y39.7386
G01 X51.1899 Y38.3527
G01 X50.2274 Y37.0549
G01 X49.1423 Y35.8577
G01 X47.9451 Y34.7726
G01 X46.6473 Y33.8101
G01 X45.2614 Y32.9794
G01 X43.8008 Y32.2886
G01 X42.2795 Y31.7443
G01 X40.7121 Y31.3517
G01 X39.1138 Y31.1146
G01 X37.5000 Y31.0353
G01 X35.8862 Y31.1146
G01 X34.2879 Y31.3517
G01 X32.7205 Y31.7443
G01 X31.1992 Y32.2886
G01 X29.7386 Y32.9794
G01 X28.3527 Y33.8101
G01 X27.0549 Y34.7726
G01 X25.8577 Y35.8577
G01 X24.7726 Y37.0549
G01 X23.8101 Y38.3527
G01 X22.9794 Y39.7386
G01 X22.2886 Y41.1992
G01 X21.7443 Y42.7205
G01 X21.3517 Y44.2879
G01 X21.1146 Y45.8862
G01 X21.0353 Y47.5000
G01 X22.2367 Y47.5000
G01 X22.3102 Y48.9961
G01 X22.5300 Y50.4777
G01 X22.8940 Y51.9307
G01 X23.3986 Y53.3410
G01 X24.0390 Y54.6951
G01 X24.8091 Y55.9798
G01 X25.7013 Y57.1829
G01 X26.7072 Y58.2928
G01 X27.8171 Y59.2987
G01 X29.0202 Y60.1909
G01 X30.3049 Y60.9610
G01 X31.6590 Y61.6014
G01 X33.0693 Y62.1060
G01 X34.5223 Y62.4700
G01 X36.0039 Y62.6898
G01 X37.5000 Y62.7633
G01 X38.9961 Y62.6898
G01 X40.4777 Y62.4700
G01 X41.9307 Y62.1060
G01 X43.3410 Y61.6014
G01 X44.6951 Y60.9610
G01 X45.9798 Y60.1909
G01 X47.1829 Y59.2987
G01 X48.2928 Y58.2928
G01 X49.2987 Y57.1829
G01 X50.1909 Y55.9798
G01 X50.9610 Y54.6951
G01 X51.6014 Y53.3410
G01 X52.1060 Y51.9307
G01 X52.4700 Y50.4777
G01 X52.6898 Y48.9961
G01 X52.7633 Y47.5000
G01 X52.6898 Y46.0039
G01 X52.4700 Y44.5223
G01 X52.1060 Y43.0693
G01 X51.6014 Y41.6590
G01 X50.9610 Y40.3049
G01 X50.1909 Y39.0202
G01 X49.2987 Y37.8171
G01 X48.2928 Y36.7072
G01 X47.1829 Y35.7013
G01 X45.9798 Y34.8091
G01 X44.6951 Y34.0390
G01 X43.3410 Y33.3986
G01 X41.9307 Y32.8940
G01 X40.4777 Y32.5300
G01 X38.9961 Y32.3102
G01 X37.5000 Y32.2367
G01 X36.0039 Y32.3102
G01 X34.5223 Y32.5300
G01 X33.0693 Y32.8940
G01 X31.6590 Y33.3986
G01 X30.3049 Y34.0390
G01 X29.0202 Y34.8091
G01 X27.8171 Y35.7013
G01 X26.7072 Y36.7072
G01 X25.7013 Y37.8171
G01 X24.8091 Y39.0202
G01 X24.0390 Y40.3049
G01 X23.3986 Y41.6590
G01 X22.8940 Y43.0693
G01 X22.5300 Y44.5223
G01 X22.3102 Y46.0039
G01 X22.2367 Y47.5000
G01 X23.4382 Y47.5000
G01 X23.5059 Y48.8783
G01 X23.7084 Y50.2433
G01 X24.0437 Y51.5819
G01 X24.5086 Y52.8812
G01 X25.0986 Y54.1287
G01 X25.8080 Y55.3123
G01 X26.6301 Y56.4207
G01 X27.5568 Y57.4432
G01 X28.5793 Y58.3699
G01 X29.6877 Y59.1920
G01 X30.8713 Y59.9014
G01 X32.1188 Y60.4914
G01 X33.4181 Y60.9563
G01 X34.7567 Y61.2916
G01 X36.1217 Y61.4941
G01 X37.5000 Y61.5618
G01 X38.8783 Y61.4941
G01 X40.2433 Y61.2916
G01 X41.5819 Y60.9563
G01 X42.8812 Y60.4914
G01 X44.1287 Y59.9014
G01 X45.3123 Y59.1920
G01 X46.4207 Y58.3699
G01 X47.4432 Y57.4432
G01 X48.3699 Y56.4207
G01 X49.1920 Y55.3123
G01 X49.9014 Y54.1287
G01 X50.4914 Y52.8812
G01 X50.9563 Y51.5819
G01 X51.2916 Y50.2433
G01 X51.4941 Y48.8783
G01 X51.5618 Y47.5000
G01 X51.4941 Y46.1217
G01 X51.2916 Y44.7567
G01 X50.9563 Y43.4181
G01 X50.4914 Y42.1188
G01 X49.9014 Y40.8713
G01 X49.1920 Y39.6877
G01 X48.3699 Y38.5793
G01 X47.4432 Y37.5568
G01 X46.4207 Y36.6301
G01 X45.3123 Y35.8080
G01 X44.1287 Y35.0986
G01 X42.8812 Y34.5086
G01 X41.5819 Y34.0437
G01 X40.2433 Y33.7084
G01 X38.8783 Y33.5059
G01 X37.5000 Y33.4382
G01 X36.1217 Y33.5059
G01 X34.7567 Y33.7084
G01 X33.4181 Y34.0437
G01 X32.1188 Y34.5086
G01 X30.8713 Y35.0986
G01 X29.6877 Y35.8080
G01 X28.5793 Y36.6301
G01 X27.5568 Y37.5568
G01 X26.6301 Y38.5793
G01 X25.8080 Y39.6877
G01 X25.0986 Y40.8713
G01 X24.5086 Y42.1188
G01 X24.0437 Y43.4181
G01 X23.7084 Y44.7567
G01 X23.5059 Y46.1217
G01 X23.4382 Y47.5000
G01 X24.6396 Y47.5000
G01 X24.7016 Y48.7605
G01 X24.8867 Y50.0089
G01 X25.1934 Y51.2332
G01 X25.6186 Y52.4214
G01 X26.1582 Y53.5623
G01 X26.8070 Y54.6448
G01 X27.5588 Y55.6585
G01 X28.4063 Y56.5937
G01 X29.3415 Y57.4412
G01 X30.3552 Y58.1930
G01 X31.4377 Y58.8418
G01 X32.5786 Y59.3814
G01 X33.7668 Y59.8066
G01 X34.9911 Y60.1133
G01 X36.2395 Y60.2984
G01 X37.5000 Y60.3604
G01 X38.7605 Y60.2984
G01 X40.0089 Y60.1133
G01 X41.2332 Y59.8066
G01 X42.4214 Y59.3814
G01 X43.5623 Y58.8418
G01 X44.6448 Y58.1930
G01 X45.6585 Y57.4412
G01 X46.5937 Y56.5937
G01 X47.4412 Y55.6585
G01 X48.1930 Y54.6448
G01 X48.8418 Y53.5623
G01 X49.3814 Y52.4214
G01 X49.8066 Y51.2332
G01 X50.1133 Y50.0089
G01 X50.2984 Y48.7605
G01 X50.3604 Y47.5000
G01 X50.2984 Y46.2395
G01 X50.1133 Y44.9911
G01 X49.8066 Y43.7668
G01 X49.3814 Y42.5786
G01 X48.8418 Y41.4377
G01 X48.1930 Y40.3552
G01 X47.4412 Y39.3415
G01 X46.5937 Y38.4063
G01 X45.6585 Y37.5588
G01 X44.6448 Y36.8070
G01 X43.5623 Y36.1582
G01 X42.4214 Y35.6186
G01 X41.2332 Y35.1934
G01 X40.0089 Y34.8867
G01 X38.7605 Y34.7016
G01 X37.5000 Y34.6396
G01 X36.2395 Y34.7016
G01 X34.9911 Y34.8867
G01 X33.7668 Y35.1934
G01 X32.5786 Y35.6186
G01 X31.4377 Y36.1582
G01 X30.3552 Y36.8070
G01 X29.3415 Y37.5588
G01 X28.4063 Y38.4063
G01 X27.5588 Y39.3415
G01 X26.8070 Y40.3552
G01 X26.1582 Y41.4377
G01 X25.6186 Y42.5786
G01 X25.1934 Y43.7668
G01 X24.8867 Y44.9911
G01 X24.7016 Y46.2395
G01 X24.6396 Y47.5000
G01 X25.8411 Y47.5000
G01 X25.8972 Y48.6428
G01 X26.0651 Y49.7745
G01 X26.3431 Y50.8844
G01 X26.7286 Y51.9617
G01 X27.2178 Y52.9960
G01 X27.8060 Y53.9773
G01 X28.4875 Y54.8963
G01 X29.2559 Y55.7441
G01 X30.1037 Y56.5125
G01 X31.0227 Y57.1940
G01 X32.0040 Y57.7822
G01 X33.0383 Y58.2714
G01 X34.1156 Y58.6569
G01 X35.2255 Y58.9349
G01 X36.3572 Y59.1028
G01 X37.5000 Y59.1589
G01 X38.6428 Y59.1028
G01 X39.7745 Y58.9349
G01 X40.8844 Y58.6569
G01 X41.9617 Y58.2714
G01 X42.9960 Y57.7822
G01 X43.9773 Y57.1940
G01 X44.8963 Y56.5125
G01 X45.7441 Y55.7441
G01 X46.5125 Y54.8963
G01 X47.1940 Y53.9773
G01 X47.7822 Y52.9960
G01 X48.2714 Y51.9617
G01 X48.6569 Y50.8844
G01 X48.9349 Y49.7745
G01 X49.1028 Y48.6428
G01 X49.1589 Y47.5000
G01 X49.1028 Y46.3572
G01 X48.9349 Y45.2255
G01 X48.6569 Y44.1156
G01 X48.2714 Y43.0383
G01 X47.7822 Y42.0040
G01 X47.1940 Y41.0227
G01 X46.5125 Y40.1037
G01 X45.7441 Y39.2559
G01 X44.8963 Y38.4875
G01 X43.9773 Y37.8060
G01 X42.9960 Y37.2178
G01 X41.9617 Y36.7286
G01 X40.8844 Y36.3431
G01 X39.7745 Y36.0651
G01 X38.6428 Y35.8972
G01 X37.5000 Y35.8411
G01 X36.3572 Y35.8972
G01 X35.2255 Y36.0651
G01 X34.1156 Y36.3431
G01 X33.0383 Y36.7286
G01 X32.0040 Y37.2178
G01 X31.0227 Y37.8060
G01 X30.1037 Y38.4875
G01 X29.2559 Y39.2559
G01 X28.4875 Y40.1037
G01 X27.8060 Y41.0227
G01 X27.2178 Y42.0040
G01 X26.7286 Y43.0383
G01 X26.3431 Y44.1156
G01 X26.0651 Y45.2255
G01 X25.8972 Y46.3572
G01 X25.8411 Y47.5000
G01 X27.0425 Y47.5000
G01 X27.0929 Y48.5250
G01 X27.2435 Y49.5402
G01 X27.4928 Y50.5356
G01 X27.8386 Y51.5019
G01 X28.2773 Y52.4296
G01 X28.8049 Y53.3099
G01 X29.4163 Y54.1341
G01 X30.1055 Y54.8945
G01 X30.8659 Y55.5837
G01 X31.6901 Y56.1951
G01 X32.5704 Y56.7227
G01 X33.4981 Y57.1614
G01 X34.4644 Y57.5072
G01 X35.4598 Y57.7565
G01 X36.4750 Y57.9071
G01 X37.5000 Y57.9575
G01 X38.5250 Y57.9071
G01 X39.5402 Y57.7565
G01 X40.5356 Y57.5072
G01 X41.5019 Y57.1614
G01 X42.4296 Y56.7227
G01 X43.3099 Y56.1951
G01 X44.1341 Y55.5837
G01 X44.8945 Y54.8945
G01 X45.5837 Y54.1341
G01 X46.1951 Y53.3099
G01 X46.7227 Y52.4296
G01 X47.1614 Y51.5019
G01 X47.5072 Y50.5356
G01 X47.7565 Y49.5402
G01 X47.9071 Y48.5250
G01 X47.9575 Y47.5000
G01 X47.9071 Y46.4750
G01 X47.7565 Y45.4598
G01 X47.5072 Y44.4644
G01 X47.1614 Y43.4981
G01 X46.7227 Y42.5704
G01 X46.1951 Y41.6901
G01 X45.5837 Y40.8659
G01 X44.8945 Y40.1055
G01 X44.1341 Y39.4163
G01 X43.3099 Y38.8049
G01 X42.4296 Y38.2773
G01 X41.5019 Y37.8386
G01 X40.5356 Y37.4928
G01 X39.5402 Y37.2435
G01 X38.5250 Y37.0929
G01 X37.5000 Y37.0425
G01 X36.4750 Y37.0929
G01 X35.4598 Y37.2435
G01 X34.4644 Y37.4928
G01 X33.4981 Y37.8386
G01 X32.5704 Y38.2773
G01 X31.6901 Y38.8049
G01 X30.8659 Y39.4163
G01 X30.1055 Y40.1055
G01 X29.4163 Y40.8659
G01 X28.8049 Y41.6901
G01 X28.2773 Y42.5704
G01 X27.8386 Y43.4981
G01 X27.4928 Y44.4644
G01 X27.2435 Y45.4598
G01 X27.0929 Y46.4750
G01 X27.0425 Y47.5000
G01 X28.2440 Y47.5000
G01 X28.2885 Y48.4072
G01 X28.4218 Y49.3058
G01 X28.6425 Y50.1869
G01 X28.9485 Y51.0421
G01 X29.3369 Y51.8633
G01 X29.8039 Y52.6424
G01 X30.3450 Y53.3720
G01 X30.9550 Y54.0450
G01 X31.6280 Y54.6550
G01 X32.3576 Y55.1961
G01 X33.1367 Y55.6631
G01 X33.9579 Y56.0515
G01 X34.8131 Y56.3575
G01 X35.6942 Y56.5782
G01 X36.5928 Y56.7115
G01 X37.5000 Y56.7560
G01 X38.4072 Y56.7115
G01 X39.3058 Y56.5782
G01 X40.1869 Y56.3575
G01 X41.0421 Y56.0515
G01 X41.8633 Y55.6631
G01 X42.6424 Y55.1961
G01 X43.3720 Y54.6550
G01 X44.0450 Y54.0450
G01 X44.6550 Y53.3720
G01 X45.1961 Y52.6424
G01 X45.6631 Y51.8633
G01 X46.0515 Y51.0421
G01 X46.3575 Y50.1869
G01 X46.5782 Y49.3058
G01 X46.7115 Y48.4072
G01 X46.7560 Y47.5000
G01 X46.7115 Y46.5928
G01 X46.5782 Y45.6942
G01 X46.3575 Y44.8131
G01 X46.0515 Y43.9579
G01 X45.6631 Y43.1367
G01 X45.1961 Y42.3576
G01 X44.6550 Y41.6280
G01 X44.0450 Y40.9550
G01 X43.3720 Y40.3450
G01 X42.6424 Y39.8039
G01 X41.8633 Y39.3369
G01 X41.0421 Y38.9485
G01 X40.1869 Y38.6425
G01 X39.3058 Y38.4218
G01 X38.4072 Y38.2885
G01 X37.5000 Y38.2440
G01 X36.5928 Y38.2885
G01 X35.6942 Y38.4218
G01 X34.8131 Y38.6425
G01 X33.9579 Y38.9485
G01 X33.1367 Y39.3369
G01 X32.3576 Y39.8039
G01 X31.6280 Y40.3450
G01 X30.9550 Y40.9550
G01 X30.3450 Y41.6280
G01 X29.8039 Y42.3576
G01 X29.3369 Y43.1367
G01 X28.9485 Y43.9579
G01 X28.6425 Y44.8131
G01 X28.4218 Y45.6942
G01 X28.2885 Y46.5928
G01 X28.2440 Y47.5000
G01 X29.4454 Y47.5000
G01 X29.4842 Y48.2895
G01 X29.6002 Y49.0714
G01 X29.7923 Y49.8381
G01 X30.0585 Y50.5824
G01 X30.3965 Y51.2969
G01 X30.8029 Y51.9749
G01 X31.2737 Y52.6098
G01 X31.8046 Y53.1954
G01 X32.3902 Y53.7263
G01 X33.0251 Y54.1971
G01 X33.7031 Y54.6035
G01 X34.4176 Y54.9415
G01 X35.1619 Y55.2077
G01 X35.9286 Y55.3998
G01 X36.7105 Y55.5158
G01 X37.5000 Y55.5546
G01 X38.2895 Y55.5158
G01 X39.0714 Y55.3998
G01 X39.8381 Y55.2077
G01 X40.5824 Y54.9415
G01 X41.2969 Y54.6035
G01 X41.9749 Y54.1971
G01 X42.6098 Y53.7263
G01 X43.1954 Y53.1954
G01 X43.7263 Y52.6098
G01 X44.1971 Y51.9749
G01 X44.6035 Y51.2969
G01 X44.9415 Y50.5824
G01 X45.2077 Y49.8381
G01 X45.3998 Y49.0714
G01 X45.5158 Y48.2895
G01 X45.5546 Y47.5000
G01 X45.5158 Y46.7105
G01 X45.3998 Y45.9286
G01 X45.2077 Y45.1619
G01 X44.9415 Y44.4176
G01 X44.6035 Y43.7031
G01 X44.1971 Y43.0251
G01 X43.7263 Y42.3902
G01 X43.1954 Y41.8046
G01 X42.6098 Y41.2737
G01 X41.9749 Y40.8029
G01 X41.2969 Y40.3965
G01 X40.5824 Y40.0585
G01 X39.8381 Y39.7923
G01 X39.0714 Y39.6002
G01 X38.2895 Y39.4842
G01 X37.5000 Y39.4454
G01 X36.7105 Y39.4842
G01 X35.9286 Y39.6002
G01 X35.1619 Y39.7923
G01 X34.4176 Y40.0585
G01 X33.7031 Y40.3965
G01 X33.0251 Y40.8029
G01 X32.3902 Y41.2737
G01 X31.8046 Y41.8046
G01 X31.2737 Y42.3902
G01 X30.8029 Y43.0251
G01 X30.3965 Y43.7031
G01 X30.0585 Y44.4176
G01 X29.7923 Y45.1619
G01 X29.6002 Y45.9286
G01 X29.4842 Y46.7105
G01 X29.4454 Y47.5000
G01 X30.6469 Y47.5000
G01 X30.6799 Y48.1717
G01 X30.7786 Y48.8370
G01 X30.9420 Y49.4894
G01 X31.1685 Y50.1226
G01 X31.4561 Y50.7305
G01 X31.8018 Y51.3074
G01 X32.2025 Y51.8476
G01 X32.6541 Y52.3459
G01 X33.1524 Y52.7975
G01 X33.6926 Y53.1982
G01 X34.2695 Y53.5439
G01 X34.8774 Y53.8315
G01 X35.5106 Y54.0580
G01 X36.1630 Y54.2214
G01 X36.8283 Y54.3201
G01 X37.5000 Y54.3531
G01 X38.1717 Y54.3201
G01 X38.8370 Y54.2214
G01 X39.4894 Y54.0580
G01 X40.1226 Y53.8315
G01 X40.7305 Y53.5439
G01 X41.3074 Y53.1982
G01 X41.8476 Y52.7975
G01 X42.3459 Y52.3459
G01 X42.7975 Y51.8476
G01 X43.1982 Y51.3074
G01 X43.5439 Y50.7305
G01 X43.8315 Y50.1226
G01 X44.0580 Y49.4894
G01 X44.2214 Y48.8370
G01 X44.3201 Y48.1717
G01 X44.3531 Y47.5000
G01 X44.3201 Y46.8283
G01 X44.2214 Y46.1630
G01 X44.0580 Y45.5106
G01 X43.8315 Y44.8774
G01 X43.5439 Y44.2695
G01 X43.1982 Y43.6926
G01 X42.7975 Y43.1524
G01 X42.3459 Y42.6541
G01 X41.8476 Y42.2025
G01 X41.3074 Y41.8018
G01 X40.7305 Y41.4561
G01 X40.1226 Y41.1685
G01 X39.4894 Y40.9420
G01 X38.8370 Y40.7786
G01 X38.1717 Y40.6799
G01 X37.5000 Y40.6469
G01 X36.8283 Y40.6799
G01 X36.1630 Y40.7786
G01 X35.5106 Y40.9420
G01 X34.8774 Y41.1685
G01 X34.2695 Y41.4561
G01 X33.6926 Y41.8018
G01 X33.1524 Y42.2025
G01 X32.6541 Y42.6541
G01 X32.2025 Y43.1524
G01 X31.8018 Y43.6926
G01 X31.4561 Y44.2695
G01 X31.1685 Y44.8774
G01 X30.9420 Y45.5106
G01 X30.7786 Y46.1630
G01 X30.6799 Y46.8283
G01 X30.6469 Y47.5000
G01 X31.8483 Y47.5000
G01 X31.8755 Y48.0540
G01 X31.9569 Y48.6026
G01 X32.0917 Y49.1406
G01 X32.2785 Y49.6628
G01 X32.5157 Y50.1642
G01 X32.8008 Y50.6399
G01 X33.1312 Y51.0854
G01 X33.5037 Y51.4963
G01 X33.9146 Y51.8688
G01 X34.3601 Y52.1992
G01 X34.8358 Y52.4843
G01 X35.3372 Y52.7215
G01 X35.8594 Y52.9083
G01 X36.3974 Y53.0431
G01 X36.9460 Y53.1245
G01 X37.5000 Y53.1517
G01 X38.0540 Y53.1245
G01 X38.6026 Y53.0431
G01 X39.1406 Y52.9083
G01 X39.6628 Y52.7215
G01 X40.1642 Y52.4843
G01 X40.6399 Y52.1992
G01 X41.0854 Y51.8688
G01 X41.4963 Y51.4963
G01 X41.8688 Y51.0854
G01 X42.1992 Y50.6399
G01 X42.4843 Y50.1642
G01 X42.7215 Y49.6628
G01 X42.9083 Y49.1406
G01 X43.0431 Y48.6026
G01 X43.1245 Y48.0540
G01 X43.1517 Y47.5000
G01 X43.1245 Y46.9460
G01 X43.0431 Y46.3974
G01 X42.9083 Y45.8594
G01 X42.7215 Y45.3372
G01 X42.4843 Y44.8358
G01 X42.1992 Y44.3601
G01 X41.8688 Y43.9146
G01 X41.4963 Y43.5037
G01 X41.0854 Y43.1312
G01 X40.6399 Y42.8008
G01 X40.1642 Y42.5157
G01 X39.6628 Y42.2785
G01 X39.1406 Y42.0917
G01 X38.6026 Y41.9569
G01 X38.0540 Y41.8755
G01 X37.5000 Y41.8483
G01 X36.9460 Y41.8755
G01 X36.3974 Y41.9569
G01 X35.8594 Y42.0917
G01 X35.3372 Y42.2785
G01 X34.8358 Y42.5157
G01 X34.3601 Y42.8008
G01 X33.9146 Y43.1312
G01 X33.5037 Y43.5037
G01 X33.1312 Y43.9146
G01 X32.8008 Y44.3601
G01 X32.5157 Y44.8358
G01 X32.2785 Y45.3372
G01 X32.0917 Y45.8594
G01 X31.9569 Y46.3974
G01 X31.8755 Y46.9460
G01 X31.8483 Y47.5000
G01 X33.0498 Y47.5000
G01 X33.0712 Y47.9362
G01 X33.1353 Y48.3682
G01 X33.2414 Y48.7918
G01 X33.3885 Y49.2030
G01 X33.5752 Y49.5978
G01 X33.7998 Y49.9724
G01 X34.0599 Y50.3232
G01 X34.3532 Y50.6468
G01 X34.6768 Y50.9401
G01 X35.0276 Y51.2002
G01 X35.4022 Y51.4248
G01 X35.7970 Y51.6115
G01 X36.2082 Y51.7586
G01 X36.6318 Y51.8647
G01 X37.0638 Y51.9288
G01 X37.5000 Y51.9502
G01 X37.9362 Y51.9288
G01 X38.3682 Y51.8647
G01 X38.7918 Y51.7586
G01 X39.2030 Y51.6115
G01 X39.5978 Y51.4248
G01 X39.9724 Y51.2002
G01 X40.3232 Y50.9401
G01 X40.6468 Y50.6468
G01 X40.9401 Y50.3232
G01 X41.2002 Y49.9724
G01 X41.4248 Y49.5978
G01 X41.6115 Y49.2030
G01 X41.7586 Y48.7918
G01 X41.8647 Y48.3682
G01 X41.9288 Y47.9362
G01 X41.9502 Y47.5000
G01 X41.9288 Y47.0638
G01 X41.8647 Y46.6318
G01 X41.7586 Y46.2082
G01 X41.6115 Y45.7970
G01 X41.4248 Y45.4022
G01 X41.2002 Y45.0276
G01 X40.9401 Y44.6768
G01 X40.6468 Y44.3532
G01 X40.3232 Y44.0599
G01 X39.9724 Y43.7998
G01 X39.5978 Y43.5752
G01 X39.2030 Y43.3885
G01 X38.7918 Y43.2414
G01 X38.3682 Y43.1353
G01 X37.9362 Y43.0712
G01 X37.5000 Y43.0498
G01 X37.0638 Y43.0712
G01 X36.6318 Y43.1353
G01 X36.2082 Y43.2414
G01 X35.7970 Y43.3885
G01 X35.4022 Y43.5752
G01 X35.0276 Y43.7998
G01 X34.6768 Y44.0599
G01 X34.3532 Y44.3532
G01 X34.0599 Y44.6768
G01 X33.7998 Y45.0276
G01 X33.5752 Y45.4022
G01 X33.3885 Y45.7970
G01 X33.2414 Y46.2082
G01 X33.1353 Y46.6318
G01 X33.0712 Y47.0638
G01 X33.0498 Y47.5000
G01 X34.2512 Y47.5000
G01 X34.2669 Y47.8184
G01 X34.3136 Y48.1338
G01 X34.3911 Y48.4431
G01 X34.4985 Y48.7433
G01 X34.6348 Y49.0315
G01 X34.7987 Y49.3049
G01 X34.9887 Y49.5610
G01 X35.2028 Y49.7972
G01 X35.4390 Y50.0113
G01 X35.6951 Y50.2013
G01 X35.9685 Y50.3652
G01 X36.2567 Y50.5015
G01 X36.5569 Y50.6089
G01 X36.8662 Y50.6864
G01 X37.1816 Y50.7331
G01 X37.5000 Y50.7488
G01 X37.8184 Y50.7331
G01 X38.1338 Y50.6864
G01 X38.4431 Y50.6089
G01 X38.7433 Y50.5015
G01 X39.0315 Y50.3652
G01 X39.3049 Y50.2013
G01 X39.5610 Y50.0113
G01 X39.7972 Y49.7972
G01 X40.0113 Y49.5610
G01 X40.2013 Y49.3049
G01 X40.3652 Y49.0315
G01 X40.5015 Y48.7433
G01 X40.6089 Y48.4431
G01 X40.6864 Y48.1338
G01 X40.7331 Y47.8184
G01 X40.7488 Y47.5000
G01 X40.7331 Y47.1816
G01 X40.6864 Y46.8662
G01 X40.6089 Y46.5569
G01 X40.5015 Y46.2567
G01 X40.3652 Y45.9685
G01 X40.2013 Y45.6951
G01 X40.0113 Y45.4390
G01 X39.7972 Y45.2028
G01 X39.5610 Y44.9887
G01 X39.3049 Y44.7987
G01 X39.0315 Y44.6348
G01 X38.7433 Y44.4985
G01 X38.4431 Y44.3911
G01 X38.1338 Y44.3136
G01 X37.8184 Y44.2669
G01 X37.5000 Y44.2512
G01 X37.1816 Y44.2669
G01 X36.8662 Y44.3136
G01 X36.5569 Y44.3911
G01 X36.2567 Y44.4985
G01 X35.9685 Y44.6348
G01 X35.6951 Y44.7987
G01 X35.4390 Y44.9887
G01 X35.2028 Y45.2028
G01 X34.9887 Y45.4390
G01 X34.7987 Y45.6951
G01 X34.6348 Y45.9685
G01 X34.4985 Y46.2567
G01 X34.3911 Y46.5569
G01 X34.3136 Y46.8662
G01 X34.2669 Y47.1816
G01 X34.2512 Y47.5000
G01 X35.4527 Y47.5000
G01 X35.4625 Y47.7007
G01 X35.4920 Y47.8994
G01 X35.5408 Y48.0943
G01 X35.6085 Y48.2835
G01 X35.6944 Y48.4651
G01 X35.7977 Y48.6374
G01 X35.9174 Y48.7988
G01 X36.0523 Y48.9477
G01 X36.2012 Y49.0826
G01 X36.3626 Y49.2023
G01 X36.5349 Y49.3056
G01 X36.7165 Y49.3915
G01 X36.9057 Y49.4592
G01 X37.1006 Y49.5080
G01 X37.2993 Y49.5375
G01 X37.5000 Y49.5473
G01 X37.7007 Y49.5375
G01 X37.8994 Y49.5080
G01 X38.0943 Y49.4592
G01 X38.2835 Y49.3915
G01 X38.4651 Y49.3056
G01 X38.6374 Y49.2023
G01 X38.7988 Y49.0826
G01 X38.9477 Y48.9477
G01 X39.0826 Y48.7988
G01 X39.2023 Y48.6374
G01 X39.3056 Y48.4651
G01 X39.3915 Y48.2835
G01 X39.4592 Y48.0943
G01 X39.5080 Y47.8994
G01 X39.5375 Y47.7007
G01 X39.5473 Y47.5000
G01 X39.5375 Y47.2993
G01 X39.5080 Y47.1006
G01 X39.4592 Y46.9057
G01 X39.3915 Y46.7165
G01 X39.3056 Y46.5349
G01 X39.2023 Y46.3626
G01 X39.0826 Y46.2012
G01 X38.9477 Y46.0523
G01 X38.7988 Y45.9174
G01 X38.6374 Y45.7977
G01 X38.4651 Y45.6944
G01 X38.2835 Y45.6085
G01 X38.0943 Y45.5408
G01 X37.8994 Y45.4920
G01 X37.7007 Y45.4625
G01 X37.5000 Y45.4527
G01 X37.2993 Y45.4625
G01 X37.1006 Y45.4920
G01 X36.9057 Y45.5408
G01 X36.7165 Y45.6085
G01 X36.5349 Y45.6944
G01 X36.3626 Y45.7977
G01 X36.2012 Y45.9174
G01 X36.0523 Y46.0523
G01 X35.9174 Y46.2012
G01 X35.7977 Y46.3626
G01 X35.6944 Y46.5349
G01 X35.6085 Y46.7165
G01 X35.5408 Y46.9057
G01 X35.4920 Y47.1006
G01 X35.4625 Y47.2993
G01 X35.4527 Y47.5000
G01 X36.6541 Y47.5000
G01 X36.6582 Y47.5829
G01 X36.6704 Y47.6650
G01 X36.6905 Y47.7455
G01 X36.7185 Y47.8237
G01 X36.7540 Y47.8988
G01 X36.7967 Y47.9700
G01 X36.8461 Y48.0366
G01 X36.9019 Y48.0981
G01 X36.9634 Y48.1539
G01 X37.0300 Y48.2033
G01 X37.1012 Y48.2460
G01 X37.1763 Y48.2815
G01 X37.2545 Y48.3095
G01 X37.3350 Y48.3296
G01 X37.4171 Y48.3418
G01 X37.5000 Y48.3459
G01 X37.5829 Y48.3418
G01 X37.6650 Y48.3296
G01 X37.7455 Y48.3095
G01 X37.8237 Y48.2815
G01 X37.8988 Y48.2460
G01 X37.9700 Y48.2033
G01 X38.0366 Y48.1539
G01 X38.0981 Y48.0981
G01 X38.1539 Y48.0366
G01 X38.2033 Y47.9700
G01 X38.2460 Y47.8988
G01 X38.2815 Y47.8237
G01 X38.3095 Y47.7455
G01 X38.3296 Y47.6650
G01 X38.3418 Y47.5829
G01 X38.3459 Y47.5000
G01 X38.3418 Y47.4171
G01 X38.3296 Y47.3350
G01 X38.3095 Y47.2545
G01 X38.2815 Y47.1763
G01 X38.2460 Y47.1012
G01 X38.2033 Y47.0300
G01 X38.1539 Y46.9634
G01 X38.0981 Y46.9019
G01 X38.0366 Y46.8461
G01 X37.9700 Y46.7967
G01 X37.8988 Y46.7540
G01 X37.8237 Y46.7185
G01 X37.7455 Y46.6905
G01 X37.6650 Y46.6704
G01 X37.5829 Y46.6582
G01 X37.5000 Y46.6541
G01 X37.4171 Y46.6582
G01 X37.3350 Y46.6704
G01 X37.2545 Y46.6905
G01 X37.1763 Y46.7185
G01 X37.1012 Y46.7540
G01 X37.0300 Y46.7967
G01 X36.9634 Y46.8461
G01 X36.9019 Y46.9019
G01 X36.8461 Y46.9634
G01 X36.7967 Y47.0300
G01 X36.7540 Y47.1012
G01 X36.7185 Y47.1763
G01 X36.6905 Y47.2545
G01 X36.6704 Y47.3350
G01 X36.6582 Y47.4171
G01 X36.6541 Y47.5000
G00 X36.6541 Y47.5000
G01 F100.00
G01 Z-0.8000
G01 F200.00
G01 X36.6582 Y47.4171
G01 X36.6704 Y47.3350
G01 X36.6905 Y47.2545
G01 X36.7185 Y47.1763
G01 X36.7540 Y47.1012
G01 X36.7967 Y47.0300
G01 X36.8461 Y46.9634
G01 X36.9019 Y46.9019
G01 X36.9634 Y46.8461
G01 X37.0300 Y46.7967
G01 X37.1012 Y46.7540
G01 X37.1763 Y46.7185
G01 X37.2545 Y46.6905
G01 X37.3350 Y46.6704
G01 X37.4171 Y46.6582
G01 X37.5000 Y46.6541
G01 X37.5829 Y46.6582
G01 X37.6650 Y46.6704
G01 X37.7455 Y46.6905
G01 X37.8237 Y46.7185
G01 X37.8988 Y46.7540
G01 X37.9700 Y46.7967
G01 X38.0366 Y46.8461
G01 X38.0981 Y46.9019
G01 X38.1539 Y46.9634
G01 X38.2033 Y47.0300
G01 X38.2460 Y47.1012
G01 X38.2815 Y47.1763
G01 X38.3095 Y47.2545
G01 X38.3296 Y47.3350
G01 X38.3418 Y47.4171
G01 X38.3459 Y47.5000
G01 X38.3418 Y47.5829
G01 X38.3296 Y47.6650
G01 X38.3095 Y47.7455
G01 X38.2815 Y47.8237
G01 X38.2460 Y47.8988
G01 X38.2033 Y47.9700
G01 X38.1539 Y48.0366
G01 X38.0981 Y48.0981
G01 X38.0366 Y48.1539
G01 X37.9700 Y48.2033
G01 X37.8988 Y48.2460
G01 X37.8237 Y48.2815
G01 X37.7455 Y48.3095
G01 X37.6650 Y48.3296
G01 X37.5829 Y48.3418
G01 X37.5000 Y48.3459
G01 X37.4171 Y48.3418
G01 X37.3350 Y48.3296
G01 X37.2545 Y48.3095
G01 X37.1763 Y48.2815
G01 X37.1012 Y48.2460
G01 X37.0300 Y48.2033
G01 X36.9634 Y48.1539
G01 X36.9019 Y48.0981
G01 X36.8461 Y48.0366
G01 X36.7967 Y47.9700
G01 X36.7540 Y47.8988
G01 X36.7185 Y47.8237
G01 X36.6905 Y47.7455
G01 X36.6704 Y47.6650
G01 X36.6582 Y47.5829
G01 X36.6541 Y47.5000
G01 X35.4527 Y47.5000
G01 X35.4625 Y47.2993
G01 X35.4920 Y47.1006
G01 X35.5408 Y46.9057
G01 X35.6085 Y46.7165
G01 X35.6944 Y46.5349
G01 X35.7977 Y46.3626
G01 X35.9174 Y46.2012
G01 X36.0523 Y46.0523
G01 X36.2012 Y45.9174
G01 X36.3626 Y45.7977
G01 X36.5349 Y45.6944
G01 X36.7165 Y45.6085
G01 X36.9057 Y45.5408
G01 X37.1006 Y45.4920
G01 X37.2993 Y45.4625
G01 X37.5000 Y45.4527
G01 X37.7007 Y45.4625
G01 X37.8994 Y45.4920
G01 X38.0943 Y45.5408
G01 X38.2835 Y45.6085
G01 X38.4651 Y45.6944
G01 X38.6374 Y45.7977
G01 X38.7988 Y45.9174
G01 X38.9477 Y46.0523
G01 X39.0826 Y46.2012
G01 X39.2023 Y46.3626
G01 X39.3056 Y46.5349
G01 X39.3915 Y46.7165
G01 X39.4592 Y46.9057
G01 X39.5080 Y47.1006
G01 X39.5375 Y47.2993
G01 X39.5473 Y47.5000
G01 X39.5375 Y47.7007
G01 X39.5080 Y47.8994
G01 X39.4592 Y48.0943
G01 X39.3915 Y48.2835
G01 X39.3056 Y48.4651
G01 X39.2023 Y48.6374
G01 X39.0826 Y48.7988
G01 X38.9477 Y48.9477
G01 X38.7988 Y49.0826
G01 X38.6374 Y49.2023
G01 X38.4651 Y49.3056
G01 X38.2835 Y49.3915
G01 X38.0943 Y49.4592
G01 X37.8994 Y49.5080
G01 X37.7007 Y49.5375
G01 X37.5000 Y49.5473
G01 X37.2993 Y49.5375
G01 X37.1006 Y49.5080
G01 X36.9057 Y49.4592
G01 X36.7165 Y49.3915
G01 X36.5349 Y49.3056
G01 X36.3626 Y49.2023
G01 X36.2012 Y49.0826
G01 X36.0523 Y48.9477
G01 X35.9174 Y48.7988
G01 X35.7977 Y48.6374
G01 X35.6944 Y48.4651
G01 X35.6085 Y48.2835
G01 X35.5408 Y48.0943
G01 X35.4920 Y47.8994
G01 X35.4625 Y47.7007
G01 X35.4527 Y47.5000
G01 X34.2512 Y47.5000
G01 X34.2669 Y47.1816
G01 X34.3136 Y46.8662
G01 X34.3911 Y46.5569
G01 X34.4985 Y46.2567
G01 X34.6348 Y45.9685
G01 X34.7987 Y45.6951
G01 X34.9887 Y45.4390
G01 X35.2028 Y45.2028
G01 X35.4390 Y44.9887
G01 X35.6951 Y44.7987
G01 X35.9685 Y44.6348
G01 X36.2567 Y44.4985
G01 X36.5569 Y44.3911
G01 X36.8662 Y44.3136
G01 X37.1816 Y44.2669
G01 X37.5000 Y44.2512
G01 X37.8184 Y44.2669
G01 X38.1338 Y44.3136
G01 X38.4431 Y44.3911
G01 X38.7433 Y44.4985
G01 X39.0315 Y44.6348
G01 X39.3049 Y44.7987
G01 X39.5610 Y44.9887
G01 X39.7972 Y45.2028
G01 X40.0113 Y45.4390
G01 X40.2013 Y45.6951
G01 X40.3652 Y45.9685
G01 X40.5015 Y46.2567
G01 X40.6089 Y46.5569
G01 X40.6864 Y46.8662
G01 X40.7331 Y47.1816
G01 X40.7488 Y47.5000
G01 X40.7331 Y47.8184
G01 X40.6864 Y48.1338
G01 X40.6089 Y48.4431
G01 X40.5015 Y48.7433
G01 X40.3652 Y49.0315
G01 X40.2013 Y49.3049
G01 X40.0113 Y49.5610
G01 X39.7972 Y49.7972
G01 X39.5610 Y50.0113
G01 X39.3049 Y50.2013
G01 X39.0315 Y50.3652
G01 X38.7433 Y50.5015
G01 X38.4431 Y50.6089
G01 X38.1338 Y50.6864
G01 X37.8184 Y50.7331
G01 X37.5000 Y50.7488
G01 X37.1816 Y50.7331
G01 X36.8662 Y50.6864
G01 X36.5569 Y50.6089
G01 X36.2567 Y50.5015
G01 X35.9685 Y50.3652
G01 X35.6951 Y50.2013
G01 X35.4390 Y50.0113
G01 X35.2028 Y49.7972
G01 X34.9887 Y49.5610
G01 X34.7987 Y49.3049
G01 X34.6348 Y49.0315
G01 X34.4985 Y48.7433
G01 X34.3911 Y48.4431
G01 X34.3136 Y48.1338
G01 X34.2669 Y47.8184
G01 X34.2512 Y47.5000
G01 X33.0498 Y47.5000
G01 X33.0712 Y47.0638
G01 X33.1353 Y46.6318
G01 X33.2414 Y46.2082
G01 X33.3885 Y45.7970
G01 X33.5752 Y45.4022
G01 X33.7998 Y45.0276
G01 X34.0599 Y44.6768
G01 X34.3532 Y44.3532
G01 X34.6768 Y44.0599
G01 X35.0276 Y43.7998
G01 X35.4022 Y43.5752
G01 X35.7970 Y43.3885
G01 X36.2082 Y43.2414
G01 X36.6318 Y43.1353
G01 X37.0638 Y43.0712
G01 X37.5000 Y43.0498
G01 X37.9362 Y43.0712
G01 X38.3682 Y43.1353
G01 X38.7918 Y43.2414
G01 X39.2030 Y43.3885
G01 X39.5978 Y43.5752
G01 X39.9724 Y43.7998
G01 X40.3232 Y44.0599
G01 X40.6468 Y44.3532
G01 X40.9401 Y44.6768
G01 X41.2002 Y45.0276
G01 X41.4248 Y45.4022
G01 X41.6115 Y45.7970
G01 X41.7586 Y46.2082
G01 X41.8647 Y46.6318
G01 X41.9288 Y47.0638
G01 X41.9502 Y47.5000
G01 X41.9288 Y47.9362
G01 X41.8647 Y48.3682
G01 X41.7586 Y48.7918
G01 X41.6115 Y49.2030
G01 X41.4248 Y49.5978
G01 X41.2002 Y49.9724
G01 X40.9401 Y50.3232
G01 X40.6468 Y50.6468
G01 X40.3232 Y50.9401
G01 X39.9724 Y51.2002
G01 X39.5978 Y51.4248
G01 X39.2030 Y51.6115
G01 X38.7918 Y51.7586
G01 X38.3682 Y51.8647
G01 X37.9362 Y51.9288
G01 X37.5000 Y51.9502
G01 X37.0638 Y51.9288
G01 X36.6318 Y51.8647
G01 X36.2082 Y51.7586
G01 X35.7970 Y51.6115
G01 X35.4022 Y51.4248
G01 X35.0276 Y51.2002
G01 X34.6768 Y50.9401
G01 X34.3532 Y50.6468
G01 X34.0599 Y50.3232
G01 X33.7998 Y49.9724
G01 X33.5752 Y49.5978
G01 X33.3885 Y49.2030
G01 X33.2414 Y48.7918
G01 X33.1353 Y48.3682
G01 X33.0712 Y47.9362
G01 X33.0498 Y47.5000
G01 X31.8483 Y47.5000
G01 X31.8755 Y46.9460
G01 X31.9569 Y46.3974
G01 X32.0917 Y45.8594
G01 X32.2785 Y45.3372
G01 X32.5157 Y44.8358
G01 X32.8008 Y44.3601
G01 X33.1312 Y43.9146
G01 X33.5037 Y43.5037
G01 X33.9146 Y43.1312
G01 X34.3601 Y42.8008
G01 X34.8358 Y42.5157
G01 X35.3372 Y42.2785
G01 X35.8594 Y42.0917
G01 X36.3974 Y41.9569
G01 X36.9460 Y41.8755
G01 X37.5000 Y41.8483
G01 X38.0540 Y41.8755
G01 X38.6026 Y41.9569
G01 X39.1406 Y42.0917
G01 X39.6628 Y42.2785
G01 X40.1642 Y42.5157
G01 X40.6399 Y42.8008
G01 X41.0854 Y43.1312
G01 X41.4963 Y43.5037
G01 X41.8688 Y43.9146
G01 X42.1992 Y44.3601
G01 X42.4843 Y44.8358
G01 X42.7215 Y45.3372
G01 X42.9083 Y45.8594
G01 X43.0431 Y46.3974
G01 X43.1245 Y46.9460
G01 X43.1517 Y47.5000
G01 X43.1245 Y48.0540
G01 X43.0431 Y48.6026
G01 X42.9083 Y49.1406
G01 X42.7215 Y49.6628
G01 X42.4843 Y50.1642
G01 X42.1992 Y50.6399
G01 X41.8688 Y51.0854
G01 X41.4963 Y51.4963
G01 X41.0854 Y51.8688
G01 X40.6399 Y52.1992
G01 X40.1642 Y52.4843
G01 X39.6628 Y52.7215
G01 X39.1406 Y52.9083
G01 X38.6026 Y53.0431
G01 X38.0540 Y53.1245
G01 X37.5000 Y53.1517
G01 X36.9460 Y53.1245
G01 X36.3974 Y53.0431
G01 X35.8594 Y52.9083
G01 X35.3372 Y52.7215
G01 X34.8358 Y52.4843
G01 X34.3601 Y52.1992
G01 X33.9146 Y51.8688
G01 X33.5037 Y51.4963
G01 X33.1312 Y51.0854
G01 X32.8008 Y50.6399
G01 X32.5157 Y50.1642
G01 X32.2785 Y49.6628
G01 X32.0917 Y49.1406
G01 X31.9569 Y48.6026
G01 X31.8755 Y48.0540
G01 X31.8483 Y47.5000
G01 X30.6469 Y47.5000
G01 X30.6799 Y46.8283
G01 X30.7786 Y46.1630
G01 X30.9420 Y45.5106
G01 X31.1685 Y44.8774
G01 X31.4561 Y44.2695
G01 X31.8018 Y43.6926
G01 X32.2025 Y43.1524
G01 X32.6541 Y42.6541
G01 X33.1524 Y42.2025
G01 X33.6926 Y41.8018
G01 X34.2695 Y41.4561
G01 X34.8774 Y41.1685
G01 X35.5106 Y40.9420
G01 X36.1630 Y40.7786
G01 X36.8283 Y40.6799
G01 X37.5000 Y40.6469
G01 X38.1717 Y40.6799
G01 X38.8370 Y40.7786
G01 X39.4894 Y40.9420
G01 X40.1226 Y41.1685
G01 X40.7305 Y41.4561
G01 X41.3074 Y41.8018
G01 X41.8476 Y42.2025
G01 X42.3459 Y42.6541
G01 X42.7975 Y43.1524
G01 X43.1982 Y43.6926
G01 X43.5439 Y44.2695
G01 X43.8315 Y44.8774
G01 X44.0580 Y45.5106
G01 X44.2214 Y46.1630
G01 X44.3201 Y46.8283
G01 X44.3531 Y47.5000
G01 X44.3201 Y48.1717
G01 X44.2214 Y48.8370
G01 X44.0580 Y49.4894
G01 X43.8315 Y50.1226
G01 X43.5439 Y50.7305
G01 X43.1982 Y51.3074
G01 X42.7975 Y51.8476
G01 X42.3459 Y52.3459
G01 X41.8476 Y52.7975
G01 X41.3074 Y53.1982
G01 X40.7305 Y53.5439
G01 X40.1226 Y53.8315
G01 X39.4894 Y54.0580
G01 X38.8370 Y54.2214
G01 X38.1717 Y54.3201
G01 X37.5000 Y54.3531
G01 X36.8283 Y54.3201
G01 X36.1630 Y54.2214
G01 X35.5106 Y54.0580
G01 X34.8774 Y53.8315
G01 X34.2695 Y53.5439
G01 X33.6926 Y53.1982
G01 X33.1524 Y52.7975
G01 X32.6541 Y52.3459
G01 X32.2025 Y51.8476
G01 X31.8018 Y51.3074
G01 X31.4561 Y50.7305
G01 X31.1685 Y50.1226
G01 X30.9420 Y49.4894
G01 X30.7786 Y48.8370
G01 X30.6799 Y48.1717
G01 X30.6469 Y47.5000
G01 X29.4454 Y47.5000
G01 X29.4842 Y46.7105
G01 X29.6002 Y45.9286
G01 X29.7923 Y45.1619
G01 X30.0585 Y44.4176
G01 X30.3965 Y43.7031
G01 X30.8029 Y43.0251
G01 X31.2737 Y42.3902
G01 X31.8046 Y41.8046
G01 X32.3902 Y41.2737
G01 X33.0251 Y40.8029
G01 X33.7031 Y40.3965
G01 X34.4176 Y40.0585
G01 X35.1619 Y39.7923
G01 X35.9286 Y39.6002
G01 X36.7105 Y39.4842
G01 X37.5000 Y39.4454
G01 X38.2895 Y39.4842
G01 X39.0714 Y39.6002
G01 X39.8381 Y39.7923
G01 X40.5824 Y40.0585
G01 X41.2969 Y40.3965
G01 X41.9749 Y40.8029
G01 X42.6098 Y41.2737
G01 X43.1954 Y41.8046
G01 X43.7263 Y42.3902
G01 X44.1971 Y43.0251
G01 X44.6035 Y43.7031
G01 X44.9415 Y44.4176
G01 X45.2077 Y45.1619
G01 X45.3998 Y45.9286
G01 X45.5158 Y46.7105
G01 X45.5546 Y47.5000
G01 X45.5158 Y48.2895
G01 X45.3998 Y49.0714
G01 X45.2077 Y49.8381
G01 X44.9415 Y50.5824
G01 X44.6035 Y51.2969
G01 X44.1971 Y51.9749
G01 X43.7263 Y52.6098
G01 X43.1954 Y53.1954
G01 X42.6098 Y53.7263
G01 X41.9749 Y54.1971
G01 X41.2969 Y54.6035
G01 X40.5824 Y54.9415
G01 X39.8381 Y55.2077
G01 X39.0714 Y55.3998
G01 X38.2895 Y55.5158
G01 X37.5000 Y55.5546
G01 X36.7105 Y55.5158
G01 X35.9286 Y55.3998
G01 X35.1619 Y55.2077
G01 X34.4176 Y54.9415
G01 X33.7031 Y54.6035
G01 X33.0251 Y54.1971
G01 X32.3902 Y53.7263
G01 X31.8046 Y53.1954
G01 X31.2737 Y52.6098
G01 X30.8029 Y51.9749
G01 X30.3965 Y51.2969
G01 X30.0585 Y50.5824
G01 X29.7923 Y49.8381
G01 X29.6002 Y49.0714
G01 X29.4842 Y48.2895
G01 X29.4454 Y47.5000
G01 X28.2440 Y47.5000
G01 X28.2885 Y46.5928
G01 X28.4218 Y45.6942
G01 X28.6425 Y44.8131
G01 X28.9485 Y43.9579
G01 X29.3369 Y43.1367
G01 X29.8039 Y42.3576
G01 X30.3450 Y41.6280
G01 X30.9550 Y40.9550
G01 X31.6280 Y40.3450
G01 X32.3576 Y39.8039
G01 X33.1367 Y39.3369
G01 X33.9579 Y38.9485
G01 X34.8131 Y38.6425
G01 X35.6942 Y38.4218
G01 X36.5928 Y38.2885
G01 X37.5000 Y38.2440
G01 X38.4072 Y38.2885
G01 X39.3058 Y38.4218
G01 X40.1869 Y38.6425
G01 X41.0421 Y38.9485
G01 X41.8633 Y39.3369
G01 X42.6424 Y39.8039
G01 X43.3720 Y40.3450
G01 X44.0450 Y40.9550
G01 X44.6550 Y41.6280
G01 X45.1961 Y42.3576
G01 X45.6631 Y43.1367
G01 X46.0515 Y43.9579
G01 X46.3575 Y44.8131
G01 X46.5782 Y45.6942
G01 X46.7115 Y46.5928
G01 X46.7560 Y47.5000
G01 X46.7115 Y48.4072
G01 X46.5782 Y49.3058
G01 X46.3575 Y50.1869
G01 X46.0515 Y51.0421
G01 X45.6631 Y51.8633
G01 X45.1961 Y52.6424
G01 X44.6550 Y53.3720
G01 X44.0450 Y54.0450
G01 X43.3720 Y54.6550
G01 X42.6424 Y55.1961
G01 X41.8633 Y55.6631
G01 X41.0421 Y56.0515
G01 X40.1869 Y56.3575
G01 X39.3058 Y56.5782
G01 X38.4072 Y56.7115
G01 X37.5000 Y56.7560
G01 X36.5928 Y56.7115
G01 X35.6942 Y56.5782
G01 X34.8131 Y56.3575
G01 X33.9579 Y56.0515
G01 X33.1367 Y55.6631
G01 X32.3576 Y55.1961
G01 X31.6280 Y54.6550
G01 X30.9550 Y54.0450
G01 X30.3450 Y53.3720
G01 X29.8039 Y52.6424
G01 X29.3369 Y51.8633
G01 X28.9485 Y51.0421
G01 X28.6425 Y50.1869
G01 X28.4218 Y49.3058
G01 X28.2885 Y48.4072
G01 X28.2440 Y47.5000
G01 X27.0425 Y47.5000
G01 X27.0929 Y46.4750
G01 X27.2435 Y45.4598
G01 X27.4928 Y44.4644
G01 X27.8386 Y43.4981
G01 X28.2773 Y42.5704
G01 X28.8049 Y41.6901
G01 X29.4163 Y40.8659
G01 X30.1055 Y40.1055
G01 X30.8659 Y39.4163
G01 X31.6901 Y38.8049
G01 X32.5704 Y38.2773
G01 X33.4981 Y37.8386
G01 X34.4644 Y37.4928
G01 X35.4598 Y37.2435
G01 X36.4750 Y37.0929
G01 X37.5000 Y37.0425
G01 X38.5250 Y37.0929
G01 X39.5402 Y37.2435
G01 X40.5356 Y37.4928
G01 X41.5019 Y37.8386
G01 X42.4296 Y38.2773
G01 X43.3099 Y38.8049
G01 X44.1341 Y39.4163
G01 X44.8945 Y40.1055
G01 X45.5837 Y40.8659
G01 X46.1951 Y41.6901
G01 X46.7227 Y42.5704
G01 X47.1614 Y43.4981
G01 X47.5072 Y44.4644
G01 X47.7565 Y45.4598
G01 X47.9071 Y46.4750
G01 X47.9575 Y47.5000
G01 X47.9071 Y48.5250
G01 X47.7565 Y49.5402
G01 X47.5072 Y50.5356
G01 X47.1614 Y51.5019
G01 X46.7227 Y52.4296
G01 X46.1951 Y53.3099
G01 X45.5837 Y54.1341
G01 X44.8945 Y54.8945
G01 X44.1341 Y55.5837
G01 X43.3099 Y56.1951
G01 X42.4296 Y56.7227
G01 X41.5019 Y57.1614
G01 X40.5356 Y57.5072
G01 X39.5402 Y57.7565
G01 X38.5250 Y57.9071
G01 X37.5000 Y57.9575
G01 X36.4750 Y57.9071
G01 X35.4598 Y57.7565
G01 X34.4644 Y57.5072
G01 X33.4981 Y57.1614
G01 X32.5704 Y56.7227
G01 X31.6901 Y56.1951
G01 X30.8659 Y55.5837
G01 X30.1055 Y54.8945
G01 X29.4163 Y54.1341
G01 X28.8049 Y53.3099
G01 X28.2773 Y52.4296
G01 X27.8386 Y51.5019
G01 X27.4928 Y50.5356
G01 X27.2435 Y49.5402
G01 X27.0929 Y48.5250
G01 X27.0425 Y47.5000
G01 X25.8411 Y47.5000
G01 X25.8972 Y46.3572
G01 X26.0651 Y45.2255
G01 X26.3431 Y44.1156
G01 X26.7286 Y43.0383
G01 X27.2178 Y42.0040
G01 X27.8060 Y41.0227
G01 X28.4875 Y40.1037
G01 X29.2559 Y39.2559
G01 X30.1037 Y38.4875
G01 X31.0227 Y37.8060
G01 X32.0040 Y37.2178
G01 X33.0383 Y36.7286
G01 X34.1156 Y36.3431
G01 X35.2255 Y36.0651
G01 X36.3572 Y35.8972
G01 X37.5000 Y35.8411
G01 X38.6428 Y35.8972
G01 X39.7745 Y36.0651
G01 X40.8844 Y36.3431
G01 X41.9617 Y36.7286
G01 X42.9960 Y37.2178
G01 X43.9773 Y37.8060
G01 X44.8963 Y38.4875
G01 X45.7441 Y39.2559
G01 X46.5125 Y40.1037
G01 X47.1940 Y41.0227
G01 X47.7822 Y42.0040
G01 X48.2714 Y43.0383
G01 X48.6569 Y44.1156
G01 X48.9349 Y45.2255
G01 X49.1028 Y46.3572
G01 X49.1589 Y47.5000
G01 X49.1028 Y48.6428
G01 X48.9349 Y49.7745
G01 X48.6569 Y50.8844
G01 X48.2714 Y51.9617
G01 X47.7822 Y52.9960
G01 X47.1940 Y53.9773
G01 X46.5125 Y54.8963
G01 X45.7441 Y55.7441
G01 X44.8963 Y56.5125
G01 X43.9773 Y57.1940
G01 X42.9960 Y57.7822
G01 X41.9617 Y58.2714
G01 X40.8844 Y58.6569
G01 X39.7745 Y58.9349
G01 X38.6428 Y59.1028
G01 X37.5000 Y59.1589
G01 X36.3572 Y59.1028
G01 X35.2255 Y58.9349
G01 X34.1156 Y58.6569
G01 X33.0383 Y58.2714
G01 X32.0040 Y57.7822
G01 X31.0227 Y57.1940
G01 X30.1037 Y56.5125
G01 X29.2559 Y55.7441
G01 X28.4875 Y54.8963
G01 X27.8060 Y53.9773
G01 X27.2178 Y52.9960
G01 X26.7286 Y51.9617
G01 X26.3431 Y50.8844
G01 X26.0651 Y49.7745
G01 X25.8972 Y48.6428
G01 X25.8411 Y47.5000
G01 X24.6396 Y47.5000
G01 X24.7016 Y46.2395
G01 X24.8867 Y44.9911
G01 X25.1934 Y43.7668
G01 X25.6186 Y42.5786
G01 X26.1582 Y41.4377
G01 X26.8070 Y40.3552
G01 X27.5588 Y39.3415
G01 X28.4063 Y38.4063
G01 X29.3415 Y37.5588
G01 X30.3552 Y36.8070
G01 X31.4377 Y36.1582
G01 X32.5786 Y35.6186
G01 X33.7668 Y35.1934
G01 X34.9911 Y34.8867
G01 X36.2395 Y34.7016
G01 X37.5000 Y34.6396
G01 X38.7605 Y34.7016
G01 X40.0089 Y34.8867
G01 X41.2332 Y35.1934
G01 X42.4214 Y35.6186
G01 X43.5623 Y36.1582
G01 X44.6448 Y36.8070
G01 X45.6585 Y37.5588
G01 X46.5937 Y38.4063
G01 X47.4412 Y39.3415
G01 X48.1930 Y40.3552
G01 X48.8418 Y41.4377
G01 X49.3814 Y42.5786
G01 X49.8066 Y43.7668
G01 X50.1133 Y44.9911
G01 X50.2984 Y46.2395
G01 X50.3604 Y47.5000
G01 X50.2984 Y48.7605
G01 X50.1133 Y50.0089
G01 X49.8066 Y51.2332
G01 X49.3814 Y52.4214
G01 X48.8418 Y53.5623
G01 X48.1930 Y54.6448
G01 X47.4412 Y55.6585
G01 X46.5937 Y56.5937
G01 X45.6585 Y57.4412
G01 X44.6448 Y58.1930
G01 X43.5623 Y58.8418
G01 X42.4214 Y59.3814
G01 X41.2332 Y59.8066
G01 X40.0089 Y60.1133
G01 X38.7605 Y60.2984
G01 X37.5000 Y60.3604
G01 X36.2395 Y60.2984
G01 X34.9911 Y60.1133
G01 X33.7668 Y59.8066
G01 X32.5786 Y59.3814
G01 X31.4377 Y58.8418
G01 X30.3552 Y58.1930
G01 X29.3415 Y57.4412
G01 X28.4063 Y56.5937
G01 X27.5588 Y55.6585
G01 X26.8070 Y54.6448
G01 X26.1582 Y53.5623
G01 X25.6186 Y52.4214
G01 X25.1934 Y51.2332
G01 X24.8867 Y50.0089
G01 X24.7016 Y48.7605
G01 X24.6396 Y47.5000
G01 X23.4382 Y47.5000
G01 X23.5059 Y46.1217
G01 X23.7084 Y44.7567
G01 X24.0437 Y43.4181
G01 X24.5086 Y42.1188
G01 X25.0986 Y40.8713
G01 X25.8080 Y39.6877
G01 X26.6301 Y38.5793
G01 X27.5568 Y37.5568
G01 X28.5793 Y36.6301
G01 X29.6877 Y35.8080
G01 X30.8713 Y35.0986
G01 X32.1188 Y34.5086
G01 X33.4181 Y34.0437
G01 X34.7567 Y33.7084
G01 X36.1217 Y33.5059
G01 X37.5000 Y33.4382
G01 X38.8783 Y33.5059
G01 X40.2433 Y33.7084
G01 X41.5819 Y34.0437
G01 X42.8812 Y34.5086
G01 X44.1287 Y35.0986
G01 X45.3123 Y35.8080
G01 X46.4207 Y36.6301
G01 X47.4432 Y37.5568
G01 X48.3699 Y38.5793
G01 X49.1920 Y39.6877
G01 X49.9014 Y40.8713
G01 X50.4914 Y42.1188
G01 X50.9563 Y43.4181
G01 X51.2916 Y44.7567
G01 X51.4941 Y46.1217
G01 X51.5618 Y47.5000
G01 X51.4941 Y48.8783
G01 X51.2916 Y50.2433
G01 X50.9563 Y51.5819
G01 X50.4914 Y52.8812
G01 X49.9014 Y54.1287
G01 X49.1920 Y55.3123
G01 X48.3699 Y56.4207
G01 X47.4432 Y57.4432
G01 X46.4207 Y58.3699
G01 X45.3123 Y59.1920
G01 X44.1287 Y59.9014
G01 X42.8812 Y60.4914
G01 X41.5819 Y60.9563
G01 X40.2433 Y61.2916
G01 X38.8783 Y61.4941
G01 X37.5000 Y61.5618
G01 X36.1217 Y61.4941
G01 X34.7567 Y61.2916
G01 X33.4181 Y60.9563
G01 X32.1188 Y60.4914
G01 X30.8713 Y59.9014
G01 X29.6877 Y59.1920
G01 X28.5793 Y58.3699
G01 X27.5568 Y57.4432
G01 X26.6301 Y56.4207
G01 X25.8080 Y55.3123
G01 X25.0986 Y54.1287
G01 X24.5086 Y52.8812
G01 X24.0437 Y51.5819
G01 X23.7084 Y50.2433
G01 X23.5059 Y48.8783
G01 X23.4382 Y47.5000
G01 X22.2367 Y47.5000
G01 X22.3102 Y46.0039
G01 X22.5300 Y44.5223
G01 X22.8940 Y43.0693
G01 X23.3986 Y41.6590
G01 X24.0390 Y40.3049
G01 X24.8091 Y39.0202
G01 X25.7013 Y37.8171
G01 X26.7072 Y36.7072
G01 X27.8171 Y35.7013
G01 X29.0202 Y34.8091
G01 X30.3049 Y34.0390
G01 X31.6590 Y33.3986
G01 X33.0693 Y32.8940
G01 X34.5223 Y32.5300
G01 X36.0039 Y32.3102
G01 X37.5000 Y32.2367
G01 X38.9961 Y32.3102
G01 X40.4777 Y32.5300
G01 X41.9307 Y32.8940
G01 X43.3410 Y33.3986
G01 X44.6951 Y34.0390
G01 X45.9798 Y34.8091
G01 X47.1829 Y35.7013
G01 X48.2928 Y36.7072
G01 X49.2987 Y37.8171
G01 X50.1909 Y39.0202
G01 X50.9610 Y40.3049
G01 X51.6014 Y41.6590
G01 X52.1060 Y43.0693
G01 X52.4700 Y44.5223
G01 X52.6898 Y46.0039
G01 X52.7633 Y47.5000
G01 X52.6898 Y48.9961
G01 X52.4700 Y50.4777
G01 X52.1060 Y51.9307
G01 X51.6014 Y53.3410
G01 X50.9610 Y54.6951
G01 X50.1909 Y55.9798
G01 X49.2987 Y57.1829
G01 X48.2928 Y58.2928
G01 X47.1829 Y59.2987
G01 X45.9798 Y60.1909
G01 X44.6951 Y60.9610
G01 X43.3410 Y61.6014
G01 X41.9307 Y62.1060
G01 X40.4777 Y62.4700
G01 X38.9961 Y62.6898
G01 X37.5000 Y62.7633
G01 X36.0039 Y62.6898
G01 X34.5223 Y62.4700
G01 X33.0693 Y62.1060
G01 X31.6590 Y61.6014
G01 X30.3049 Y60.9610
G01 X29.0202 Y60.1909
G01 X27.8171 Y59.2987
G01 X26.7072 Y58.2928
G01 X25.7013 Y57.1829
G01 X24.8091 Y55.9798
G01 X24.0390 Y54.6951
G01 X23.3986 Y53.3410
G01 X22.8940 Y51.9307
G01 X22.5300 Y50.4777
G01 X22.3102 Y48.9961
G01 X22.2367 Y47.5000
G01 X21.0353 Y47.5000
G01 X21.1146 Y45.8862
G01 X21.3517 Y44.2879
G01 X21.7443 Y42.7205
G01 X22.2886 Y41.1992
G01 X22.9794 Y39.7386
G01 X23.8101 Y38.3527
G01 X24.7726 Y37.0549
G01 X25.8577 Y35.8577
G01 X27.0549 Y34.7726
G01 X28.3527 Y33.8101
G01 X29.7386 Y32.9794
G01 X31.1992 Y32.2886
G01 X32.7205 Y31.7443
G01 X34.2879 Y31.3517
G01 X35.8862 Y31.1146
G01 X37.5000 Y31.0353
G01 X39.1138 Y31.1146
G01 X40.7121 Y31.3517
G01 X42.2795 Y31.7443
G01 X43.8008 Y32.2886
G01 X45.2614 Y32.9794
G01 X46.6473 Y33.8101
G01 X47.9451 Y34.7726
G01 X49.1423 Y35.8577
G01 X50.2274 Y37.0549
G01 X51.1899 Y38.3527
G01 X52.0206 Y39.7386
G01 X52.7114 Y41.1992
G01 X53.2557 Y42.7205
G01 X53.6483 Y44.2879
G01 X53.8854 Y45.8862
G01 X53.9647 Y47.5000
G01 X53.8854 Y49.1138
G01 X53.6483 Y50.7121
G01 X53.2557 Y52.2795
G01 X52.7114 Y53.8008
G01 X52.0206 Y55.2614
G01 X51.1899 Y56.6473
G01 X50.2274 Y57.9451
G01 X49.1423 Y59.1423
G01 X47.9451 Y60.2274
G01 X46.6473 Y61.1899
G01 X45.2614 Y62.0206
G01 X43.8008 Y62.7114
G01 X42.2795 Y63.2557
G01 X40.7121 Y63.6483
G01 X39.1138 Y63.8854
G01 X37.5000 Y63.9647
G01 X35.8862 Y63.8854
G01 X34.2879 Y63.6483
G01 X32.7205 Y63.2557
G01 X31.1992 Y62.7114
G01 X29.7386 Y62.0206
G01 X28.3527 Y61.1899
G01 X27.0549 Y60.2274
G01 X25.8577 Y59.1423
G01 X24.7726 Y57.9451
G01 X23.8101 Y56.6473
G01 X22.9794 Y55.2614
G01 X22.2886 Y53.8008
G01 X21.7443 Y52.2795
G01 X21.3517 Y50.7121
G01 X21.1146 Y49.1138
G01 X21.0353 Y47.5000
G01 X19.8338 Y47.5000
G01 X19.9189 Y45.7684
G01 X20.1733 Y44.0535
G01 X20.5945 Y42.3718
G01 X21.1786 Y40.7395
G01 X21.9198 Y39.1722
G01 X22.8111 Y37.6852
G01 X23.8439 Y36.2927
G01 X25.0081 Y35.0081
G01 X26.2927 Y33.8439
G01 X27.6852 Y32.8111
G01 X29.1722 Y31.9198
G01 X30.7395 Y31.1786
G01 X32.3718 Y30.5945
G01 X34.0535 Y30.1733
G01 X35.7684 Y29.9189
G01 X37.5000 Y29.8338
G01 X39.2316 Y29.9189
G01 X40.9465 Y30.1733
G01 X42.6282 Y30.5945
G01 X44.2605 Y31.1786
G01 X45.8278 Y31.9198
G01 X47.3148 Y32.8111
G01 X48.7073 Y33.8439
G01 X49.9919 Y35.0081
G01 X51.1561 Y36.2927
G01 X52.1889 Y37.6852
G01 X53.0802 Y39.1722
G01 X53.8214 Y40.7395
G01 X54.4055 Y42.3718
G01 X54.8267 Y44.0535
G01 X55.0811 Y45.7684
G01 X55.1662 Y47.5000
G01 X55.0811 Y49.2316
G01 X54.8267 Y50.9465
G01 X54.4055 Y52.6282
G01 X53.8214 Y54.2605
G01 X53.0802 Y55.8278
G01 X52.1889 Y57.3148
G01 X51.1561 Y58.7073
G01 X49.9919 Y59.9919
G01 X48.7073 Y61.1561
G01 X47.3148 Y62.1889
G01 X45.8278 Y63.0802
G01 X44.2605 Y63.8214
G01 X42.6282 Y64.4055
G01 X40.9465 Y64.8267
G01 X39.2316 Y65.0811
G01 X37.5000 Y65.1662
G01 X35.7684 Y65.0811
G01 X34.0535 Y64.8267
G01 X32.3718 Y64.4055
G01 X30.7395 Y63.8214
G01 X29.1722 Y63.0802
G01 X27.6852 Y62.1889
G01 X26.2927 Y61.1561
G01 X25.0081 Y59.9919
G01 X23.8439 Y58.7073
G01 X22.8111 Y57.3148
G01 X21.9198 Y55.8278
G01 X21.1786 Y54.2605
G01 X20.5945 Y52.6282
G01 X20.1733 Y50.9465
G01 X19.9189 Y49.2316
G01 X19.8338 Y47.5000
G01 X18.6324 Y47.5000
G01 X18.7233 Y45.6507
G01 X18.9949 Y43.8191
G01 X19.4448 Y42.0230
G01 X20.0686 Y40.2797
G01 X20.8603 Y38.6059
G01 X21.8122 Y37.0177
G01 X22.9151 Y35.5305
G01 X24.1586 Y34.1586
G01 X25.5305 Y32.9151
G01 X27.0177 Y31.8122
G01 X28.6059 Y30.8603
G01 X30.2797 Y30.0686
G01 X32.0230 Y29.4448
G01 X33.8191 Y28.9949
G01 X35.6507 Y28.7233
G01 X37.5000 Y28.6324
G01 X39.3493 Y28.7233
G01 X41.1809 Y28.9949
G01 X42.9770 Y29.4448
G01 X44.7203 Y30.0686
G01 X46.3941 Y30.8603
G01 X47.9823 Y31.8122
G01 X49.4695 Y32.9151
G01 X50.8414 Y34.1586
G01 X52.0849 Y35.5305
G01 X53.1878 Y37.0177
G01 X54.1397 Y38.6059
G01 X54.9314 Y40.2797
G01 X55.5552 Y42.0230
G01 X56.0051 Y43.8191
G01 X56.2767 Y45.6507
G01 X56.3676 Y47.5000
G01 X56.2767 Y49.3493
G01 X56.0051 Y51.1809
G01 X55.5552 Y52.9770
G01 X54.9314 Y54.7203
G01 X54.1397 Y56.3941
G01 X53.1878 Y57.9823
G01 X52.0849 Y59.4695
G01 X50.8414 Y60.8414
G01 X49.4695 Y62.0849
G01 X47.9823 Y63.1878
G01 X46.3941 Y64.1397
G01 X44.7203 Y64.9314
G01 X42.9770 Y65.5552
G01 X41.1809 Y66.0051
G01 X39.3493 Y66.2767
G01 X37.5000 Y66.3676
G01 X35.6507 Y66.2767
G01 X33.8191 Y66.0051
G01 X32.0230 Y65.5552
G01 X30.2797 Y64.9314
G01 X28.6059 Y64.1397
G01 X27.0177 Y63.1878
G01 X25.5305 Y62.0849
G01 X24.1586 Y60.8414
G01 X22.9151 Y59.4695
G01 X21.8122 Y57.9823
G01 X20.8603 Y56.3941
G01 X20.0686 Y54.7203
G01 X19.4448 Y52.9770
G01 X18.9949 Y51.1809
G01 X18.7233 Y49.3493
G01 X18.6324 Y47.5000
G01 X17.4310 Y47.5000
G01 X17.5276 Y45.5329
G01 X17.8166 Y43.5847
G01 X18.2951 Y41.6743
G01 X18.9586 Y39.8199
G01 X19.8007 Y38.0395
G01 X20.8132 Y36.3502
G01 X21.9864 Y34.7683
G01 X23.3090 Y33.3090
G01 X24.7683 Y31.9864
G01 X26.3502 Y30.8132
G01 X28.0395 Y29.8007
G01 X29.8199 Y28.9586
G01 X31.6743 Y28.2951
G01 X33.5847 Y27.8166
G01 X35.5329 Y27.5276
G01 X37.5000 Y27.4310
G01 X39.4671 Y27.5276
G01 X41.4153 Y27.8166
G01 X43.3257 Y28.2951
G01 X45.1801 Y28.9586
G01 X46.9605 Y29.8007
G01 X48.6498 Y30.8132
G01 X50.2317 Y31.9864
G01 X51.6910 Y33.3090
G01 X53.0136 Y34.7683
G01 X54.1868 Y36.3502
G01 X55.1993 Y38.0395
G01 X56.0414 Y39.8199
G01 X56.7049 Y41.6743
G01 X57.1834 Y43.5847
G01 X57.4724 Y45.5329
G01 X57.5690 Y47.5000
G01 X57.4724 Y49.4671
G01 X57.1834 Y51.4153
G01 X56.7049 Y53.3257
G01 X56.0414 Y55.1801
G01 X55.1993 Y56.9605
G01 X54.1868 Y58.6498
G01 X53.0136 Y60.2317
G01 X51.6910 Y61.6910
G01 X50.2317 Y63.0136
G01 X48.6498 Y64.1868
G01 X46.9605 Y65.1993
G01 X45.1801 Y66.0414
G01 X43.3257 Y66.7049
G01 X41.4153 Y67.1834
G01 X39.4671 Y67.4724
G01 X37.5000 Y67.5690
G01 X35.5329 Y67.4724
G01 X33.5847 Y67.1834
G01 X31.6743 Y66.7049
G01 X29.8199 Y66.0414
G01 X28.0395 Y65.1993
G01 X26.3502 Y64.1868
G01 X24.7683 Y63.0136
G01 X23.3090 Y61.6910
G01 X21.9864 Y60.2317
G01 X20.8132 Y58.6498
G01 X19.8007 Y56.9605
G01 X18.9586 Y55.1801
G01 X18.2951 Y53.3257
G01 X17.8166 Y51.4153
G01 X17.5276 Y49.4671
G01 X17.4310 Y47.5000
G01 X16.2295 Y47.5000
G01 X16.3319 Y45.4151
G01 X16.6382 Y43.3503
G01 X17.1454 Y41.3255
G01 X17.8486 Y39.3601
G01 X18.7411 Y37.4732
G01 X19.8142 Y35.6827
G01 X21.0577 Y34.0061
G01 X22.4595 Y32.4595
G01 X24.0061 Y31.0577
G01 X25.6827 Y29.8142
G01 X27.4732 Y28.7411
G01 X29.3601 Y27.8486
G01 X31.3255 Y27.1454
G01 X33.3503 Y26.6382
G01 X35.4151 Y26.3319
G01 X37.5000 Y26.2295
G01 X39.5849 Y26.3319
G01 X41.6497 Y26.6382
G01 X43.6745 Y27.1454
G01 X45.6399 Y27.8486
G01 X47.5268 Y28.7411
G01 X49.3173 Y29.8142
G01 X50.9939 Y31.0577
G01 X52.5405 Y32.4595
G01 X53.9423 Y34.0061
G01 X55.1858 Y35.6827
G01 X56.2589 Y37.4732
G01 X57.1514 Y39.3601
G01 X57.8546 Y41.3255
G01 X58.3618 Y43.3503
G01 X58.6681 Y45.4151
G01 X58.7705 Y47.5000
G01 X58.6681 Y49.5849
G01 X58.3618 Y51.6497
G01 X57.8546 Y53.6745
G01 X57.1514 Y55.6399
G01 X56.2589 Y57.5268
G01 X55.1858 Y59.3173
G01 X53.9423 Y60.9939
G01 X52.5405 Y62.5405
G01 X50.9939 Y63.9423
G01 X49.3173 Y65.1858
G01 X47.5268 Y66.2589
G01 X45.6399 Y67.1514
G01 X43.6745 Y67.8546
G01 X41.6497 Y68.3618
G01 X39.5849 Y68.6681
G01 X37.5000 Y68.7705
G01 X35.4151 Y68.6681
G01 X33.3503 Y68.3618
G01 X31.3255 Y67.8546
G01 X29.3601 Y67.1514
G01 X27.4732 Y66.2589
G01 X25.6827 Y65.1858
G01 X24.0061 Y63.9423
G01 X22.4595 Y62.5405
G01 X21.0577 Y60.9939
G01 X19.8142 Y59.3173
G01 X18.7411 Y57.5268
G01 X17.8486 Y55.6399
G01 X17.1454 Y53.6745
G01 X16.6382 Y51.6497
G01 X16.3319 Y49.5849
G01 X16.2295 Y47.5000
G01 X15.0281 Y47.5000
G01 X15.1363 Y45.2974
G01 X15.4599 Y43.1159
G01 X15.9957 Y40.9767
G01 X16.7386 Y38.9004
G01 X17.6815 Y36.9068
G01 X18.8153 Y35.0153
G01 X20.1290 Y33.2440
G01 X21.6099 Y31.6099
G01 X23.2440 Y30.1290
G01 X25.0153 Y28.8153
G01 X26.9068 Y27.6815
G01 X28.9004 Y26.7386
G01 X30.9767 Y25.9957
G01 X33.1159 Y25.4599
G01 X35.2974 Y25.1363
G01 X37.5000 Y25.0281
G01 X39.7026 Y25.1363
G01 X41.8841 Y25.4599
G01 X44.0233 Y25.9957
G01 X46.0996 Y26.7386
G01 X48.0932 Y27.6815
G01 X49.9847 Y28.8153
G01 X51.7560 Y30.1290
G01 X53.3901 Y31.6099
G01 X54.8710 Y33.2440
G01 X56.1847 Y35.0153
G01 X57.3185 Y36.9068
G01 X58.2614 Y38.9004
G01 X59.0043 Y40.9767
G01 X59.5401 Y43.1159
G01 X59.8637 Y45.2974
G01 X59.9719 Y47.5000
G01 X59.8637 Y49.7026
G01 X59.5401 Y51.8841
G01 X59.0043 Y54.0233
G01 X58.2614 Y56.0996
G01 X57.3185 Y58.0932
G01 X56.1847 Y59.9847
G01 X54.8710 Y61.7560
G01 X53.3901 Y63.3901
G01 X51.7560 Y64.8710
G01 X49.9847 Y66.1847
G01 X48.0932 Y67.3185
G01 X46.0996 Y68.2614
G01 X44.0233 Y69.0043
G01 X41.8841 Y69.5401
G01 X39.7026 Y69.8637
G01 X37.5000 Y69.9719
G01 X35.2974 Y69.8637
G01 X33.1159 Y69.5401
G01 X30.9767 Y69.0043
G01 X28.9004 Y68.2614
G01 X26.9068 Y67.3185
G01 X25.0153 Y66.1847
G01 X23.2440 Y64.8710
G01 X21.6099 Y63.3901
G01 X20.1290 Y61.7560
G01 X18.8153 Y59.9847
G01 X17.6815 Y58.0932
G01 X16.7386 Y56.0996
G01 X15.9957 Y54.0233
G01 X15.4599 Y51.8841
G01 X15.1363 Y49.7026
G01 X15.0281 Y47.5000
G00 X15.0281 Y47.5000
G01 F100.00
G01 Z-1.2000
G01 F200.00
G01 X15.1363 Y49.7026
G01 X15.4599 Y51.8841
G01 X15.9957 Y54.0233
G01 X16.7386 Y56.0996
G01 X17.6815 Y58.0932
G01 X18.8153 Y59.9847
G01 X20.1290 Y61.7560
G01 X21.6099 Y63.3901
G01 X23.2440 Y64.8710
G01 X25.0153 Y66.1847
G01 X26.9068 Y67.3185
G01 X28.9004 Y68.2614
G01 X30.9767 Y69.0043
G01 X33.1159 Y69.5401
G01 X35.2974 Y69.8637
G01 X37.5000 Y69.9719
G01 X39.7026 Y69.8637
G01 X41.8841 Y69.5401
G01 X44.0233 Y69.0043
G01 X46.0996 Y68.2614
G01 X48.0932 Y67.3185
G01 X49.9847 Y66.1847
G01 X51.7560 Y64.8710
G01 X53.3901 Y63.3901
G01 X54.8710 Y61.7560
G01 X56.1847 Y59.9847
G01 X57.3185 Y58.0932
G01 X58.2614 Y56.0996
G01 X59.0043 Y54.0233
G01 X59.5401 Y51.8841
G01 X59.8637 Y49.7026
G01 X59.9719 Y47.5000
G01 X59.8637 Y45.2974
G01 X59.5401 Y43.1159
G01 X59.0043 Y40.9767
G01 X58.2614 Y38.9004
G01 X57.3185 Y36.9068
G01 X56.1847 Y35.0153
G01 X54.8710 Y33.2440
G01 X53.3901 Y31.6099
G01 X51.7560 Y30.1290
G01 X49.9847 Y28.8153
G01 X48.0932 Y27.6815
G01 X46.0996 Y26.7386
G01 X44.0233 Y25.9957
G01 X41.8841 Y25.4599
G01 X39.7026 Y25.1363
G01 X37.5000 Y25.0281
G01 X35.2974 Y25.1363
G01 X33.1159 Y25.4599
G01 X30.9767 Y25.9957
G01 X28.9004 Y26.7386
G01 X26.9068 Y27.6815
G01 X25.0153 Y28.8153
G01 X23.2440 Y30.1290
G01 X21.6099 Y31.6099
G01 X20.1290 Y33.2440
G01 X18.8153 Y35.0153
G01 X17.6815 Y36.9068
G01 X16.7386 Y38.9004
G01 X15.9957 Y40.9767
G01 X15.4599 Y43.1159
G01 X15.1363 Y45.2974
G01 X15.0281 Y47.5000
G01 X16.2295 Y47.5000
G01 X16.3319 Y49.5849
G01 X16.6382 Y51.6497
G01 X17.1454 Y53.6745
G01 X17.8486 Y55.6399
G01 X18.7411 Y57.5268
G01 X19.8142 Y59.3173
G01 X21.0577 Y60.9939
G01 X22.4595 Y62.5405
G01 X24.0061 Y63.9423
G01 X25.6827 Y65.1858
G01 X27.4732 Y66.2589
G01 X29.3601 Y67.1514
G01 X31.3255 Y67.8546
G01 X33.3503 Y68.3618
G01 X35.4151 Y68.6681
G01 X37.5000 Y68.7705
G01 X39.5849 Y68.6681
G01 X41.6497 Y68.3618
G01 X43.6745 Y67.8546
G01 X45.6399 Y67.1514
G01 X47.5268 Y66.2589
G01 X49.3173 Y65.1858
G01 X50.9939 Y63.9423
G01 X52.5405 Y62.5405
G01 X53.9423 Y60.9939
G01 X55.1858 Y59.3173
G01 X56.2589 Y57.5268
G01 X57.1514 Y55.6399
G01 X57.8546 Y53.6745
G01 X58.3618 Y51.6497
G01 X58.6681 Y49.5849
G01 X58.7705 Y47.5000
G01 X58.6681 Y45.4151
G01 X58.3618 Y43.3503
G01 X57.8546 Y41.3255
G01 X57.1514 Y39.3601
G01 X56.2589 Y37.4732
G01 X55.1858 Y35.6827
G01 X53.9423 Y34.0061
G01 X52.5405 Y32.4595
G01 X50.9939 Y31.0577
G01 X49.3173 Y29.8142
G01 X47.5268 Y28.7411
G01 X45.6399 Y27.8486
G01 X43.6745 Y27.1454
G01 X41.6497 Y26.6382
G01 X39.5849 Y26.3319
G01 X37.5000 Y26.2295
G01 X35.4151 Y26.3319
G01 X33.3503 Y26.6382
G01 X31.3255 Y27.1454
G01 X29.3601 Y27.8486
G01 X27.4732 Y28.7411
G01 X25.6827 Y29.8142
G01 X24.0061 Y31.0577
G01 X22.4595 Y32.4595
G01 X21.0577 Y34.0061
G01 X19.8142 Y35.6827
G01 X18.7411 Y37.4732
G01 X17.8486 Y39.3601
G01 X17.1454 Y41.3255
G01 X16.6382 Y43.3503
G01 X16.3319 Y45.4151
G01 X16.2295 Y47.5000
G01 X17.4310 Y47.5000
G01 X17.5276 Y49.4671
G01 X17.8166 Y51.4153
G01 X18.2951 Y53.3257
G01 X18.9586 Y55.1801
G01 X19.8007 Y56.9605
G01 X20.8132 Y58.6498
G01 X21.9864 Y60.2317
G01 X23.3090 Y61.6910
G01 X24.7683 Y63.0136
G01 X26.3502 Y64.1868
G01 X28.0395 Y65.1993
G01 X29.8199 Y66.0414
G01 X31.6743 Y66.7049
G01 X33.5847 Y67.1834
G01 X35.5329 Y67.4724
G01 X37.5000 Y67.5690
G01 X39.4671 Y67.4724
G01 X41.4153 Y67.1834
G01 X43.3257 Y66.7049
G01 X45.1801 Y66.0414
G01 X46.9605 Y65.1993
G01 X48.6498 Y64.1868
G01 X50.2317 Y63.0136
G01 X51.6910 Y61.6910
G01 X53.0136 Y60.2317
G01 X54.1868 Y58.6498
G01 X55.1993 Y56.9605
G01 X56.0414 Y55.1801
G01 X56.7049 Y53.3257
G01 X57.1834 Y51.4153
G01 X57.4724 Y49.4671
G01 X57.5690 Y47.5000
G01 X57.4724 Y45.5329
G01 X57.1834 Y43.5847
G01 X56.7049 Y41.6743
G01 X56.0414 Y39.8199
G01 X55.1993 Y38.0395
G01 X54.1868 Y36.3502
G01 X53.0136 Y34.7683
G01 X51.6910 Y33.3090
G01 X50.2317 Y31.9864
G01 X48.6498 Y30.8132
G01 X46.9605 Y29.8007
G01 X45.1801 Y28.9586
G01 X43.3257 Y28.2951
G01 X41.4153 Y27.8166
G01 X39.4671 Y27.5276
G01 X37.5000 Y27.4310
G01 X35.5329 Y27.5276
G01 X33.5847 Y27.8166
G01 X31.6743 Y28.2951
G01 X29.8199 Y28.9586
G01 X28.0395 Y29.8007
G01 X26.3502 Y30.8132
G01 X24.7683 Y31.9864
G01 X23.3090 Y33.3090
G01 X21.9864 Y34.7683
G01 X20.8132 Y36.3502
G01 X19.8007 Y38.0395
G01 X18.9586 Y39.8199
G01 X18.2951 Y41.6743
G01 X17.8166 Y43.5847
G01 X17.5276 Y45.5329
G01 X17.4310 Y47.5000
G01 X18.6324 Y47.5000
G01 X18.7233 Y49.3493
G01 X18.9949 Y51.1809
G01 X19.4448 Y52.9770
G01 X20.0686 Y54.7203
G01 X20.8603 Y56.3941
G01 X21.8122 Y57.9823
G01 X22.9151 Y59.4695
G01 X24.1586 Y60.8414
G01 X25.5305 Y62.0849
G01 X27.0177 Y63.1878
G01 X28.6059 Y64.1397
G01 X30.2797 Y64.9314
G01 X32.0230 Y65.5552
G01 X33.8191 Y66.0051
G01 X35.6507 Y66.2767
G01 X37.5000 Y66.3676
G01 X39.3493 Y66.2767
G01 X41.1809 Y66.0051
G01 X42.9770 Y65.5552
G01 X44.7203 Y64.9314
G01 X46.3941 Y64.1397
G01 X47.9823 Y63.1878
G01 X49.4695 Y62.0849
G01 X50.8414 Y60.8414
G01 X52.0849 Y59.4695
G01 X53.1878 Y57.9823
G01 X54.1397 Y56.3941
G01 X54.9314 Y54.7203
G01 X55.5552 Y52.9770
G01 X56.0051 Y51.1809
G01 X56.2767 Y49.3493
G01 X56.3676 Y47.5000
G01 X56.2767 Y45.6507
G01 X56.0051 Y43.8191
G01 X55.5552 Y42.0230
G01 X54.9314 Y40.2797
G01 X54.1397 Y38.6059
G01 X53.1878 Y37.0177
G01 X52.0849 Y35.5305
G01 X50.8414 Y34.1586
G01 X49.4695 Y32.9151
G01 X47.9823 Y31.8122
G01 X46.3941 Y30.8603
G01 X44.7203 Y30.0686
G01 X42.9770 Y29.4448
G01 X41.1809 Y28.9949
G01 X39.3493 Y28.7233
G01 X37.5000 Y28.6324
G01 X35.6507 Y28.7233
G01 X33.8191 Y28.9949
G01 X32.0230 Y29.4448
G01 X30.2797 Y30.0686
G01 X28.6059 Y30.8603
G01 X27.0177 Y31.8122
G01 X25.5305 Y32.9151
G01 X24.1586 Y34.1586
G01 X22.9151 Y35.5305
G01 X21.8122 Y37.0177
G01 X20.8603 Y38.6059
G01 X20.0686 Y40.2797
G01 X19.4448 Y42.0230
G01 X18.9949 Y43.8191
G01 X18.7233 Y45.6507
G01 X18.6324 Y47.5000
G01 X19.8338 Y47.5000
G01 X19.9189 Y49.2316
G01 X20.1733 Y50.9465
G01 X20.5945 Y52.6282
G01 X21.1786 Y54.2605
G01 X21.9198 Y55.8278
G01 X22.8111 Y57.3148
G01 X23.8439 Y58.7073
G01 X25.0081 Y59.9919
G01 X26.2927 Y61.1561
G01 X27.6852 Y62.1889
G01 X29.1722 Y63.0802
G01 X30.7395 Y63.8214
G01 X32.3718 Y64.4055
G01 X34.0535 Y64.8267
G01 X35.7684 Y65.0811
G01 X37.5000 Y65.1662
G01 X39.2316 Y65.0811
G01 X40.9465 Y64.8267
G01 X42.6282 Y64.4055
G01 X44.2605 Y63.8214
G01 X45.8278 Y63.0802
G01 X47.3148 Y62.1889
G01 X48.7073 Y61.1561
G01 X49.9919 Y59.9919
G01 X51.1561 Y58.7073
G01 X52.1889 Y57.3148
G01 X53.0802 Y55.8278
G01 X53.8214 Y54.2605
G01 X54.4055 Y52.6282
G01 X54.8267 Y50.9465
G01 X55.0811 Y49.2316
G01 X55.1662 Y47.5000
G01 X55.0811 Y45.7684
G01 X54.8267 Y44.0535
G01 X54.4055 Y42.3718
G01 X53.8214 Y40.7395
G01 X53.0802 Y39.1722
G01 X52.1889 Y37.6852
G01 X51.1561 Y36.2927
G01 X49.9919 Y35.0081
G01 X48.7073 Y33.8439
G01 X47.3148 Y32.8111
G01 X45.8278 Y31.9198
G01 X44.2605 Y31.1786
G01 X42.6282 Y30.5945
G01 X40.9465 Y30.1733
G01 X39.2316 Y29.9189
G01 X37.5000 Y29.8338
G01 X35.7684 Y29.9189
G01 X34.0535 Y30.1733
G01 X32.3718 Y30.5945
G01 X30.7395 Y31.1786
G01 X29.1722 Y31.9198
G01 X27.6852 Y32.8111
G01 X26.2927 Y33.8439
G01 X25.0081 Y35.0081
G01 X23.8439 Y36.2927
G01 X22.8111 Y37.6852
G01 X21.9198 Y39.1722
G01 X21.1786 Y40.7395
G01 X20.5945 Y42.3718
G01 X20.1733 Y44.0535
G01 X19.9189 Y45.7684
G01 X19.8338 Y47.5000
G01 X21.0353 Y47.5000
G01 X21.1146 Y49.1138
G01 X21.3517 Y50.7121
G01 X21.7443 Y52.2795
G01 X22.2886 Y53.8008
G01 X22.9794 Y55.2614
G01 X23.8101 Y56.6473
G01 X24.7726 Y57.9451
G01 X25.8577 Y59.1423
G01 X27.0549 Y60.2274
G01 X28.3527 Y61.1899
G01 X29.7386 Y62.0206
G01 X31.1992 Y62.7114
G01 X32.7205 Y63.2557
G01 X34.2879 Y63.6483
G01 X35.8862 Y63.8854
G01 X37.5000 Y63.9647
G01 X39.1138 Y63.8854
G01 X40.7121 Y63.6483
G01 X42.2795 Y63.2557
G01 X43.8008 Y62.7114
G01 X45.2614 Y62.0206
G01 X46.6473 Y61.1899
G01 X47.9451 Y60.2274
G01 X49.1423 Y59.1423
G01 X50.2274 Y57.9451
G01 X51.1899 Y56.6473
G01 X52.0206 Y55.2614
G01 X52.7114 Y53.8008
G01 X53.2557 Y52.2795
G01 X53.6483 Y50.7121
G01 X53.8854 Y49.1138
G01 X53.9647 Y47.5000
G01 X53.8854 Y45.8862
G01 X53.6483 Y44.2879
G01 X53.2557 Y42.7205
G01 X52.7114 Y41.1992
G01 X52.0206 Y39.7386
G01 X51.1899 Y38.3527
G01 X50.2274 Y37.0549
G01 X49.1423 Y35.8577
G01 X47.9451 Y34.7726
G01 X46.6473 Y33.8101
G01 X45.2614 Y32.9794
G01 X43.8008 Y32.2886
G01 X42.2795 Y31.7443
G01 X40.7121 Y31.3517
G01 X39.1138 Y31.1146
G01 X37.5000 Y31.0353
G01 X35.8862 Y31.1146
G01 X34.2879 Y31.3517
G01 X32.7205 Y31.7443
G01 X31.1992 Y32.2886
G01 X29.7386 Y32.9794
G01 X28.3527 Y33.8101
G01 X27.0549 Y34.7726
G01 X25.8577 Y35.8577
G01 X24.7726 Y37.0549
G01 X23.8101 Y38.3527
G01 X22.9794 Y39.7386
G01 X22.2886 Y41.1992
G01 X21.7443 Y42.7205
G01 X21.3517 Y44.2879
G01 X21.1146 Y45.8862
G01 X21.0353 Y47.5000
G01 X22.2367 Y47.5000
G01 X22.3102 Y48.9961
G01 X22.5300 Y50.4777
G01 X22.8940 Y51.9307
G01 X23.3986 Y53.3410
G01 X24.0390 Y54.6951
G01 X24.8091 Y55.9798
G01 X25.7013 Y57.1829
G01 X26.7072 Y58.2928
G01 X27.8171 Y59.2987
G01 X29.0202 Y60.1909
G01 X30.3049 Y60.9610
G01 X31.6590 Y61.6014
G01 X33.0693 Y62.1060
G01 X34.5223 Y62.4700
G01 X36.0039 Y62.6898
G01 X37.5000 Y62.7633
G01 X38.9961 Y62.6898
G01 X40.4777 Y62.4700
G01 X41.9307 Y62.1060
G01 X43.3410 Y61.6014
G01 X44.6951 Y60.9610
G01 X45.9798 Y60.1909
G01 X47.1829 Y59.2987
G01 X48.2928 Y58.2928
G01 X49.2987 Y57.1829
G01 X50.1909 Y55.9798
G01 X50.9610 Y54.6951
G01 X51.6014 Y53.3410
G01 X52.1060 Y51.9307
G01 X52.4700 Y50.4777
G01 X52.6898 Y48.9961
G01 X52.7633 Y47.5000
G01 X52.6898 Y46.0039
G01 X52.4700 Y44.5223
G01 X52.1060 Y43.0693
G01 X51.6014 Y41.6590
G01 X50.9610 Y40.3049
G01 X50.1909 Y39.0202
G01 X49.2987 Y37.8171
G01 X48.2928 Y36.7072
G01 X47.1829 Y35.7013
G01 X45.9798 Y34.8091
G01 X44.6951 Y34.0390
G01 X43.3410 Y33.3986
G01 X41.9307 Y32.8940
G01 X40.4777 Y32.5300
G01 X38.9961 Y32.3102
G01 X37.5000 Y32.2367
G01 X36.0039 Y32.3102
G01 X34.5223 Y32.5300
G01 X33.0693 Y32.8940
G01 X31.6590 Y33.3986
G01 X30.3049 Y34.0390
G01 X29.0202 Y34.8091
G01 X27.8171 Y35.7013
G01 X26.7072 Y36.7072
G01 X25.7013 Y37.8171
G01 X24.8091 Y39.0202
G01 X24.0390 Y40.3049
G01 X23.3986 Y41.6590
G01 X22.8940 Y43.0693
G01 X22.5300 Y44.5223
G01 X22.3102 Y46.0039
G01 X22.2367 Y47.5000
G01 X23.4382 Y47.5000
G01 X23.5059 Y48.8783
G01 X23.7084 Y50.2433
G01 X24.0437 Y51.5819
G01 X24.5086 Y52.8812
G01 X25.0986 Y54.1287
G01 X25.8080 Y55.3123
G01 X26.6301 Y56.4207
G01 X27.5568 Y57.4432
G01 X28.5793 Y58.3699
G01 X29.6877 Y59.1920
G01 X30.8713 Y59.9014
G01 X32.1188 Y60.4914
G01 X33.4181 Y60.9563
G01 X34.7567 Y61.2916
G01 X36.1217 Y61.4941
G01 X37.5000 Y61.5618
G01 X38.8783 Y61.4941
G01 X40.2433 Y61.2916
G01 X41.5819 Y60.9563
G01 X42.8812 Y60.4914
G01 X44.1287 Y59.9014
G01 X45.3123 Y59.1920
G01 X46.4207 Y58.3699
G01 X47.4432 Y57.4432
G01 X48.3699 Y56.4207
G01 X49.1920 Y55.3123
G01 X49.9014 Y54.1287
G01 X50.4914 Y52.8812
G01 X50.9563 Y51.5819
G01 X51.2916 Y50.2433
G01 X51.4941 Y48.8783
G01 X51.5618 Y47.5000
G01 X51.4941 Y46.1217
G01 X51.2916 Y44.7567
G01 X50.9563 Y43.4181
G01 X50.4914 Y42.1188
G01 X49.9014 Y40.8713
G01 X49.1920 Y39.6877
G01 X48.3699 Y38.5793
G01 X47.4432 Y37.5568
G01 X46.4207 Y36.6301
G01 X45.3123 Y35.8080
G01 X44.1287 Y35.0986
G01 X42.8812 Y34.5086
G01 X41.5819 Y34.0437
G01 X40.2433 Y33.7084
G01 X38.8783 Y33.5059
G01 X37.5000 Y33.4382
G01 X36.1217 Y33.5059
G01 X34.7567 Y33.7084
G01 X33.4181 Y34.0437
G01 X32.1188 Y34.5086
G01 X30.8713 Y35.0986
G01 X29.6877 Y35.8080
G01 X28.5793 Y36.6301
G01 X27.5568 Y37.5568
G01 X26.6301 Y38.5793
G01 X25.8080 Y39.6877
G01 X25.0986 Y40.8713
G01 X24.5086 Y42.1188
G01 X24.0437 Y43.4181
G01 X23.7084 Y44.7567
G01 X23.5059 Y46.1217
G01 X23.4382 Y47.5000
G01 X24.6396 Y47.5000
G01 X24.7016 Y48.7605
G01 X24.8867 Y50.0089
G01 X25.1934 Y51.2332
G01 X25.6186 Y52.4214
G01 X26.1582 Y53.5623
G01 X26.8070 Y54.6448
G01 X27.5588 Y55.6585
G01 X28.4063 Y56.5937
G01 X29.3415 Y57.4412
G01 X30.3552 Y58.1930
G01 X31.4377 Y58.8418
G01 X32.5786 Y59.3814
G01 X33.7668 Y59.8066
G01 X34.9911 Y60.1133
G01 X36.2395 Y60.2984
G01 X37.5000 Y60.3604
G01 X38.7605 Y60.2984
G01 X40.0089 Y60.1133
G01 X41.2332 Y59.8066
G01 X42.4214 Y59.3814
G01 X43.5623 Y58.8418
G01 X44.6448 Y58.1930
G01 X45.6585 Y57.4412
G01 X46.5937 Y56.5937
G01 X47.4412 Y55.6585
G01 X48.1930 Y54.6448
G01 X48.8418 Y53.5623
G01 X49.3814 Y52.4214
G01 X49.8066 Y51.2332
G01 X50.1133 Y50.0089
G01 X50.2984 Y48.7605
G01 X50.3604 Y47.5000
G01 X50.2984 Y46.2395
G01 X50.1133 Y44.9911
G01 X49.8066 Y43.7668
G01 X49.3814 Y42.5786
G01 X48.8418 Y41.4377
G01 X48.1930 Y40.3552
G01 X47.4412 Y39.3415
G01 X46.5937 Y38.4063
G01 X45.6585 Y37.5588
G01 X44.6448 Y36.8070
G01 X43.5623 Y36.1582
G01 X42.4214 Y35.6186
G01 X41.2332 Y35.1934
G01 X40.0089 Y34.8867
G01 X38.7605 Y34.7016
G01 X37.5000 Y34.6396
G01 X36.2395 Y34.7016
G01 X34.9911 Y34.8867
G01 X33.7668 Y35.1934
G01 X32.5786 Y35.6186
G01 X31.4377 Y36.1582
G01 X30.3552 Y36.8070
G01 X29.3415 Y37.5588
G01 X28.4063 Y38.4063
G01 X27.5588 Y39.3415
G01 X26.8070 Y40.3552
G01 X26.1582 Y41.4377
G01 X25.6186 Y42.5786
G01 X25.1934 Y43.7668
G01 X24.8867 Y44.9911
G01 X24.7016 Y46.2395
G01 X24.6396 Y47.5000
G01 X25.8411 Y47.5000
G01 X25.8972 Y48.6428
G01 X26.0651 Y49.7745
G01 X26.3431 Y50.8844
G01 X26.7286 Y51.9617
G01 X27.2178 Y52.9960
G01 X27.8060 Y53.9773
G01 X28.4875 Y54.8963
G01 X29.2559 Y55.7441
G01 X30.1037 Y56.5125
G01 X31.0227 Y57.1940
G01 X32.0040 Y57.7822
G01 X33.0383 Y58.2714
G01 X34.1156 Y58.6569
G01 X35.2255 Y58.9349
G01 X36.3572 Y59.1028
G01 X37.5000 Y59.1589
G01 X38.6428 Y59.1028
G01 X39.7745 Y58.9349
G01 X40.8844 Y58.6569
G01 X41.9617 Y58.2714
G01 X42.9960 Y57.7822
G01 X43.9773 Y57.1940
G01 X44.8963 Y56.5125
G01 X45.7441 Y55.7441
G01 X46.5125 Y54.8963
G01 X47.1940 Y53.9773
G01 X47.7822 Y52.9960
G01 X48.2714 Y51.9617
G01 X48.6569 Y50.8844
G01 X48.9349 Y49.7745
G01 X49.1028 Y48.6428
G01 X49.1589 Y47.5000
G01 X49.1028 Y46.3572
G01 X48.9349 Y45.2255
G01 X48.6569 Y44.1156
G01 X48.2714 Y43.0383
G01 X47.7822 Y42.0040
G01 X47.1940 Y41.0227
G01 X46.5125 Y40.1037
G01 X45.7441 Y39.2559
G01 X44.8963 Y38.4875
G01 X43.9773 Y37.8060
G01 X42.9960 Y37.2178
G01 X41.9617 Y36.7286
G01 X40.8844 Y36.3431
G01 X39.7745 Y36.0651
G01 X38.6428 Y35.8972
G01 X37.5000 Y35.8411
G01 X36.3572 Y35.8972
G01 X35.2255 Y36.0651
G01 X34.1156 Y36.3431
G01 X33.0383 Y36.7286
G01 X32.0040 Y37.2178
G01 X31.0227 Y37.8060
G01 X30.1037 Y38.4875
G01 X29.2559 Y39.2559
G01 X28.4875 Y40.1037
G01 X27.8060 Y41.0227
G01 X27.2178 Y42.0040
G01 X26.7286 Y43.0383
G01 X26.3431 Y44.1156
G01 X26.0651 Y45.2255
G01 X25.8972 Y46.3572
G01 X25.8411 Y47.5000
G01 X27.0425 Y47.5000
G01 X27.0929 Y48.5250
G01 X27.2435 Y49.5402
G01 X27.4928 Y50.5356
G01 X27.8386 Y51.5019
G01 X28.2773 Y52.4296
G01 X28.8049 Y53.3099
G01 X29.4163 Y54.1341
G01 X30.1055 Y54.8945
G01 X30.8659 Y55.5837
G01 X31.6901 Y56.1951
G01 X32.5704 Y56.7227
G01 X33.4981 Y57.1614
G01 X34.4644 Y57.5072
G01 X35.4598 Y57.7565
G01 X36.4750 Y57.9071
G01 X37.5000 Y57.9575
G01 X38.5250 Y57.9071
G01 X39.5402 Y57.7565
G01 X40.5356 Y57.5072
G01 X41.5019 Y57.1614
G01 X42.4296 Y56.7227
G01 X43.3099 Y56.1951
G01 X44.1341 Y55.5837
G01 X44.8945 Y54.8945
G01 X45.5837 Y54.1341
G01 X46.1951 Y53.3099
G01 X46.7227 Y52.4296
G01 X47.1614 Y51.5019
G01 X47.5072 Y50.5356
G01 X47.7565 Y49.5402
G01 X47.9071 Y48.5250
G01 X47.9575 Y47.5000
G01 X47.9071 Y46.4750
G01 X47.7565 Y45.4598
G01 X47.5072 Y44.4644
G01 X47.1614 Y43.4981
G01 X46.7227 Y42.5704
G01 X46.1951 Y41.6901
G01 X45.5837 Y40.8659
G01 X44.8945 Y40.1055
G01 X44.1341 Y39.4163
G01 X43.3099 Y38.8049
G01 X42.4296 Y38.2773
G01 X41.5019 Y37.8386
G01 X40.5356 Y37.4928
G01 X39.5402 Y37.2435
G01 X38.5250 Y37.0929
G01 X37.5000 Y37.0425
G01 X36.4750 Y37.0929
G01 X35.4598 Y37.2435
G01 X34.4644 Y37.4928
G01 X33.4981 Y37.8386
G01 X32.5704 Y38.2773
G01 X31.6901 Y38.8049
G01 X30.8659 Y39.4163
G01 X30.1055 Y40.1055
G01 X29.4163 Y40.8659
G01 X28.8049 Y41.6901
G01 X28.2773 Y42.5704
G01 X27.8386 Y43.4981
G01 X27.4928 Y44.4644
G01 X27.2435 Y45.4598
G01 X27.0929 Y46.4750
G01 X27.0425 Y47.5000
G01 X28.2440 Y47.5000
G01 X28.2885 Y48.4072
G01 X28.4218 Y49.3058
G01 X28.6425 Y50.1869
G01 X28.9485 Y51.0421
G01 X29.3369 Y51.8633
G01 X29.8039 Y52.6424
G01 X30.3450 Y53.3720
G01 X30.9550 Y54.0450
G01 X31.6280 Y54.6550
G01 X32.3576 Y55.1961
G01 X33.1367 Y55.6631
G01 X33.9579 Y56.0515
G01 X34.8131 Y56.3575
G01 X35.6942 Y56.5782
G01 X36.5928 Y56.7115
G01 X37.5000 Y56.7560
G01 X38.4072 Y56.7115
G01 X39.3058 Y56.5782
G01 X40.1869 Y56.3575
G01 X41.0421 Y56.0515
G01 X41.8633 Y55.6631
G01 X42.6424 Y55.1961
G01 X43.3720 Y54.6550
G01 X44.0450 Y54.0450
G01 X44.6550 Y53.3720
G01 X45.1961 Y52.6424
G01 X45.6631 Y51.8633
G01 X46.0515 Y51.0421
G01 X46.3575 Y50.1869
G01 X46.5782 Y49.3058
G01 X46.7115 Y48.4072
G01 X46.7560 Y47.5000
G01 X46.7115 Y46.5928
G01 X46.5782 Y45.6942
G01 X46.3575 Y44.8131
G01 X46.0515 Y43.9579
G01 X45.6631 Y43.1367
G01 X45.1961 Y42.3576
G01 X44.6550 Y41.6280
G01 X44.0450 Y40.9550
G01 X43.3720 Y40.3450
G01 X42.6424 Y39.8039
G01 X41.8633 Y39.3369
G01 X41.0421 Y38.9485
G01 X40.1869 Y38.6425
G01 X39.3058 Y38.4218
G01 X38.4072 Y38.2885
G01 X37.5000 Y38.2440
G01 X36.5928 Y38.2885
G01 X35.6942 Y38.4218
G01 X34.8131 Y38.6425
G01 X33.9579 Y38.9485
G01 X33.1367 Y39.3369
G01 X32.3576 Y39.8039
G01 X31.6280 Y40.3450
G01 X30.9550 Y40.9550
G01 X30.3450 Y41.6280
G01 X29.8039 Y42.3576
G01 X29.3369 Y43.1367
G01 X28.9485 Y43.9579
G01 X28.6425 Y44.8131
G01 X28.4218 Y45.6942
G01 X28.2885 Y46.5928
G01 X28.2440 Y47.5000
G01 X29.4454 Y47.5000
G01 X29.4842 Y48.2895
G01 X29.6002 Y49.0714
G01 X29.7923 Y49.8381
G01 X30.0585 Y50.5824
G01 X30.3965 Y51.2969
G01 X30.8029 Y51.9749
G01 X31.2737 Y52.6098
G01 X31.8046 Y53.1954
G01 X32.3902 Y53.7263
G01 X33.0251 Y54.1971
G01 X33.7031 Y54.6035
G01 X34.4176 Y54.9415
G01 X35.1619 Y55.2077
G01 X35.9286 Y55.3998
G01 X36.7105 Y55.5158
G01 X37.5000 Y55.5546
G01 X38.2895 Y55.5158
G01 X39.0714 Y55.3998
G01 X39.8381 Y55.2077
G01 X40.5824 Y54.9415
G01 X41.2969 Y54.6035
G01 X41.9749 Y54.1971
G01 X42.6098 Y53.7263
G01 X43.1954 Y53.1954
G01 X43.7263 Y52.6098
G01 X44.1971 Y51.9749
G01 X44.6035 Y51.2969
G01 X44.9415 Y50.5824
G01 X45.2077 Y49.8381
G01 X45.3998 Y49.0714
G01 X45.5158 Y48.2895
G01 X45.5546 Y47.5000
G01 X45.5158 Y46.7105
G01 X45.3998 Y45.9286
G01 X45.2077 Y45.1619
G01 X44.9415 Y44.4176
G01 X44.6035 Y43.7031
G01 X44.1971 Y43.0251
G01 X43.7263 Y42.3902
G01 X43.1954 Y41.8046
G01 X42.6098 Y41.2737
G01 X41.9749 Y40.8029
G01 X41.2969 Y40.3965
G01 X40.5824 Y40.0585
G01 X39.8381 Y39.7923
G01 X39.0714 Y39.6002
G01 X38.2895 Y39.4842
G01 X37.5000 Y39.4454
G01 X36.7105 Y39.4842
G01 X35.9286 Y39.6002
G01 X35.1619 Y39.7923
G01 X34.4176 Y40.0585
G01 X33.7031 Y40.3965
G01 X33.0251 Y40.8029
G01 X32.3902 Y41.2737
G01 X31.8046 Y41.8046
G01 X31.2737 Y42.3902
G01 X30.8029 Y43.0251
G01 X30.3965 Y43.7031
G01 X30.0585 Y44.4176
G01 X29.7923 Y45.1619
G01 X29.6002 Y45.9286
G01 X29.4842 Y46.7105
G01 X29.4454 Y47.5000
G01 X30.6469 Y47.5000
G01 X30.6799 Y48.1717
G01 X30.7786 Y48.8370
G01 X30.9420 Y49.4894
G01 X31.1685 Y50.1226
G01 X31.4561 Y50.7305
G01 X31.8018 Y51.3074
G01 X32.2025 Y51.8476
G01 X32.6541 Y52.3459
G01 X33.1524 Y52.7975
G01 X33.6926 Y53.1982
G01 X34.2695 Y53.5439
G01 X34.8774 Y53.8315
G01 X35.5106 Y54.0580
G01 X36.1630 Y54.2214
G01 X36.8283 Y54.3201
G01 X37.5000 Y54.3531
G01 X38.1717 Y54.3201
G01 X38.8370 Y54.2214
G01 X39.4894 Y54.0580
G01 X40.1226 Y53.8315
G01 X40.7305 Y53.5439
G01 X41.3074 Y53.1982
G01 X41.8476 Y52.7975
G01 X42.3459 Y52.3459
G01 X42.7975 Y51.8476
G01 X43.1982 Y51.3074
G01 X43.5439 Y50.7305
G01 X43.8315 Y50.1226
G01 X44.0580 Y49.4894
G01 X44.2214 Y48.8370
G01 X44.3201 Y48.1717
G01 X44.3531 Y47.5000
G01 X44.3201 Y46.8283
G01 X44.2214 Y46.1630
G01 X44.0580 Y45.5106
G01 X43.8315 Y44.8774
G01 X43.5439 Y44.2695
G01 X43.1982 Y43.6926
G01 X42.7975 Y43.1524
G01 X42.3459 Y42.6541
G01 X41.8476 Y42.2025
G01 X41.3074 Y41.8018
G01 X40.7305 Y41.4561
G01 X40.1226 Y41.1685
G01 X39.4894 Y40.9420
G01 X38.8370 Y40.7786
G01 X38.1717 Y40.6799
G01 X37.5000 Y40.6469
G01 X36.8283 Y40.6799
G01 X36.1630 Y40.7786
G01 X35.5106 Y40.9420
G01 X34.8774 Y41.1685
G01 X34.2695 Y41.4561
G01 X33.6926 Y41.8018
G01 X33.1524 Y42.2025
G01 X32.6541 Y42.6541
G01 X32.2025 Y43.1524
G01 X31.8018 Y43.6926
G01 X31.4561 Y44.2695
G01 X31.1685 Y44.8774
G01 X30.9420 Y45.5106
G01 X30.7786 Y46.1630
G01 X30.6799 Y46.8283
G01 X30.6469 Y47.5000
G01 X31.8483 Y47.5000
G01 X31.8755 Y48.0540
G01 X31.9569 Y48.6026
G01 X32.0917 Y49.1406
G01 X32.2785 Y49.6628
G01 X32.5157 Y50.1642
G01 X32.8008 Y50.6399
G01 X33.1312 Y51.0854
G01 X33.5037 Y51.4963
G01 X33.9146 Y51.8688
G01 X34.3601 Y52.1992
G01 X34.8358 Y52.4843
G01 X35.3372 Y52.7215
G01 X35.8594 Y52.9083
G01 X36.3974 Y53.0431
G01 X36.9460 Y53.1245
G01 X37.5000 Y53.1517
G01 X38.0540 Y53.1245
G01 X38.6026 Y53.0431
G01 X39.1406 Y52.9083
G01 X39.6628 Y52.7215
G01 X40.1642 Y52.4843
G01 X40.6399 Y52.1992
G01 X41.0854 Y51.8688
G01 X41.4963 Y51.4963
G01 X41.8688 Y51.0854
G01 X42.1992 Y50.6399
G01 X42.4843 Y50.1642
G01 X42.7215 Y49.6628
G01 X42.9083 Y49.1406
G01 X43.0431 Y48.6026
G01 X43.1245 Y48.0540
G01 X43.1517 Y47.5000
G01 X43.1245 Y46.9460
G01 X43.0431 Y46.3974
G01 X42.9083 Y45.8594
G01 X42.7215 Y45.3372
G01 X42.4843 Y44.8358
G01 X42.1992 Y44.3601
G01 X41.8688 Y43.9146
G01 X41.4963 Y43.5037
G01 X41.0854 Y43.1312
G01 X40.6399 Y42.8008
G01 X40.1642 Y42.5157
G01 X39.6628 Y42.2785
G01 X39.1406 Y42.0917
G01 X38.6026 Y41.9569
G01 X38.0540 Y41.8755
G01 X37.5000 Y41.8483
G01 X36.9460 Y41.8755
G01 X36.3974 Y41.9569
G01 X35.8594 Y42.0917
G01 X35.3372 Y42.2785
G01 X34.8358 Y42.5157
G01 X34.3601 Y42.8008
G01 X33.9146 Y43.1312
G01 X33.5037 Y43.5037
G01 X33.1312 Y43.9146
G01 X32.8008 Y44.3601
G01 X32.5157 Y44.8358
G01 X32.2785 Y45.3372
G01 X32.0917 Y45.8594
G01 X31.9569 Y46.3974
G01 X31.8755 Y46.9460
G01 X31.8483 Y47.5000
G01 X33.0498 Y47.5000
G01 X33.0712 Y47.9362
G01 X33.1353 Y48.3682
G01 X33.2414 Y48.7918
G01 X33.3885 Y49.2030
G01 X33.5752 Y49.5978
G01 X33.7998 Y49.9724
G01 X34.0599 Y50.3232
G01 X34.3532 Y50.6468
G01 X34.6768 Y50.9401
G01 X35.0276 Y51.2002
G01 X35.4022 Y51.4248
G01 X35.7970 Y51.6115
G01 X36.2082 Y51.7586
G01 X36.6318 Y51.8647
G01 X37.0638 Y51.9288
G01 X37.5000 Y51.9502
G01 X37.9362 Y51.9288
G01 X38.3682 Y51.8647
G01 X38.7918 Y51.7586
G01 X39.2030 Y51.6115
G01 X39.5978 Y51.4248
G01 X39.9724 Y51.2002
G01 X40.3232 Y50.9401
G01 X40.6468 Y50.6468
G01 X40.9401 Y50.3232
G01 X41.2002 Y49.9724
G01 X41.4248 Y49.5978
G01 X41.6115 Y49.2030
G01 X41.7586 Y48.7918
G01 X41.8647 Y48.3682
G01 X41.9288 Y47.9362
G01 X41.9502 Y47.5000
G01 X41.9288 Y47.0638
G01 X41.8647 Y46.6318
G01 X41.7586 Y46.2082
G01 X41.6115 Y45.7970
G01 X41.4248 Y45.4022
G01 X41.2002 Y45.0276
G01 X40.9401 Y44.6768
G01 X40.6468 Y44.3532
G01 X40.3232 Y44.0599
G01 X39.9724 Y43.7998
G01 X39.5978 Y43.5752
G01 X39.2030 Y43.3885
G01 X38.7918 Y43.2414
G01 X38.3682 Y43.1353
G01 X37.9362 Y43.0712
G01 X37.5000 Y43.0498
G01 X37.0638 Y43.0712
G01 X36.6318 Y43.1353
G01 X36.2082 Y43.2414
G01 X35.7970 Y43.3885
G01 X35.4022 Y43.5752
G01 X35.0276 Y43.7998
G01 X34.6768 Y44.0599
G01 X34.3532 Y44.3532
G01 X34.0599 Y44.6768
G01 X33.7998 Y45.0276
G01 X33.5752 Y45.4022
G01 X33.3885 Y45.7970
G01 X33.2414 Y46.2082
G01 X33.1353 Y46.6318
G01 X33.0712 Y47.0638
G01 X33.0498 Y47.5000
G01 X34.2512 Y47.5000
G01 X34.2669 Y47.8184
G01 X34.3136 Y48.1338
G01 X34.3911 Y48.4431
G01 X34.4985 Y48.7433
G01 X34.6348 Y49.0315
G01 X34.7987 Y49.3049
G01 X34.9887 Y49.5610
G01 X35.2028 Y49.7972
G01 X35.4390 Y50.0113
G01 X35.6951 Y50.2013
G01 X35.9685 Y50.3652
G01 X36.2567 Y50.5015
G01 X36.5569 Y50.6089
G01 X36.8662 Y50.6864
G01 X37.1816 Y50.7331
G01 X37.5000 Y50.7488
G01 X37.8184 Y50.7331
G01 X38.1338 Y50.6864
G01 X38.4431 Y50.6089
G01 X38.7433 Y50.5015
G01 X39.0315 Y50.3652
G01 X39.3049 Y50.2013
G01 X39.5610 Y50.0113
G01 X39.7972 Y49.7972
G01 X40.0113 Y49.5610
G01 X40.2013 Y49.3049
G01 X40.3652 Y49.0315
G01 X40.5015 Y48.7433
G01 X40.6089 Y48.4431
G01 X40.6864 Y48.1338
G01 X40.7331 Y47.8184
G01 X40.7488 Y47.5000
G01 X40.7331 Y47.1816
G01 X40.6864 Y46.8662
G01 X40.6089 Y46.5569
G01 X40.5015 Y46.2567
G01 X40.3652 Y45.9685
G01 X40.2013 Y45.6951
G01 X40.0113 Y45.4390
G01 X39.7972 Y45.2028
G01 X39.5610 Y44.9887
G01 X39.3049 Y44.7987
G01 X39.0315 Y44.6348
G01 X38.7433 Y44.4985
G01 X38.4431 Y44.3911
G01 X38.1338 Y44.3136
G01 X37.8184 Y44.2669
G01 X37.5000 Y44.2512
G01 X37.1816 Y44.2669
G01 X36.8662 Y44.3136
G01 X36.5569 Y44.3911
G01 X36.2567 Y44.4985
G01 X35.9685 Y44.6348
G01 X35.6951 Y44.7987
G01 X35.4390 Y44.9887
G01 X35.2028 Y45.2028
G01 X34.9887 Y45.4390
G01 X34.7987 Y45.6951
G01 X34.6348 Y45.9685
G01 X34.4985 Y46.2567
G01 X34.3911 Y46.5569
G01 X34.3136 Y46.8662
G01 X34.2669 Y47.1816
G01 X34.2512 Y47.5000
G01 X35.4527 Y47.5000
G01 X35.4625 Y47.7007
G01 X35.4920 Y47.8994
G01 X35.5408 Y48.0943
G01 X35.6085 Y48.2835
G01 X35.6944 Y48.4651
G01 X35.7977 Y48.6374
G01 X35.9174 Y48.7988
G01 X36.0523 Y48.9477
G01 X36.2012 Y49.0826
G01 X36.3626 Y49.2023
G01 X36.5349 Y49.3056
G01 X36.7165 Y49.3915
G01 X36.9057 Y49.4592
G01 X37.1006 Y49.5080
G01 X37.2993 Y49.5375
G01 X37.5000 Y49.5473
G01 X37.7007 Y49.5375
G01 X37.8994 Y49.5080
G01 X38.0943 Y49.4592
G01 X38.2835 Y49.3915
G01 X38.4651 Y49.3056
G01 X38.6374 Y49.2023
G01 X38.7988 Y49.0826
G01 X38.9477 Y48.9477
G01 X39.0826 Y48.7988
G01 X39.2023 Y48.6374
G01 X39.3056 Y48.4651
G01 X39.3915 Y48.2835
G01 X39.4592 Y48.0943
G01 X39.5080 Y47.8994
G01 X39.5375 Y47.7007
G01 X39.5473 Y47.5000
G01 X39.5375 Y47.2993
G01 X39.5080 Y47.1006
G01 X39.4592 Y46.9057
G01 X39.3915 Y46.7165
G01 X39.3056 Y46.5349
G01 X39.2023 Y46.3626
G01 X39.0826 Y46.2012
G01 X38.9477 Y46.0523
G01 X38.7988 Y45.9174
G01 X38.6374 Y45.7977
G01 X38.4651 Y45.6944
G01 X38.2835 Y45.6085
G01 X38.0943 Y45.5408
G01 X37.8994 Y45.4920
G01 X37.7007 Y45.4625
G01 X37.5000 Y45.4527
G01 X37.2993 Y45.4625
G01 X37.1006 Y45.4920
G01 X36.9057 Y45.5408
G01 X36.7165 Y45.6085
G01 X36.5349 Y45.6944
G01 X36.3626 Y45.7977
G01 X36.2012 Y45.9174
G01 X36.0523 Y46.0523
G01 X35.9174 Y46.2012
G01 X35.7977 Y46.3626
G01 X35.6944 Y46.5349
G01 X35.6085 Y46.7165
G01 X35.5408 Y46.9057
G01 X35.4920 Y47.1006
G01 X35.4625 Y47.2993
G01 X35.4527 Y47.5000
G01 X36.6541 Y47.5000
G01 X36.6582 Y47.5829
G01 X36.6704 Y47.6650
G01 X36.6905 Y47.7455
G01 X36.7185 Y47.8237
G01 X36.7540 Y47.8988
G01 X36.7967 Y47.9700
G01 X36.8461 Y48.0366
G01 X36.9019 Y48.0981
G01 X36.9634 Y48.1539
G01 X37.0300 Y48.2033
G01 X37.1012 Y48.2460
G01 X37.1763 Y48.2815
G01 X37.2545 Y48.3095
G01 X37.3350 Y48.3296
G01 X37.4171 Y48.3418
G01 X37.5000 Y48.3459
G01 X37.5829 Y48.3418
G01 X37.6650 Y48.3296
G01 X37.7455 Y48.3095
G01 X37.8237 Y48.2815
G01 X37.8988 Y48.2460
G01 X37.9700 Y48.2033
G01 X38.0366 Y48.1539
G01 X38.0981 Y48.0981
G01 X38.1539 Y48.0366
G01 X38.2033 Y47.9700
G01 X38.2460 Y47.8988
G01 X38.2815 Y47.8237
G01 X38.3095 Y47.7455
G01 X38.3296 Y47.6650
G01 X38.3418 Y47.5829
G01 X38.3459 Y47.5000
G01 X38.3418 Y47.4171
G01 X38.3296 Y47.3350
G01 X38.3095 Y47.2545
G01 X38.2815 Y47.1763
G01 X38.2460 Y47.1012
G01 X38.2033 Y47.0300
G01 X38.1539 Y46.9634
G01 X38.0981 Y46.9019
G01 X38.0366 Y46.8461
G01 X37.9700 Y46.7967
G01 X37.8988 Y46.7540
G01 X37.8237 Y46.7185
G01 X37.7455 Y46.6905
G01 X37.6650 Y46.6704
G01 X37.5829 Y46.6582
G01 X37.5000 Y46.6541
G01 X37.4171 Y46.6582
G01 X37.3350 Y46.6704
G01 X37.2545 Y46.6905
G01 X37.1763 Y46.7185
G01 X37.1012 Y46.7540
G01 X37.0300 Y46.7967
G01 X36.9634 Y46.8461
G01 X36.9019 Y46.9019
G01 X36.8461 Y46.9634
G01 X36.7967 Y47.0300
G01 X36.7540 Y47.1012
G01 X36.7185 Y47.1763
G01 X36.6905 Y47.2545
G01 X36.6704 Y47.3350
G01 X36.6582 Y47.4171
G01 X36.6541 Y47.5000
G00 X36.6541 Y47.5000
G01 F100.00
G01 Z-1.6000
G01 F200.00
G01 X36.6582 Y47.4171
G01 X36.6704 Y47.3350
G01 X36.6905 Y47.2545
G01 X36.7185 Y47.1763
G01 X36.7540 Y47.1012
G01 X36.7967 Y47.0300
G01 X36.8461 Y46.9634
G01 X36.9019 Y46.9019
G01 X36.9634 Y46.8461
G01 X37.0300 Y46.7967
G01 X37.1012 Y46.7540
G01 X37.1763 Y46.7185
G01 X37.2545 Y46.6905
G01 X37.3350 Y46.6704
G01 X37.4171 Y46.6582
G01 X37.5000 Y46.6541
G01 X37.5829 Y46.6582
G01 X37.6650 Y46.6704
G01 X37.7455 Y46.6905
G01 X37.8237 Y46.7185
G01 X37.8988 Y46.7540
G01 X37.9700 Y46.7967
G01 X38.0366 Y46.8461
G01 X38.0981 Y46.9019
G01 X38.1539 Y46.9634
G01 X38.2033 Y47.0300
G01 X38.2460 Y47.1012
G01 X38.2815 Y47.1763
G01 X38.3095 Y47.2545
G01 X38.3296 Y47.3350
G01 X38.3418 Y47.4171
G01 X38.3459 Y47.5000
G01 X38.3418 Y47.5829
G01 X38.3296 Y47.6650
G01 X38.3095 Y47.7455
G01 X38.2815 Y47.8237
G01 X38.2460 Y47.8988
G01 X38.2033 Y47.9700
G01 X38.1539 Y48.0366
G01 X38.0981 Y48.0981
G01 X38.0366 Y48.1539
G01 X37.9700 Y48.2033
G01 X37.8988 Y48.2460
G01 X37.8237 Y48.2815
G01 X37.7455 Y48.3095
G01 X37.6650 Y48.3296
G01 X37.5829 Y48.3418
G01 X37.5000 Y48.3459
G01 X37.4171 Y48.3418
G01 X37.3350 Y48.3296
G01 X37.2545 Y48.3095
G01 X37.1763 Y48.2815
G01 X37.1012 Y48.2460
G01 X37.0300 Y48.2033
G01 X36.9634 Y48.1539
G01 X36.9019 Y48.0981
G01 X36.8461 Y48.0366
G01 X36.7967 Y47.9700
G01 X36.7540 Y47.8988
G01 X36.7185 Y47.8237
G01 X36.6905 Y47.7455
G01 X36.6704 Y47.6650
G01 X36.6582 Y47.5829
G01 X36.6541 Y47.5000
G01 X35.4527 Y47.5000
G01 X35.4625 Y47.2993
G01 X35.4920 Y47.1006
G01 X35.5408 Y46.9057
G01 X35.6085 Y46.7165
G01 X35.6944 Y46.5349
G01 X35.7977 Y46.3626
G01 X35.9174 Y46.2012
G01 X36.0523 Y46.0523
G01 X36.2012 Y45.9174
G01 X36.3626 Y45.7977
G01 X36.5349 Y45.6944
G01 X36.7165 Y45.6085
G01 X36.9057 Y45.5408
G01 X37.1006 Y45.4920
G01 X37.2993 Y45.4625
G01 X37.5000 Y45.4527
G01 X37.7007 Y45.4625
G01 X37.8994 Y45.4920
G01 X38.0943 Y45.5408
G01 X38.2835 Y45.6085
G01 X38.4651 Y45.6944
G01 X38.6374 Y45.7977
G01 X38.7988 Y45.9174
G01 X38.9477 Y46.0523
G01 X39.0826 Y46.2012
G01 X39.2023 Y46.3626
G01 X39.3056 Y46.5349
G01 X39.3915 Y46.7165
G01 X39.4592 Y46.9057
G01 X39.5080 Y47.1006
G01 X39.5375 Y47.2993
G01 X39.5473 Y47.5000
G01 X39.5375 Y47.7007
G01 X39.5080 Y47.8994
G01 X39.4592 Y48.0943
G01 X39.3915 Y48.2835
G01 X39.3056 Y48.4651
G01 X39.2023 Y48.6374
G01 X39.0826 Y48.7988
G01 X38.9477 Y48.9477
G01 X38.7988 Y49.0826
G01 X38.6374 Y49.2023
G01 X38.4651 Y49.3056
G01 X38.2835 Y49.3915
G01 X38.0943 Y49.4592
G01 X37.8994 Y49.5080
G01 X37.7007 Y49.5375
G01 X37.5000 Y49.5473
G01 X37.2993 Y49.5375
G01 X37.1006 Y49.5080
G01 X36.9057 Y49.4592
G01 X36.7165 Y49.3915
G01 X36.5349 Y49.3056
G01 X36.3626 Y49.2023
G01 X36.2012 Y49.0826
G01 X36.0523 Y48.9477
G01 X35.9174 Y48.7988
G01 X35.7977 Y48.6374
G01 X35.6944 Y48.4651
G01 X35.6085 Y48.2835
G01 X35.5408 Y48.0943
G01 X35.4920 Y47.8994
G01 X35.4625 Y47.7007
G01 X35.4527 Y47.5000
G01 X34.2512 Y47.5000
G01 X34.2669 Y47.1816
G01 X34.3136 Y46.8662
G01 X34.3911 Y46.5569
G01 X34.4985 Y46.2567
G01 X34.6348 Y45.9685
G01 X34.7987 Y45.6951
G01 X34.9887 Y45.4390
G01 X35.2028 Y45.2028
G01 X35.4390 Y44.9887
G01 X35.6951 Y44.7987
G01 X35.9685 Y44.6348
G01 X36.2567 Y44.4985
G01 X36.5569 Y44.3911
G01 X36.8662 Y44.3136
G01 X37.1816 Y44.2669
G01 X37.5000 Y44.2512
G01 X37.8184 Y44.2669
G01 X38.1338 Y44.3136
G01 X38.4431 Y44.3911
G01 X38.7433 Y44.4985
G01 X39.0315 Y44.6348
G01 X39.3049 Y44.7987
G01 X39.5610 Y44.9887
G01 X39.7972 Y45.2028
G01 X40.0113 Y45.4390
G01 X40.2013 Y45.6951
G01 X40.3652 Y45.9685
G01 X40.5015 Y46.2567
G01 X40.6089 Y46.5569
G01 X40.6864 Y46.8662
G01 X40.7331 Y47.1816
G01 X40.7488 Y47.5000
G01 X40.7331 Y47.8184
G01 X40.6864 Y48.1338
G01 X40.6089 Y48.4431
G01 X40.5015 Y48.7433
G01 X40.3652 Y49.0315
G01 X40.2013 Y49.3049
G01 X40.0113 Y49.5610
G01 X39.7972 Y49.7972
G01 X39.5610 Y50.0113
G01 X39.3049 Y50.2013
G01 X39.0315 Y50.3652
G01 X38.7433 Y50.5015
G01 X38.4431 Y50.6089
G01 X38.1338 Y50.6864
G01 X37.8184 Y50.7331
G01 X37.5000 Y50.7488
G01 X37.1816 Y50.7331
G01 X36.8662 Y50.6864
G01 X36.5569 Y50.6089
G01 X36.2567 Y50.5015
G01 X35.9685 Y50.3652
G01 X35.6951 Y50.2013
G01 X35.4390 Y50.0113
G01 X35.2028 Y49.7972
G01 X34.9887 Y49.5610
G01 X34.7987 Y49.3049
G01 X34.6348 Y49.0315
G01 X34.4985 Y48.7433
G01 X34.3911 Y48.4431
G01 X34.3136 Y48.1338
G01 X34.2669 Y47.8184
G01 X34.2512 Y47.5000
G01 X33.0498 Y47.5000
G01 X33.0712 Y47.0638
G01 X33.1353 Y46.6318
G01 X33.2414 Y46.2082
G01 X33.3885 Y45.7970
G01 X33.5752 Y45.4022
G01 X33.7998 Y45.0276
G01 X34.0599 Y44.6768
G01 X34.3532 Y44.3532
G01 X34.6768 Y44.0599
G01 X35.0276 Y43.7998
G01 X35.4022 Y43.5752
G01 X35.7970 Y43.3885
G01 X36.2082 Y43.2414
G01 X36.6318 Y43.1353
G01 X37.0638 Y43.0712
G01 X37.5000 Y43.0498
G01 X37.9362 Y43.0712
G01 X38.3682 Y43.1353
G01 X38.7918 Y43.2414
G01 X39.2030 Y43.3885
G01 X39.5978 Y43.5752
G01 X39.9724 Y43.7998
G01 X40.3232 Y44.0599
G01 X40.6468 Y44.3532
G01 X40.9401 Y44.6768
G01 X41.2002 Y45.0276
G01 X41.4248 Y45.4022
G01 X41.6115 Y45.7970
G01 X41.7586 Y46.2082
G01 X41.8647 Y46.6318
G01 X41.9288 Y47.0638
G01 X41.9502 Y47.5000
G01 X41.9288 Y47.9362
G01 X41.8647 Y48.3682
G01 X41.7586 Y48.7918
G01 X41.6115 Y49.2030
G01 X41.4248 Y49.5978
G01 X41.2002 Y49.9724
G01 X40.9401 Y50.3232
G01 X40.6468 Y50.6468
G01 X40.3232 Y50.9401
G01 X39.9724 Y51.2002
G01 X39.5978 Y51.4248
G01 X39.2030 Y51.6115
G01 X38.7918 Y51.7586
G01 X38.3682 Y51.8647
G01 X37.9362 Y51.9288
G01 X37.5000 Y51.9502
G01 X37.0638 Y51.9288
G01 X36.6318 Y51.8647
G01 X36.2082 Y51.7586
G01 X35.7970 Y51.6115
G01 X35.4022 Y51.4248
G01 X35.0276 Y51.2002
G01 X34.6768 Y50.9401
G01 X34.3532 Y50.6468
G01 X34.0599 Y50.3232
G01 X33.7998 Y49.9724
G01 X33.5752 Y49.5978
G01 X33.3885 Y49.2030
G01 X33.2414 Y48.7918
G01 X33.1353 Y48.3682
G01 X33.0712 Y47.9362
G01 X33.0498 Y47.5000
G01 X31.8483 Y47.5000
G01 X31.8755 Y46.9460
G01 X31.9569 Y46.3974
G01 X32.0917 Y45.8594
G01 X32.2785 Y45.3372
G01 X32.5157 Y44.8358
G01 X32.8008 Y44.3601
G01 X33.1312 Y43.9146
G01 X33.5037 Y43.5037
G01 X33.9146 Y43.1312
G01 X34.3601 Y42.8008
G01 X34.8358 Y42.5157
G01 X35.3372 Y42.2785
G01 X35.8594 Y42.0917
G01 X36.3974 Y41.9569
G01 X36.9460 Y41.8755
G01 X37.5000 Y41.8483
G01 X38.0540 Y41.8755
G01 X38.6026 Y41.9569
G01 X39.1406 Y42.0917
G01 X39.6628 Y42.2785
G01 X40.1642 Y42.5157
G01 X40.6399 Y42.8008
G01 X41.0854 Y43.1312
G01 X41.4963 Y43.5037
G01 X41.8688 Y43.9146
G01 X42.1992 Y44.3601
G01 X42.4843 Y44.8358
G01 X42.7215 Y45.3372
G01 X42.9083 Y45.8594
G01 X43.0431 Y46.3974
G01 X43.1245 Y46.9460
G01 X43.1517 Y47.5000
G01 X43.1245 Y48.0540
G01 X43.0431 Y48.6026
G01 X42.9083 Y49.1406
G01 X42.7215 Y49.6628
G01 X42.4843 Y50.1642
G01 X42.1992 Y50.6399
G01 X41.8688 Y51.0854
G01 X41.4963 Y51.4963
G01 X41.0854 Y51.8688
G01 X40.6399 Y52.1992
G01 X40.1642 Y52.4843
G01 X39.6628 Y52.7215
G01 X39.1406 Y52.9083
G01 X38.6026 Y53.0431
G01 X38.0540 Y53.1245
G01 X37.5000 Y53.1517
G01 X36.9460 Y53.1245
G01 X36.3974 Y53.0431
G01 X35.8594 Y52.9083
G01 X35.3372 Y52.7215
G01 X34.8358 Y52.4843
G01 X34.3601 Y52.1992
G01 X33.9146 Y51.8688
G01 X33.5037 Y51.4963
G01 X33.1312 Y51.0854
G01 X32.8008 Y50.6399
G01 X32.5157 Y50.1642
G01 X32.2785 Y49.6628
G01 X32.0917 Y49.1406
G01 X31.9569 Y48.6026
G01 X31.8755 Y48.0540
G01 X31.8483 Y47.5000
G01 X30.6469 Y47.5000
G01 X30.6799 Y46.8283
G01 X30.7786 Y46.1630
G01 X30.9420 Y45.5106
G01 X31.1685 Y44.8774
G01 X31.4561 Y44.2695
G01 X31.8018 Y43.6926
G01 X32.2025 Y43.1524
G01 X32.6541 Y42.6541
G01 X33.1524 Y42.2025
G01 X33.6926 Y41.8018
G01 X34.2695 Y41.4561
G01 X34.8774 Y41.1685
G01 X35.5106 Y40.9420
G01 X36.1630 Y40.7786
G01 X36.8283 Y40.6799
G01 X37.5000 Y40.6469
G01 X38.1717 Y40.6799
G01 X38.8370 Y40.7786
G01 X39.4894 Y40.9420
G01 X40.1226 Y41.1685
G01 X40.7305 Y41.4561
G01 X41.3074 Y41.8018
G01 X41.8476 Y42.2025
G01 X42.3459 Y42.6541
G01 X42.7975 Y43.1524
G01 X43.1982 Y43.6926
G01 X43.5439 Y44.2695
G01 X43.8315 Y44.8774
G01 X44.0580 Y45.5106
G01 X44.2214 Y46.1630
G01 X44.3201 Y46.8283
G01 X44.3531 Y47.5000
G01 X44.3201 Y48.1717
G01 X44.2214 Y48.8370
G01 X44.0580 Y49.4894
G01 X43.8315 Y50.1226
G01 X43.5439 Y50.7305
G01 X43.1982 Y51.3074
G01 X42.7975 Y51.8476
G01 X42.3459 Y52.3459
G01 X41.8476 Y52.7975
G01 X41.3074 Y53.1982
G01 X40.7305 Y53.5439
G01 X40.1226 Y53.8315
G01 X39.4894 Y54.0580
G01 X38.8370 Y54.2214
G01 X38.1717 Y54.3201
G01 X37.5000 Y54.3531
G01 X36.8283 Y54.3201
G01 X36.1630 Y54.2214
G01 X35.5106 Y54.0580
G01 X34.8774 Y53.8315
G01 X34.2695 Y53.5439
G01 X33.6926 Y53.1982
G01 X33.1524 Y52.7975
G01 X32.6541 Y52.3459
G01 X32.2025 Y51.8476
G01 X31.8018 Y51.3074
G01 X31.4561 Y50.7305
G01 X31.1685 Y50.1226
G01 X30.9420 Y49.4894
G01 X30.7786 Y48.8370
G01 X30.6799 Y48.1717
G01 X30.6469 Y47.5000
G01 X29.4454 Y47.5000
G01 X29.4842 Y46.7105
G01 X29.6002 Y45.9286
G01 X29.7923 Y45.1619
G01 X30.0585 Y44.4176
G01 X30.3965 Y43.7031
G01 X30.8029 Y43.0251
G01 X31.2737 Y42.3902
G01 X31.8046 Y41.8046
G01 X32.3902 Y41.2737
G01 X33.0251 Y40.8029
G01 X33.7031 Y40.3965
G01 X34.4176 Y40.0585
G01 X35.1619 Y39.7923
G01 X35.9286 Y39.6002
G01 X36.7105 Y39.4842
G01 X37.5000 Y39.4454
G01 X38.2895 Y39.4842
G01 X39.0714 Y39.6002
G01 X39.8381 Y39.7923
G01 X40.5824 Y40.0585
G01 X41.2969 Y40.3965
G01 X41.9749 Y40.8029
G01 X42.6098 Y41.2737
G01 X43.1954 Y41.8046
G01 X43.7263 Y42.3902
G01 X44.1971 Y43.0251
G01 X44.6035 Y43.7031
G01 X44.9415 Y44.4176
G01 X45.2077 Y45.1619
G01 X45.3998 Y45.9286
G01 X45.5158 Y46.7105
G01 X45.5546 Y47.5000
G01 X45.5158 Y48.2895
G01 X45.3998 Y49.0714
G01 X45.2077 Y49.8381
G01 X44.9415 Y50.5824
G01 X44.6035 Y51.2969
G01 X44.1971 Y51.9749
G01 X43.7263 Y52.6098
G01 X43.1954 Y53.1954
G01 X42.6098 Y53.7263
G01 X41.9749 Y54.1971
G01 X41.2969 Y54.6035
G01 X40.5824 Y54.9415
G01 X39.8381 Y55.2077
G01 X39.0714 Y55.3998
G01 X38.2895 Y55.5158
G01 X37.5000 Y55.5546
G01 X36.7105 Y55.5158
G01 X35.9286 Y55.3998
G01 X35.1619 Y55.2077
G01 X34.4176 Y54.9415
G01 X33.7031 Y54.6035
G01 X33.0251 Y54.1971
G01 X32.3902 Y53.7263
G01 X31.8046 Y53.1954
G01 X31.2737 Y52.6098
G01 X30.8029 Y51.9749
G01 X30.3965 Y51.2969
G01 X30.0585 Y50.5824
G01 X29.7923 Y49.8381
G01 X29.6002 Y49.0714
G01 X29.4842 Y48.2895
G01 X29.4454 Y47.5000
G01 X28.2440 Y47.5000
G01 X28.2885 Y46.5928
G01 X28.4218 Y45.6942
G01 X28.6425 Y44.8131
G01 X28.9485 Y43.9579
G01 X29.3369 Y43.1367
G01 X29.8039 Y42.3576
G01 X30.3450 Y41.6280
G01 X30.9550 Y40.9550
G01 X31.6280 Y40.3450
G01 X32.3576 Y39.8039
G01 X33.1367 Y39.3369
G01 X33.9579 Y38.9485
G01 X34.8131 Y38.6425
G01 X35.6942 Y38.4218
G01 X36.5928 Y38.2885
G01 X37.5000 Y38.2440
G01 X38.4072 Y38.2885
G01 X39.3058 Y38.4218
G01 X40.1869 Y38.6425
G01 X41.0421 Y38.9485
G01 X41.8633 Y39.3369
G01 X42.6424 Y39.8039
G01 X43.3720 Y40.3450
G01 X44.0450 Y40.9550
G01 X44.6550 Y41.6280
G01 X45.1961 Y42.3576
G01 X45.6631 Y43.1367
G01 X46.0515 Y43.9579
G01 X46.3575 Y44.8131
G01 X46.5782 Y45.6942
G01 X46.7115 Y46.5928
G01 X46.7560 Y47.5000
G01 X46.7115 Y48.4072
G01 X46.5782 Y49.3058
G01 X46.3575 Y50.1869
G01 X46.0515 Y51.0421
G01 X45.6631 Y51.8633
G01 X45.1961 Y52.6424
G01 X44.6550 Y53.3720
G01 X44.0450 Y54.0450
G01 X43.3720 Y54.6550
G01 X42.6424 Y55.1961
G01 X41.8633 Y55.6631
G01 X41.0421 Y56.0515
G01 X40.1869 Y56.3575
G01 X39.3058 Y56.5782
G01 X38.4072 Y56.7115
G01 X37.5000 Y56.7560
G01 X36.5928 Y56.7115
G01 X35.6942 Y56.5782
G01 X34.8131 Y56.3575
G01 X33.9579 Y56.0515
G01 X33.1367 Y55.6631
G01 X32.3576 Y55.1961
G01 X31.6280 Y54.6550
G01 X30.9550 Y54.0450
G01 X30.3450 Y53.3720
G01 X29.8039 Y52.6424
G01 X29.3369 Y51.8633
G01 X28.9485 Y51.0421
G01 X28.6425 Y50.1869
G01 X28.4218 Y49.3058
G01 X28.2885 Y48.4072
G01 X28.2440 Y47.5000
G01 X27.0425 Y47.5000
G01 X27.0929 Y46.4750
G01 X27.2435 Y45.4598
G01 X27.4928 Y44.4644
G01 X27.8386 Y43.4981
G01 X28.2773 Y42.5704
G01 X28.8049 Y41.6901
G01 X29.4163 Y40.8659
G01 X30.1055 Y40.1055
G01 X30.8659 Y39.4163
G01 X31.6901 Y38.8049
G01 X32.5704 Y38.2773
G01 X33.4981 Y37.8386
G01 X34.4644 Y37.4928
G01 X35.4598 Y37.2435
G01 X36.4750 Y37.0929
G01 X37.5000 Y37.0425
G01 X38.5250 Y37.0929
G01 X39.5402 Y37.2435
G01 X40.5356 Y37.4928
G01 X41.5019 Y37.8386
G01 X42.4296 Y38.2773
G01 X43.3099 Y38.8049
G01 X44.1341 Y39.4163
G01 X44.8945 Y40.1055
G01 X45.5837 Y40.8659
G01 X46.1951 Y41.6901
G01 X46.7227 Y42.5704
G01 X47.1614 Y43.4981
G01 X47.5072 Y44.4644
G01 X47.7565 Y45.4598
G01 X47.9071 Y46.4750
G01 X47.9575 Y47.5000
G01 X47.9071 Y48.5250
G01 X47.7565 Y49.5402
G01 X47.5072 Y50.5356
G01 X47.1614 Y51.5019
G01 X46.7227 Y52.4296
G01 X46.1951 Y53.3099
G01 X45.5837 Y54.1341
G01 X44.8945 Y54.8945
G01 X44.1341 Y55.5837
G01 X43.3099 Y56.1951
G01 X42.4296 Y56.7227
G01 X41.5019 Y57.1614
G01 X40.5356 Y57.5072
G01 X39.5402 Y57.7565
G01 X38.5250 Y57.9071
G01 X37.5000 Y57.9575
G01 X36.4750 Y57.9071
G01 X35.4598 Y57.7565
G01 X34.4644 Y57.5072
G01 X33.4981 Y57.1614
G01 X32.5704 Y56.7227
G01 X31.6901 Y56.1951
G01 X30.8659 Y55.5837
G01 X30.1055 Y54.8945
G01 X29.4163 Y54.1341
G01 X28.8049 Y53.3099
G01 X28.2773 Y52.4296
G01 X27.8386 Y51.5019
G01 X27.4928 Y50.5356
G01 X27.2435 Y49.5402
G01 X27.0929 Y48.5250
G01 X27.0425 Y47.5000
G01 X25.8411 Y47.5000
G01 X25.8972 Y46.3572
G01 X26.0651 Y45.2255
G01 X26.3431 Y44.1156
G01 X26.7286 Y43.0383
G01 X27.2178 Y42.0040
G01 X27.8060 Y41.0227
G01 X28.4875 Y40.1037
G01 X29.2559 Y39.2559
G01 X30.1037 Y38.4875
G01 X31.0227 Y37.8060
G01 X32.0040 Y37.2178
G01 X33.0383 Y36.7286
G01 X34.1156 Y36.3431
G01 X35.2255 Y36.0651
G01 X36.3572 Y35.8972
G01 X37.5000 Y35.8411
G01 X38.6428 Y35.8972
G01 X39.7745 Y36.0651
