(G-CODE GENERATED BY FLATCAM v8.991 - www.flatcam.org - Version Date: 2019/12/27)

(Name: Lumieres_int_iso_cnc)
(Type: G-code from Geometry)
(Units: MM)

(Created on Saturday, 28 September 2024 at 13:17)

(TOOL DIAMETER: 2.0 mm)
(Feedrate: 200.0 mm/min)
(Feedrate_Z: 100.0 mm/min)
(Feedrate rapids 1500.0 mm/min)

(Z_Cut: -10.2 mm)
(DepthPerCut: 0.4 mm <=>26 passes)
(Z_Move: 2.0 mm)
(Z Toolchange: 15.0 mm)
(X,Y Toolchange: 0.00, 0.00 mm)
(Z Start: None mm)
(Z End: 2.0 mm)
(Steps per circle: 64)
(Preprocessor Geometry: default)

(X range:   71.1000 ...  147.9000  mm)
(Y range:    8.1000 ...   69.4000  mm)

(Spindle Speed: None RPM)
G21
G90
G94




G01 F200.00
G00 Z2.0000

M03
G00 X76.6299 Y25.5150
G01 F100.00
G01 Z-0.4000
G01 F200.00
G01 X72.3300 Y25.5151
G01 X72.3301 Y35.9150
G01 X76.6300 Y35.9149
G01 X76.6299 Y25.5150
G00 X76.6299 Y25.5150
G01 F100.00
G01 Z-0.8000
G01 F200.00
G01 X72.3300 Y25.5151
G01 X72.3301 Y35.9150
G01 X76.6300 Y35.9149
G01 X76.6299 Y25.5150
G00 X76.6299 Y25.5150
G01 F100.00
G01 Z-1.2000
G01 F200.00
G01 X72.3300 Y25.5151
G01 X72.3301 Y35.9150
G01 X76.6300 Y35.9149
G01 X76.6299 Y25.5150
G00 X76.6299 Y25.5150
G01 F100.00
G01 Z-1.6000
G01 F200.00
G01 X72.3300 Y25.5151
G01 X72.3301 Y35.9150
G01 X76.6300 Y35.9149
G01 X76.6299 Y25.5150
G00 X76.6299 Y25.5150
G01 F100.00
G01 Z-2.0000
G01 F200.00
G01 X72.3300 Y25.5151
G01 X72.3301 Y35.9150
G01 X76.6300 Y35.9149
G01 X76.6299 Y25.5150
G00 X76.6299 Y25.5150
G01 F100.00
G01 Z-2.4000
G01 F200.00
G01 X72.3300 Y25.5151
G01 X72.3301 Y35.9150
G01 X76.6300 Y35.9149
G01 X76.6299 Y25.5150
G00 X76.6299 Y25.5150
G01 F100.00
G01 Z-2.8000
G01 F200.00
G01 X72.3300 Y25.5151
G01 X72.3301 Y35.9150
G01 X76.6300 Y35.9149
G01 X76.6299 Y25.5150
G00 X76.6299 Y25.5150
G01 F100.00
G01 Z-3.2000
G01 F200.00
G01 X72.3300 Y25.5151
G01 X72.3301 Y35.9150
G01 X76.6300 Y35.9149
G01 X76.6299 Y25.5150
G00 X76.6299 Y25.5150
G01 F100.00
G01 Z-3.6000
G01 F200.00
G01 X72.3300 Y25.5151
G01 X72.3301 Y35.9150
G01 X76.6300 Y35.9149
G01 X76.6299 Y25.5150
G00 X76.6299 Y25.5150
G01 F100.00
G01 Z-4.0000
G01 F200.00
G01 X72.3300 Y25.5151
G01 X72.3301 Y35.9150
G01 X76.6300 Y35.9149
G01 X76.6299 Y25.5150
G00 X76.6299 Y25.5150
G01 F100.00
G01 Z-4.4000
G01 F200.00
G01 X72.3300 Y25.5151
G01 X72.3301 Y35.9150
G01 X76.6300 Y35.9149
G01 X76.6299 Y25.5150
G00 X76.6299 Y25.5150
G01 F100.00
G01 Z-4.8000
G01 F200.00
G01 X72.3300 Y25.5151
G01 X72.3301 Y35.9150
G01 X76.6300 Y35.9149
G01 X76.6299 Y25.5150
G00 X76.6299 Y25.5150
G01 F100.00
G01 Z-5.2000
G01 F200.00
G01 X72.3300 Y25.5151
G01 X72.3301 Y35.9150
G01 X76.6300 Y35.9149
G01 X76.6299 Y25.5150
G00 X76.6299 Y25.5150
G01 F100.00
G01 Z-5.6000
G01 F200.00
G01 X72.3300 Y25.5151
G01 X72.3301 Y35.9150
G01 X76.6300 Y35.9149
G01 X76.6299 Y25.5150
G00 X76.6299 Y25.5150
G01 F100.00
G01 Z-6.0000
G01 F200.00
G01 X72.3300 Y25.5151
G01 X72.3301 Y35.9150
G01 X76.6300 Y35.9149
G01 X76.6299 Y25.5150
G00 X76.6299 Y25.5150
G01 F100.00
G01 Z-6.4000
G01 F200.00
G01 X72.3300 Y25.5151
G01 X72.3301 Y35.9150
G01 X76.6300 Y35.9149
G01 X76.6299 Y25.5150
G00 X76.6299 Y25.5150
G01 F100.00
G01 Z-6.8000
G01 F200.00
G01 X72.3300 Y25.5151
G01 X72.3301 Y35.9150
G01 X76.6300 Y35.9149
G01 X76.6299 Y25.5150
G00 X76.6299 Y25.5150
G01 F100.00
G01 Z-7.2000
G01 F200.00
G01 X72.3300 Y25.5151
G01 X72.3301 Y35.9150
G01 X76.6300 Y35.9149
G01 X76.6299 Y25.5150
G00 X76.6299 Y25.5150
G01 F100.00
G01 Z-7.6000
G01 F200.00
G01 X72.3300 Y25.5151
G01 X72.3301 Y35.9150
G01 X76.6300 Y35.9149
G01 X76.6299 Y25.5150
G00 X76.6299 Y25.5150
G01 F100.00
G01 Z-8.0000
G01 F200.00
G01 X72.3300 Y25.5151
G01 X72.3301 Y35.9150
G01 X76.6300 Y35.9149
G01 X76.6299 Y25.5150
G00 X76.6299 Y25.5150
G01 F100.00
G01 Z-8.4000
G01 F200.00
G01 X72.3300 Y25.5151
G01 X72.3301 Y35.9150
G01 X76.6300 Y35.9149
G01 X76.6299 Y25.5150
G00 X76.6299 Y25.5150
G01 F100.00
G01 Z-8.8000
G01 F200.00
G01 X72.3300 Y25.5151
G01 X72.3301 Y35.9150
G01 X76.6300 Y35.9149
G01 X76.6299 Y25.5150
G00 X76.6299 Y25.5150
G01 F100.00
G01 Z-9.2000
G01 F200.00
G01 X72.3300 Y25.5151
G01 X72.3301 Y35.9150
G01 X76.6300 Y35.9149
G01 X76.6299 Y25.5150
G00 X76.6299 Y25.5150
G01 F100.00
G01 Z-9.6000
G01 F200.00
G01 X72.3300 Y25.5151
G01 X72.3301 Y35.9150
G01 X76.6300 Y35.9149
G01 X76.6299 Y25.5150
G00 X76.6299 Y25.5150
G01 F100.00
G01 Z-10.0000
G01 F200.00
G01 X72.3300 Y25.5151
G01 X72.3301 Y35.9150
G01 X76.6300 Y35.9149
G01 X76.6299 Y25.5150
G00 X76.6299 Y25.5150
G01 F100.00
G01 Z-10.2000
G01 F200.00
G01 X72.3300 Y25.5151
G01 X72.3301 Y35.9150
G01 X76.6300 Y35.9149
G01 X76.6299 Y25.5150
G00 Z2.0000
G00 X80.8999 Y8.1000
G01 F100.00
G01 Z-0.4000
G01 F200.00
G01 X71.1000 Y8.1001
G01 X71.1001 Y17.9000
G01 X80.9000 Y17.8999
G01 X80.8999 Y8.1000
G00 X80.8999 Y8.1000
G01 F100.00
G01 Z-0.8000
G01 F200.00
G01 X71.1000 Y8.1001
G01 X71.1001 Y17.9000
G01 X80.9000 Y17.8999
G01 X80.8999 Y8.1000
G00 X80.8999 Y8.1000
G01 F100.00
G01 Z-1.2000
G01 F200.00
G01 X71.1000 Y8.1001
G01 X71.1001 Y17.9000
G01 X80.9000 Y17.8999
G01 X80.8999 Y8.1000
G00 X80.8999 Y8.1000
G01 F100.00
G01 Z-1.6000
G01 F200.00
G01 X71.1000 Y8.1001
G01 X71.1001 Y17.9000
G01 X80.9000 Y17.8999
G01 X80.8999 Y8.1000
G00 X80.8999 Y8.1000
G01 F100.00
G01 Z-2.0000
G01 F200.00
G01 X71.1000 Y8.1001
G01 X71.1001 Y17.9000
G01 X80.9000 Y17.8999
G01 X80.8999 Y8.1000
G00 X80.8999 Y8.1000
G01 F100.00
G01 Z-2.4000
G01 F200.00
G01 X71.1000 Y8.1001
G01 X71.1001 Y17.9000
G01 X80.9000 Y17.8999
G01 X80.8999 Y8.1000
G00 X80.8999 Y8.1000
G01 F100.00
G01 Z-2.8000
G01 F200.00
G01 X71.1000 Y8.1001
G01 X71.1001 Y17.9000
G01 X80.9000 Y17.8999
G01 X80.8999 Y8.1000
G00 X80.8999 Y8.1000
G01 F100.00
G01 Z-3.2000
G01 F200.00
G01 X71.1000 Y8.1001
G01 X71.1001 Y17.9000
G01 X80.9000 Y17.8999
G01 X80.8999 Y8.1000
G00 X80.8999 Y8.1000
G01 F100.00
G01 Z-3.6000
G01 F200.00
G01 X71.1000 Y8.1001
G01 X71.1001 Y17.9000
G01 X80.9000 Y17.8999
G01 X80.8999 Y8.1000
G00 X80.8999 Y8.1000
G01 F100.00
G01 Z-4.0000
G01 F200.00
G01 X71.1000 Y8.1001
G01 X71.1001 Y17.9000
G01 X80.9000 Y17.8999
G01 X80.8999 Y8.1000
G00 X80.8999 Y8.1000
G01 F100.00
G01 Z-4.4000
G01 F200.00
G01 X71.1000 Y8.1001
G01 X71.1001 Y17.9000
G01 X80.9000 Y17.8999
G01 X80.8999 Y8.1000
G00 X80.8999 Y8.1000
G01 F100.00
G01 Z-4.8000
G01 F200.00
G01 X71.1000 Y8.1001
G01 X71.1001 Y17.9000
G01 X80.9000 Y17.8999
G01 X80.8999 Y8.1000
G00 X80.8999 Y8.1000
G01 F100.00
G01 Z-5.2000
G01 F200.00
G01 X71.1000 Y8.1001
G01 X71.1001 Y17.9000
G01 X80.9000 Y17.8999
G01 X80.8999 Y8.1000
G00 X80.8999 Y8.1000
G01 F100.00
G01 Z-5.6000
G01 F200.00
G01 X71.1000 Y8.1001
G01 X71.1001 Y17.9000
G01 X80.9000 Y17.8999
G01 X80.8999 Y8.1000
G00 X80.8999 Y8.1000
G01 F100.00
G01 Z-6.0000
G01 F200.00
G01 X71.1000 Y8.1001
G01 X71.1001 Y17.9000
G01 X80.9000 Y17.8999
G01 X80.8999 Y8.1000
G00 X80.8999 Y8.1000
G01 F100.00
G01 Z-6.4000
G01 F200.00
G01 X71.1000 Y8.1001
G01 X71.1001 Y17.9000
G01 X80.9000 Y17.8999
G01 X80.8999 Y8.1000
G00 X80.8999 Y8.1000
G01 F100.00
G01 Z-6.8000
G01 F200.00
G01 X71.1000 Y8.1001
G01 X71.1001 Y17.9000
G01 X80.9000 Y17.8999
G01 X80.8999 Y8.1000
G00 X80.8999 Y8.1000
G01 F100.00
G01 Z-7.2000
G01 F200.00
G01 X71.1000 Y8.1001
G01 X71.1001 Y17.9000
G01 X80.9000 Y17.8999
G01 X80.8999 Y8.1000
G00 X80.8999 Y8.1000
G01 F100.00
G01 Z-7.6000
G01 F200.00
G01 X71.1000 Y8.1001
G01 X71.1001 Y17.9000
G01 X80.9000 Y17.8999
G01 X80.8999 Y8.1000
G00 X80.8999 Y8.1000
G01 F100.00
G01 Z-8.0000
G01 F200.00
G01 X71.1000 Y8.1001
G01 X71.1001 Y17.9000
G01 X80.9000 Y17.8999
G01 X80.8999 Y8.1000
G00 X80.8999 Y8.1000
G01 F100.00
G01 Z-8.4000
G01 F200.00
G01 X71.1000 Y8.1001
G01 X71.1001 Y17.9000
G01 X80.9000 Y17.8999
G01 X80.8999 Y8.1000
G00 X80.8999 Y8.1000
G01 F100.00
G01 Z-8.8000
G01 F200.00
G01 X71.1000 Y8.1001
G01 X71.1001 Y17.9000
G01 X80.9000 Y17.8999
G01 X80.8999 Y8.1000
G00 X80.8999 Y8.1000
G01 F100.00
G01 Z-9.2000
G01 F200.00
G01 X71.1000 Y8.1001
G01 X71.1001 Y17.9000
G01 X80.9000 Y17.8999
G01 X80.8999 Y8.1000
G00 X80.8999 Y8.1000
G01 F100.00
G01 Z-9.6000
G01 F200.00
G01 X71.1000 Y8.1001
G01 X71.1001 Y17.9000
G01 X80.9000 Y17.8999
G01 X80.8999 Y8.1000
G00 X80.8999 Y8.1000
G01 F100.00
G01 Z-10.0000
G01 F200.00
G01 X71.1000 Y8.1001
G01 X71.1001 Y17.9000
G01 X80.9000 Y17.8999
G01 X80.8999 Y8.1000
G00 X80.8999 Y8.1000
G01 F100.00
G01 Z-10.2000
G01 F200.00
G01 X71.1000 Y8.1001
G01 X71.1001 Y17.9000
G01 X80.9000 Y17.8999
G01 X80.8999 Y8.1000
G00 Z2.0000
G00 X74.9999 Y66.6000
G01 F100.00
G01 Z-0.4000
G01 F200.00
G01 X73.0000 Y66.6001
G01 X73.0001 Y69.4000
G01 X75.0000 Y69.3999
G01 X74.9999 Y66.6000
G00 X74.9999 Y66.6000
G01 F100.00
G01 Z-0.8000
G01 F200.00
G01 X73.0000 Y66.6001
G01 X73.0001 Y69.4000
G01 X75.0000 Y69.3999
G01 X74.9999 Y66.6000
G00 X74.9999 Y66.6000
G01 F100.00
G01 Z-1.2000
G01 F200.00
G01 X73.0000 Y66.6001
G01 X73.0001 Y69.4000
G01 X75.0000 Y69.3999
G01 X74.9999 Y66.6000
G00 X74.9999 Y66.6000
G01 F100.00
G01 Z-1.6000
G01 F200.00
G01 X73.0000 Y66.6001
G01 X73.0001 Y69.4000
G01 X75.0000 Y69.3999
G01 X74.9999 Y66.6000
G00 X74.9999 Y66.6000
G01 F100.00
G01 Z-2.0000
G01 F200.00
G01 X73.0000 Y66.6001
G01 X73.0001 Y69.4000
G01 X75.0000 Y69.3999
G01 X74.9999 Y66.6000
G00 X74.9999 Y66.6000
G01 F100.00
G01 Z-2.4000
G01 F200.00
G01 X73.0000 Y66.6001
G01 X73.0001 Y69.4000
G01 X75.0000 Y69.3999
G01 X74.9999 Y66.6000
G00 X74.9999 Y66.6000
G01 F100.00
G01 Z-2.8000
G01 F200.00
G01 X73.0000 Y66.6001
G01 X73.0001 Y69.4000
G01 X75.0000 Y69.3999
G01 X74.9999 Y66.6000
G00 X74.9999 Y66.6000
G01 F100.00
G01 Z-3.2000
G01 F200.00
G01 X73.0000 Y66.6001
G01 X73.0001 Y69.4000
G01 X75.0000 Y69.3999
G01 X74.9999 Y66.6000
G00 X74.9999 Y66.6000
G01 F100.00
G01 Z-3.6000
G01 F200.00
G01 X73.0000 Y66.6001
G01 X73.0001 Y69.4000
G01 X75.0000 Y69.3999
G01 X74.9999 Y66.6000
G00 X74.9999 Y66.6000
G01 F100.00
G01 Z-4.0000
G01 F200.00
G01 X73.0000 Y66.6001
G01 X73.0001 Y69.4000
G01 X75.0000 Y69.3999
G01 X74.9999 Y66.6000
G00 X74.9999 Y66.6000
G01 F100.00
G01 Z-4.4000
G01 F200.00
G01 X73.0000 Y66.6001
G01 X73.0001 Y69.4000
G01 X75.0000 Y69.3999
G01 X74.9999 Y66.6000
G00 X74.9999 Y66.6000
G01 F100.00
G01 Z-4.8000
G01 F200.00
G01 X73.0000 Y66.6001
G01 X73.0001 Y69.4000
G01 X75.0000 Y69.3999
G01 X74.9999 Y66.6000
G00 X74.9999 Y66.6000
G01 F100.00
G01 Z-5.2000
G01 F200.00
G01 X73.0000 Y66.6001
G01 X73.0001 Y69.4000
G01 X75.0000 Y69.3999
G01 X74.9999 Y66.6000
G00 X74.9999 Y66.6000
G01 F100.00
G01 Z-5.6000
G01 F200.00
G01 X73.0000 Y66.6001
G01 X73.0001 Y69.4000
G01 X75.0000 Y69.3999
G01 X74.9999 Y66.6000
G00 X74.9999 Y66.6000
G01 F100.00
G01 Z-6.0000
G01 F200.00
G01 X73.0000 Y66.6001
G01 X73.0001 Y69.4000
G01 X75.0000 Y69.3999
G01 X74.9999 Y66.6000
G00 X74.9999 Y66.6000
G01 F100.00
G01 Z-6.4000
G01 F200.00
G01 X73.0000 Y66.6001
G01 X73.0001 Y69.4000
G01 X75.0000 Y69.3999
G01 X74.9999 Y66.6000
G00 X74.9999 Y66.6000
G01 F100.00
G01 Z-6.8000
G01 F200.00
G01 X73.0000 Y66.6001
G01 X73.0001 Y69.4000
G01 X75.0000 Y69.3999
G01 X74.9999 Y66.6000
G00 X74.9999 Y66.6000
G01 F100.00
G01 Z-7.2000
G01 F200.00
G01 X73.0000 Y66.6001
G01 X73.0001 Y69.4000
G01 X75.0000 Y69.3999
G01 X74.9999 Y66.6000
G00 X74.9999 Y66.6000
G01 F100.00
G01 Z-7.6000
G01 F200.00
G01 X73.0000 Y66.6001
G01 X73.0001 Y69.4000
G01 X75.0000 Y69.3999
G01 X74.9999 Y66.6000
G00 X74.9999 Y66.6000
G01 F100.00
G01 Z-8.0000
G01 F200.00
G01 X73.0000 Y66.6001
G01 X73.0001 Y69.4000
G01 X75.0000 Y69.3999
G01 X74.9999 Y66.6000
G00 X74.9999 Y66.6000
G01 F100.00
G01 Z-8.4000
G01 F200.00
G01 X73.0000 Y66.6001
G01 X73.0001 Y69.4000
G01 X75.0000 Y69.3999
G01 X74.9999 Y66.6000
G00 X74.9999 Y66.6000
G01 F100.00
G01 Z-8.8000
G01 F200.00
G01 X73.0000 Y66.6001
G01 X73.0001 Y69.4000
G01 X75.0000 Y69.3999
G01 X74.9999 Y66.6000
G00 X74.9999 Y66.6000
G01 F100.00
G01 Z-9.2000
G01 F200.00
G01 X73.0000 Y66.6001
G01 X73.0001 Y69.4000
G01 X75.0000 Y69.3999
G01 X74.9999 Y66.6000
G00 X74.9999 Y66.6000
G01 F100.00
G01 Z-9.6000
G01 F200.00
G01 X73.0000 Y66.6001
G01 X73.0001 Y69.4000
G01 X75.0000 Y69.3999
G01 X74.9999 Y66.6000
G00 X74.9999 Y66.6000
G01 F100.00
G01 Z-10.0000
G01 F200.00
G01 X73.0000 Y66.6001
G01 X73.0001 Y69.4000
G01 X75.0000 Y69.3999
G01 X74.9999 Y66.6000
G00 X74.9999 Y66.6000
G01 F100.00
G01 Z-10.2000
G01 F200.00
G01 X73.0000 Y66.6001
G01 X73.0001 Y69.4000
G01 X75.0000 Y69.3999
G01 X74.9999 Y66.6000
G00 Z2.0000
G00 X147.8999 Y32.2000
G01 F100.00
G01 Z-0.4000
G01 F200.00
G01 X124.1000 Y32.2001
G01 X124.1001 Y62.8000
G01 X147.9000 Y62.7999
G01 X147.8999 Y32.2000
G00 X147.8999 Y32.2000
G01 F100.00
G01 Z-0.8000
G01 F200.00
G01 X124.1000 Y32.2001
G01 X124.1001 Y62.8000
G01 X147.9000 Y62.7999
G01 X147.8999 Y32.2000
G00 X147.8999 Y32.2000
G01 F100.00
G01 Z-1.2000
G01 F200.00
G01 X124.1000 Y32.2001
G01 X124.1001 Y62.8000
G01 X147.9000 Y62.7999
G01 X147.8999 Y32.2000
G00 X147.8999 Y32.2000
G01 F100.00
G01 Z-1.6000
G01 F200.00
G01 X124.1000 Y32.2001
G01 X124.1001 Y62.8000
G01 X147.9000 Y62.7999
G01 X147.8999 Y32.2000
G00 X147.8999 Y32.2000
G01 F100.00
G01 Z-2.0000
G01 F200.00
G01 X124.1000 Y32.2001
G01 X124.1001 Y62.8000
G01 X147.9000 Y62.7999
G01 X147.8999 Y32.2000
G00 X147.8999 Y32.2000
G01 F100.00
G01 Z-2.4000
G01 F200.00
G01 X124.1000 Y32.2001
G01 X124.1001 Y62.8000
G01 X147.9000 Y62.7999
G01 X147.8999 Y32.2000
G00 X147.8999 Y32.2000
G01 F100.00
G01 Z-2.8000
G01 F200.00
G01 X124.1000 Y32.2001
G01 X124.1001 Y62.8000
G01 X147.9000 Y62.7999
G01 X147.8999 Y32.2000
G00 X147.8999 Y32.2000
G01 F100.00
G01 Z-3.2000
G01 F200.00
G01 X124.1000 Y32.2001
G01 X124.1001 Y62.8000
G01 X147.9000 Y62.7999
G01 X147.8999 Y32.2000
G00 X147.8999 Y32.2000
G01 F100.00
G01 Z-3.6000
G01 F200.00
G01 X124.1000 Y32.2001
G01 X124.1001 Y62.8000
G01 X147.9000 Y62.7999
G01 X147.8999 Y32.2000
G00 X147.8999 Y32.2000
G01 F100.00
G01 Z-4.0000
G01 F200.00
G01 X124.1000 Y32.2001
G01 X124.1001 Y62.8000
G01 X147.9000 Y62.7999
G01 X147.8999 Y32.2000
G00 X147.8999 Y32.2000
G01 F100.00
G01 Z-4.4000
G01 F200.00
G01 X124.1000 Y32.2001
G01 X124.1001 Y62.8000
G01 X147.9000 Y62.7999
G01 X147.8999 Y32.2000
G00 X147.8999 Y32.2000
G01 F100.00
G01 Z-4.8000
G01 F200.00
G01 X124.1000 Y32.2001
G01 X124.1001 Y62.8000
G01 X147.9000 Y62.7999
G01 X147.8999 Y32.2000
G00 X147.8999 Y32.2000
G01 F100.00
G01 Z-5.2000
G01 F200.00
G01 X124.1000 Y32.2001
G01 X124.1001 Y62.8000
G01 X147.9000 Y62.7999
G01 X147.8999 Y32.2000
G00 X147.8999 Y32.2000
G01 F100.00
G01 Z-5.6000
G01 F200.00
G01 X124.1000 Y32.2001
G01 X124.1001 Y62.8000
G01 X147.9000 Y62.7999
G01 X147.8999 Y32.2000
G00 X147.8999 Y32.2000
G01 F100.00
G01 Z-6.0000
G01 F200.00
G01 X124.1000 Y32.2001
G01 X124.1001 Y62.8000
G01 X147.9000 Y62.7999
G01 X147.8999 Y32.2000
G00 X147.8999 Y32.2000
G01 F100.00
G01 Z-6.4000
G01 F200.00
G01 X124.1000 Y32.2001
G01 X124.1001 Y62.8000
G01 X147.9000 Y62.7999
G01 X147.8999 Y32.2000
G00 X147.8999 Y32.2000
G01 F100.00
G01 Z-6.8000
G01 F200.00
G01 X124.1000 Y32.2001
G01 X124.1001 Y62.8000
G01 X147.9000 Y62.7999
G01 X147.8999 Y32.2000
G00 X147.8999 Y32.2000
G01 F100.00
G01 Z-7.2000
G01 F200.00
G01 X124.1000 Y32.2001
G01 X124.1001 Y62.8000
G01 X147.9000 Y62.7999
G01 X147.8999 Y32.2000
G00 X147.8999 Y32.2000
G01 F100.00
G01 Z-7.6000
G01 F200.00
G01 X124.1000 Y32.2001
G01 X124.1001 Y62.8000
G01 X147.9000 Y62.7999
G01 X147.8999 Y32.2000
G00 X147.8999 Y32.2000
G01 F100.00
G01 Z-8.0000
G01 F200.00
G01 X124.1000 Y32.2001
G01 X124.1001 Y62.8000
G01 X147.9000 Y62.7999
G01 X147.8999 Y32.2000
G00 X147.8999 Y32.2000
G01 F100.00
G01 Z-8.4000
G01 F200.00
G01 X124.1000 Y32.2001
G01 X124.1001 Y62.8000
G01 X147.9000 Y62.7999
G01 X147.8999 Y32.2000
G00 X147.8999 Y32.2000
G01 F100.00
G01 Z-8.8000
G01 F200.00
G01 X124.1000 Y32.2001
G01 X124.1001 Y62.8000
G01 X147.9000 Y62.7999
G01 X147.8999 Y32.2000
G00 X147.8999 Y32.2000
G01 F100.00
G01 Z-9.2000
G01 F200.00
G01 X124.1000 Y32.2001
G01 X124.1001 Y62.8000
G01 X147.9000 Y62.7999
G01 X147.8999 Y32.2000
G00 X147.8999 Y32.2000
G01 F100.00
G01 Z-9.6000
G01 F200.00
G01 X124.1000 Y32.2001
G01 X124.1001 Y62.8000
G01 X147.9000 Y62.7999
G01 X147.8999 Y32.2000
G00 X147.8999 Y32.2000
G01 F100.00
G01 Z-10.0000
G01 F200.00
G01 X124.1000 Y32.2001
G01 X124.1001 Y62.8000
G01 X147.9000 Y62.7999
G01 X147.8999 Y32.2000
G00 X147.8999 Y32.2000
G01 F100.00
G01 Z-10.2000
G01 F200.00
G01 X124.1000 Y32.2001
G01 X124.1001 Y62.8000
G01 X147.9000 Y62.7999
G01 X147.8999 Y32.2000
G00 Z2.0000
M05
G00 Z2.0000
G00 Z2.00
G00 X0.0 Y0.0

