(G-CODE GENERATED BY FLATCAM v8.991 - www.flatcam.org - Version Date: 2019/12/27)

(Name: PetitsTrous_int_iso_cnc)
(Type: G-code from Geometry)
(Units: MM)

(Created on Saturday, 28 September 2024 at 13:12)

(TOOL DIAMETER: 2.0 mm)
(Feedrate: 200.0 mm/min)
(Feedrate_Z: 100.0 mm/min)
(Feedrate rapids 1500.0 mm/min)

(Z_Cut: -10.2 mm)
(DepthPerCut: 0.6 mm <=>17 passes)
(Z_Move: 2.0 mm)
(Z Toolchange: 15.0 mm)
(X,Y Toolchange: 0.00, 0.00 mm)
(Z Start: None mm)
(Z End: 5.0 mm)
(Steps per circle: 64)
(Preprocessor Geometry: default)

(X range:    7.5014 ...  153.4986  mm)
(Y range:    6.0014 ...   88.9986  mm)

(Spindle Speed: None RPM)
G21
G90
G94




G01 F200.00
G00 Z2.0000

M03
G00 X7.5014 Y6.5000
G01 F100.00
G01 Z-0.6000
G01 F200.00
G01 X7.5038 Y6.5489
G01 X7.5110 Y6.5973
G01 X7.5228 Y6.6447
G01 X7.5393 Y6.6908
G01 X7.5603 Y6.7350
G01 X7.5854 Y6.7770
G01 X7.6146 Y6.8163
G01 X7.6474 Y6.8526
G01 X7.6837 Y6.8854
G01 X7.7230 Y6.9146
G01 X7.7650 Y6.9397
G01 X7.8092 Y6.9607
G01 X7.8553 Y6.9772
G01 X7.9027 Y6.9890
G01 X7.9511 Y6.9962
G01 X8.0000 Y6.9986
G01 X8.0489 Y6.9962
G01 X8.0973 Y6.9890
G01 X8.1447 Y6.9772
G01 X8.1908 Y6.9607
G01 X8.2350 Y6.9397
G01 X8.2770 Y6.9146
G01 X8.3163 Y6.8854
G01 X8.3526 Y6.8526
G01 X8.3854 Y6.8163
G01 X8.4146 Y6.7770
G01 X8.4397 Y6.7350
G01 X8.4607 Y6.6908
G01 X8.4772 Y6.6447
G01 X8.4890 Y6.5973
G01 X8.4962 Y6.5489
G01 X8.4986 Y6.5000
G01 X8.4962 Y6.4511
G01 X8.4890 Y6.4027
G01 X8.4772 Y6.3553
G01 X8.4607 Y6.3092
G01 X8.4397 Y6.2650
G01 X8.4146 Y6.2230
G01 X8.3854 Y6.1837
G01 X8.3526 Y6.1474
G01 X8.3163 Y6.1146
G01 X8.2770 Y6.0854
G01 X8.2350 Y6.0603
G01 X8.1908 Y6.0393
G01 X8.1447 Y6.0228
G01 X8.0973 Y6.0110
G01 X8.0489 Y6.0038
G01 X8.0000 Y6.0014
G01 X7.9511 Y6.0038
G01 X7.9027 Y6.0110
G01 X7.8553 Y6.0228
G01 X7.8092 Y6.0393
G01 X7.7650 Y6.0603
G01 X7.7230 Y6.0854
G01 X7.6837 Y6.1146
G01 X7.6474 Y6.1474
G01 X7.6146 Y6.1837
G01 X7.5854 Y6.2230
G01 X7.5603 Y6.2650
G01 X7.5393 Y6.3092
G01 X7.5228 Y6.3553
G01 X7.5110 Y6.4027
G01 X7.5038 Y6.4511
G01 X7.5014 Y6.5000
G00 X7.5014 Y6.5000
G01 F100.00
G01 Z-1.2000
G01 F200.00
G01 X7.5038 Y6.5489
G01 X7.5110 Y6.5973
G01 X7.5228 Y6.6447
G01 X7.5393 Y6.6908
G01 X7.5603 Y6.7350
G01 X7.5854 Y6.7770
G01 X7.6146 Y6.8163
G01 X7.6474 Y6.8526
G01 X7.6837 Y6.8854
G01 X7.7230 Y6.9146
G01 X7.7650 Y6.9397
G01 X7.8092 Y6.9607
G01 X7.8553 Y6.9772
G01 X7.9027 Y6.9890
G01 X7.9511 Y6.9962
G01 X8.0000 Y6.9986
G01 X8.0489 Y6.9962
G01 X8.0973 Y6.9890
G01 X8.1447 Y6.9772
G01 X8.1908 Y6.9607
G01 X8.2350 Y6.9397
G01 X8.2770 Y6.9146
G01 X8.3163 Y6.8854
G01 X8.3526 Y6.8526
G01 X8.3854 Y6.8163
G01 X8.4146 Y6.7770
G01 X8.4397 Y6.7350
G01 X8.4607 Y6.6908
G01 X8.4772 Y6.6447
G01 X8.4890 Y6.5973
G01 X8.4962 Y6.5489
G01 X8.4986 Y6.5000
G01 X8.4962 Y6.4511
G01 X8.4890 Y6.4027
G01 X8.4772 Y6.3553
G01 X8.4607 Y6.3092
G01 X8.4397 Y6.2650
G01 X8.4146 Y6.2230
G01 X8.3854 Y6.1837
G01 X8.3526 Y6.1474
G01 X8.3163 Y6.1146
G01 X8.2770 Y6.0854
G01 X8.2350 Y6.0603
G01 X8.1908 Y6.0393
G01 X8.1447 Y6.0228
G01 X8.0973 Y6.0110
G01 X8.0489 Y6.0038
G01 X8.0000 Y6.0014
G01 X7.9511 Y6.0038
G01 X7.9027 Y6.0110
G01 X7.8553 Y6.0228
G01 X7.8092 Y6.0393
G01 X7.7650 Y6.0603
G01 X7.7230 Y6.0854
G01 X7.6837 Y6.1146
G01 X7.6474 Y6.1474
G01 X7.6146 Y6.1837
G01 X7.5854 Y6.2230
G01 X7.5603 Y6.2650
G01 X7.5393 Y6.3092
G01 X7.5228 Y6.3553
G01 X7.5110 Y6.4027
G01 X7.5038 Y6.4511
G01 X7.5014 Y6.5000
G00 X7.5014 Y6.5000
G01 F100.00
G01 Z-1.8000
G01 F200.00
G01 X7.5038 Y6.5489
G01 X7.5110 Y6.5973
G01 X7.5228 Y6.6447
G01 X7.5393 Y6.6908
G01 X7.5603 Y6.7350
G01 X7.5854 Y6.7770
G01 X7.6146 Y6.8163
G01 X7.6474 Y6.8526
G01 X7.6837 Y6.8854
G01 X7.7230 Y6.9146
G01 X7.7650 Y6.9397
G01 X7.8092 Y6.9607
G01 X7.8553 Y6.9772
G01 X7.9027 Y6.9890
G01 X7.9511 Y6.9962
G01 X8.0000 Y6.9986
G01 X8.0489 Y6.9962
G01 X8.0973 Y6.9890
G01 X8.1447 Y6.9772
G01 X8.1908 Y6.9607
G01 X8.2350 Y6.9397
G01 X8.2770 Y6.9146
G01 X8.3163 Y6.8854
G01 X8.3526 Y6.8526
G01 X8.3854 Y6.8163
G01 X8.4146 Y6.7770
G01 X8.4397 Y6.7350
G01 X8.4607 Y6.6908
G01 X8.4772 Y6.6447
G01 X8.4890 Y6.5973
G01 X8.4962 Y6.5489
G01 X8.4986 Y6.5000
G01 X8.4962 Y6.4511
G01 X8.4890 Y6.4027
G01 X8.4772 Y6.3553
G01 X8.4607 Y6.3092
G01 X8.4397 Y6.2650
G01 X8.4146 Y6.2230
G01 X8.3854 Y6.1837
G01 X8.3526 Y6.1474
G01 X8.3163 Y6.1146
G01 X8.2770 Y6.0854
G01 X8.2350 Y6.0603
G01 X8.1908 Y6.0393
G01 X8.1447 Y6.0228
G01 X8.0973 Y6.0110
G01 X8.0489 Y6.0038
G01 X8.0000 Y6.0014
G01 X7.9511 Y6.0038
G01 X7.9027 Y6.0110
G01 X7.8553 Y6.0228
G01 X7.8092 Y6.0393
G01 X7.7650 Y6.0603
G01 X7.7230 Y6.0854
G01 X7.6837 Y6.1146
G01 X7.6474 Y6.1474
G01 X7.6146 Y6.1837
G01 X7.5854 Y6.2230
G01 X7.5603 Y6.2650
G01 X7.5393 Y6.3092
G01 X7.5228 Y6.3553
G01 X7.5110 Y6.4027
G01 X7.5038 Y6.4511
G01 X7.5014 Y6.5000
G00 X7.5014 Y6.5000
G01 F100.00
G01 Z-2.4000
G01 F200.00
G01 X7.5038 Y6.5489
G01 X7.5110 Y6.5973
G01 X7.5228 Y6.6447
G01 X7.5393 Y6.6908
G01 X7.5603 Y6.7350
G01 X7.5854 Y6.7770
G01 X7.6146 Y6.8163
G01 X7.6474 Y6.8526
G01 X7.6837 Y6.8854
G01 X7.7230 Y6.9146
G01 X7.7650 Y6.9397
G01 X7.8092 Y6.9607
G01 X7.8553 Y6.9772
G01 X7.9027 Y6.9890
G01 X7.9511 Y6.9962
G01 X8.0000 Y6.9986
G01 X8.0489 Y6.9962
G01 X8.0973 Y6.9890
G01 X8.1447 Y6.9772
G01 X8.1908 Y6.9607
G01 X8.2350 Y6.9397
G01 X8.2770 Y6.9146
G01 X8.3163 Y6.8854
G01 X8.3526 Y6.8526
G01 X8.3854 Y6.8163
G01 X8.4146 Y6.7770
G01 X8.4397 Y6.7350
G01 X8.4607 Y6.6908
G01 X8.4772 Y6.6447
G01 X8.4890 Y6.5973
G01 X8.4962 Y6.5489
G01 X8.4986 Y6.5000
G01 X8.4962 Y6.4511
G01 X8.4890 Y6.4027
G01 X8.4772 Y6.3553
G01 X8.4607 Y6.3092
G01 X8.4397 Y6.2650
G01 X8.4146 Y6.2230
G01 X8.3854 Y6.1837
G01 X8.3526 Y6.1474
G01 X8.3163 Y6.1146
G01 X8.2770 Y6.0854
G01 X8.2350 Y6.0603
G01 X8.1908 Y6.0393
G01 X8.1447 Y6.0228
G01 X8.0973 Y6.0110
G01 X8.0489 Y6.0038
G01 X8.0000 Y6.0014
G01 X7.9511 Y6.0038
G01 X7.9027 Y6.0110
G01 X7.8553 Y6.0228
G01 X7.8092 Y6.0393
G01 X7.7650 Y6.0603
G01 X7.7230 Y6.0854
G01 X7.6837 Y6.1146
G01 X7.6474 Y6.1474
G01 X7.6146 Y6.1837
G01 X7.5854 Y6.2230
G01 X7.5603 Y6.2650
G01 X7.5393 Y6.3092
G01 X7.5228 Y6.3553
G01 X7.5110 Y6.4027
G01 X7.5038 Y6.4511
G01 X7.5014 Y6.5000
G00 X7.5014 Y6.5000
G01 F100.00
G01 Z-3.0000
G01 F200.00
G01 X7.5038 Y6.5489
G01 X7.5110 Y6.5973
G01 X7.5228 Y6.6447
G01 X7.5393 Y6.6908
G01 X7.5603 Y6.7350
G01 X7.5854 Y6.7770
G01 X7.6146 Y6.8163
G01 X7.6474 Y6.8526
G01 X7.6837 Y6.8854
G01 X7.7230 Y6.9146
G01 X7.7650 Y6.9397
G01 X7.8092 Y6.9607
G01 X7.8553 Y6.9772
G01 X7.9027 Y6.9890
G01 X7.9511 Y6.9962
G01 X8.0000 Y6.9986
G01 X8.0489 Y6.9962
G01 X8.0973 Y6.9890
G01 X8.1447 Y6.9772
G01 X8.1908 Y6.9607
G01 X8.2350 Y6.9397
G01 X8.2770 Y6.9146
G01 X8.3163 Y6.8854
G01 X8.3526 Y6.8526
G01 X8.3854 Y6.8163
G01 X8.4146 Y6.7770
G01 X8.4397 Y6.7350
G01 X8.4607 Y6.6908
G01 X8.4772 Y6.6447
G01 X8.4890 Y6.5973
G01 X8.4962 Y6.5489
G01 X8.4986 Y6.5000
G01 X8.4962 Y6.4511
G01 X8.4890 Y6.4027
G01 X8.4772 Y6.3553
G01 X8.4607 Y6.3092
G01 X8.4397 Y6.2650
G01 X8.4146 Y6.2230
G01 X8.3854 Y6.1837
G01 X8.3526 Y6.1474
G01 X8.3163 Y6.1146
G01 X8.2770 Y6.0854
G01 X8.2350 Y6.0603
G01 X8.1908 Y6.0393
G01 X8.1447 Y6.0228
G01 X8.0973 Y6.0110
G01 X8.0489 Y6.0038
G01 X8.0000 Y6.0014
G01 X7.9511 Y6.0038
G01 X7.9027 Y6.0110
G01 X7.8553 Y6.0228
G01 X7.8092 Y6.0393
G01 X7.7650 Y6.0603
G01 X7.7230 Y6.0854
G01 X7.6837 Y6.1146
G01 X7.6474 Y6.1474
G01 X7.6146 Y6.1837
G01 X7.5854 Y6.2230
G01 X7.5603 Y6.2650
G01 X7.5393 Y6.3092
G01 X7.5228 Y6.3553
G01 X7.5110 Y6.4027
G01 X7.5038 Y6.4511
G01 X7.5014 Y6.5000
G00 X7.5014 Y6.5000
G01 F100.00
G01 Z-3.6000
G01 F200.00
G01 X7.5038 Y6.5489
G01 X7.5110 Y6.5973
G01 X7.5228 Y6.6447
G01 X7.5393 Y6.6908
G01 X7.5603 Y6.7350
G01 X7.5854 Y6.7770
G01 X7.6146 Y6.8163
G01 X7.6474 Y6.8526
G01 X7.6837 Y6.8854
G01 X7.7230 Y6.9146
G01 X7.7650 Y6.9397
G01 X7.8092 Y6.9607
G01 X7.8553 Y6.9772
G01 X7.9027 Y6.9890
G01 X7.9511 Y6.9962
G01 X8.0000 Y6.9986
G01 X8.0489 Y6.9962
G01 X8.0973 Y6.9890
G01 X8.1447 Y6.9772
G01 X8.1908 Y6.9607
G01 X8.2350 Y6.9397
G01 X8.2770 Y6.9146
G01 X8.3163 Y6.8854
G01 X8.3526 Y6.8526
G01 X8.3854 Y6.8163
G01 X8.4146 Y6.7770
G01 X8.4397 Y6.7350
G01 X8.4607 Y6.6908
G01 X8.4772 Y6.6447
G01 X8.4890 Y6.5973
G01 X8.4962 Y6.5489
G01 X8.4986 Y6.5000
G01 X8.4962 Y6.4511
G01 X8.4890 Y6.4027
G01 X8.4772 Y6.3553
G01 X8.4607 Y6.3092
G01 X8.4397 Y6.2650
G01 X8.4146 Y6.2230
G01 X8.3854 Y6.1837
G01 X8.3526 Y6.1474
G01 X8.3163 Y6.1146
G01 X8.2770 Y6.0854
G01 X8.2350 Y6.0603
G01 X8.1908 Y6.0393
G01 X8.1447 Y6.0228
G01 X8.0973 Y6.0110
G01 X8.0489 Y6.0038
G01 X8.0000 Y6.0014
G01 X7.9511 Y6.0038
G01 X7.9027 Y6.0110
G01 X7.8553 Y6.0228
G01 X7.8092 Y6.0393
G01 X7.7650 Y6.0603
G01 X7.7230 Y6.0854
G01 X7.6837 Y6.1146
G01 X7.6474 Y6.1474
G01 X7.6146 Y6.1837
G01 X7.5854 Y6.2230
G01 X7.5603 Y6.2650
G01 X7.5393 Y6.3092
G01 X7.5228 Y6.3553
G01 X7.5110 Y6.4027
G01 X7.5038 Y6.4511
G01 X7.5014 Y6.5000
G00 X7.5014 Y6.5000
G01 F100.00
G01 Z-4.2000
G01 F200.00
G01 X7.5038 Y6.5489
G01 X7.5110 Y6.5973
G01 X7.5228 Y6.6447
G01 X7.5393 Y6.6908
G01 X7.5603 Y6.7350
G01 X7.5854 Y6.7770
G01 X7.6146 Y6.8163
G01 X7.6474 Y6.8526
G01 X7.6837 Y6.8854
G01 X7.7230 Y6.9146
G01 X7.7650 Y6.9397
G01 X7.8092 Y6.9607
G01 X7.8553 Y6.9772
G01 X7.9027 Y6.9890
G01 X7.9511 Y6.9962
G01 X8.0000 Y6.9986
G01 X8.0489 Y6.9962
G01 X8.0973 Y6.9890
G01 X8.1447 Y6.9772
G01 X8.1908 Y6.9607
G01 X8.2350 Y6.9397
G01 X8.2770 Y6.9146
G01 X8.3163 Y6.8854
G01 X8.3526 Y6.8526
G01 X8.3854 Y6.8163
G01 X8.4146 Y6.7770
G01 X8.4397 Y6.7350
G01 X8.4607 Y6.6908
G01 X8.4772 Y6.6447
G01 X8.4890 Y6.5973
G01 X8.4962 Y6.5489
G01 X8.4986 Y6.5000
G01 X8.4962 Y6.4511
G01 X8.4890 Y6.4027
G01 X8.4772 Y6.3553
G01 X8.4607 Y6.3092
G01 X8.4397 Y6.2650
G01 X8.4146 Y6.2230
G01 X8.3854 Y6.1837
G01 X8.3526 Y6.1474
G01 X8.3163 Y6.1146
G01 X8.2770 Y6.0854
G01 X8.2350 Y6.0603
G01 X8.1908 Y6.0393
G01 X8.1447 Y6.0228
G01 X8.0973 Y6.0110
G01 X8.0489 Y6.0038
G01 X8.0000 Y6.0014
G01 X7.9511 Y6.0038
G01 X7.9027 Y6.0110
G01 X7.8553 Y6.0228
G01 X7.8092 Y6.0393
G01 X7.7650 Y6.0603
G01 X7.7230 Y6.0854
G01 X7.6837 Y6.1146
G01 X7.6474 Y6.1474
G01 X7.6146 Y6.1837
G01 X7.5854 Y6.2230
G01 X7.5603 Y6.2650
G01 X7.5393 Y6.3092
G01 X7.5228 Y6.3553
G01 X7.5110 Y6.4027
G01 X7.5038 Y6.4511
G01 X7.5014 Y6.5000
G00 X7.5014 Y6.5000
G01 F100.00
G01 Z-4.8000
G01 F200.00
G01 X7.5038 Y6.5489
G01 X7.5110 Y6.5973
G01 X7.5228 Y6.6447
G01 X7.5393 Y6.6908
G01 X7.5603 Y6.7350
G01 X7.5854 Y6.7770
G01 X7.6146 Y6.8163
G01 X7.6474 Y6.8526
G01 X7.6837 Y6.8854
G01 X7.7230 Y6.9146
G01 X7.7650 Y6.9397
G01 X7.8092 Y6.9607
G01 X7.8553 Y6.9772
G01 X7.9027 Y6.9890
G01 X7.9511 Y6.9962
G01 X8.0000 Y6.9986
G01 X8.0489 Y6.9962
G01 X8.0973 Y6.9890
G01 X8.1447 Y6.9772
G01 X8.1908 Y6.9607
G01 X8.2350 Y6.9397
G01 X8.2770 Y6.9146
G01 X8.3163 Y6.8854
G01 X8.3526 Y6.8526
G01 X8.3854 Y6.8163
G01 X8.4146 Y6.7770
G01 X8.4397 Y6.7350
G01 X8.4607 Y6.6908
G01 X8.4772 Y6.6447
G01 X8.4890 Y6.5973
G01 X8.4962 Y6.5489
G01 X8.4986 Y6.5000
G01 X8.4962 Y6.4511
G01 X8.4890 Y6.4027
G01 X8.4772 Y6.3553
G01 X8.4607 Y6.3092
G01 X8.4397 Y6.2650
G01 X8.4146 Y6.2230
G01 X8.3854 Y6.1837
G01 X8.3526 Y6.1474
G01 X8.3163 Y6.1146
G01 X8.2770 Y6.0854
G01 X8.2350 Y6.0603
G01 X8.1908 Y6.0393
G01 X8.1447 Y6.0228
G01 X8.0973 Y6.0110
G01 X8.0489 Y6.0038
G01 X8.0000 Y6.0014
G01 X7.9511 Y6.0038
G01 X7.9027 Y6.0110
G01 X7.8553 Y6.0228
G01 X7.8092 Y6.0393
G01 X7.7650 Y6.0603
G01 X7.7230 Y6.0854
G01 X7.6837 Y6.1146
G01 X7.6474 Y6.1474
G01 X7.6146 Y6.1837
G01 X7.5854 Y6.2230
G01 X7.5603 Y6.2650
G01 X7.5393 Y6.3092
G01 X7.5228 Y6.3553
G01 X7.5110 Y6.4027
G01 X7.5038 Y6.4511
G01 X7.5014 Y6.5000
G00 X7.5014 Y6.5000
G01 F100.00
G01 Z-5.4000
G01 F200.00
G01 X7.5038 Y6.5489
G01 X7.5110 Y6.5973
G01 X7.5228 Y6.6447
G01 X7.5393 Y6.6908
G01 X7.5603 Y6.7350
G01 X7.5854 Y6.7770
G01 X7.6146 Y6.8163
G01 X7.6474 Y6.8526
G01 X7.6837 Y6.8854
G01 X7.7230 Y6.9146
G01 X7.7650 Y6.9397
G01 X7.8092 Y6.9607
G01 X7.8553 Y6.9772
G01 X7.9027 Y6.9890
G01 X7.9511 Y6.9962
G01 X8.0000 Y6.9986
G01 X8.0489 Y6.9962
G01 X8.0973 Y6.9890
G01 X8.1447 Y6.9772
G01 X8.1908 Y6.9607
G01 X8.2350 Y6.9397
G01 X8.2770 Y6.9146
G01 X8.3163 Y6.8854
G01 X8.3526 Y6.8526
G01 X8.3854 Y6.8163
G01 X8.4146 Y6.7770
G01 X8.4397 Y6.7350
G01 X8.4607 Y6.6908
G01 X8.4772 Y6.6447
G01 X8.4890 Y6.5973
G01 X8.4962 Y6.5489
G01 X8.4986 Y6.5000
G01 X8.4962 Y6.4511
G01 X8.4890 Y6.4027
G01 X8.4772 Y6.3553
G01 X8.4607 Y6.3092
G01 X8.4397 Y6.2650
G01 X8.4146 Y6.2230
G01 X8.3854 Y6.1837
G01 X8.3526 Y6.1474
G01 X8.3163 Y6.1146
G01 X8.2770 Y6.0854
G01 X8.2350 Y6.0603
G01 X8.1908 Y6.0393
G01 X8.1447 Y6.0228
G01 X8.0973 Y6.0110
G01 X8.0489 Y6.0038
G01 X8.0000 Y6.0014
G01 X7.9511 Y6.0038
G01 X7.9027 Y6.0110
G01 X7.8553 Y6.0228
G01 X7.8092 Y6.0393
G01 X7.7650 Y6.0603
G01 X7.7230 Y6.0854
G01 X7.6837 Y6.1146
G01 X7.6474 Y6.1474
G01 X7.6146 Y6.1837
G01 X7.5854 Y6.2230
G01 X7.5603 Y6.2650
G01 X7.5393 Y6.3092
G01 X7.5228 Y6.3553
G01 X7.5110 Y6.4027
G01 X7.5038 Y6.4511
G01 X7.5014 Y6.5000
G00 X7.5014 Y6.5000
G01 F100.00
G01 Z-6.0000
G01 F200.00
G01 X7.5038 Y6.5489
G01 X7.5110 Y6.5973
G01 X7.5228 Y6.6447
G01 X7.5393 Y6.6908
G01 X7.5603 Y6.7350
G01 X7.5854 Y6.7770
G01 X7.6146 Y6.8163
G01 X7.6474 Y6.8526
G01 X7.6837 Y6.8854
G01 X7.7230 Y6.9146
G01 X7.7650 Y6.9397
G01 X7.8092 Y6.9607
G01 X7.8553 Y6.9772
G01 X7.9027 Y6.9890
G01 X7.9511 Y6.9962
G01 X8.0000 Y6.9986
G01 X8.0489 Y6.9962
G01 X8.0973 Y6.9890
G01 X8.1447 Y6.9772
G01 X8.1908 Y6.9607
G01 X8.2350 Y6.9397
G01 X8.2770 Y6.9146
G01 X8.3163 Y6.8854
G01 X8.3526 Y6.8526
G01 X8.3854 Y6.8163
G01 X8.4146 Y6.7770
G01 X8.4397 Y6.7350
G01 X8.4607 Y6.6908
G01 X8.4772 Y6.6447
G01 X8.4890 Y6.5973
G01 X8.4962 Y6.5489
G01 X8.4986 Y6.5000
G01 X8.4962 Y6.4511
G01 X8.4890 Y6.4027
G01 X8.4772 Y6.3553
G01 X8.4607 Y6.3092
G01 X8.4397 Y6.2650
G01 X8.4146 Y6.2230
G01 X8.3854 Y6.1837
G01 X8.3526 Y6.1474
G01 X8.3163 Y6.1146
G01 X8.2770 Y6.0854
G01 X8.2350 Y6.0603
G01 X8.1908 Y6.0393
G01 X8.1447 Y6.0228
G01 X8.0973 Y6.0110
G01 X8.0489 Y6.0038
G01 X8.0000 Y6.0014
G01 X7.9511 Y6.0038
G01 X7.9027 Y6.0110
G01 X7.8553 Y6.0228
G01 X7.8092 Y6.0393
G01 X7.7650 Y6.0603
G01 X7.7230 Y6.0854
G01 X7.6837 Y6.1146
G01 X7.6474 Y6.1474
G01 X7.6146 Y6.1837
G01 X7.5854 Y6.2230
G01 X7.5603 Y6.2650
G01 X7.5393 Y6.3092
G01 X7.5228 Y6.3553
G01 X7.5110 Y6.4027
G01 X7.5038 Y6.4511
G01 X7.5014 Y6.5000
G00 X7.5014 Y6.5000
G01 F100.00
G01 Z-6.6000
G01 F200.00
G01 X7.5038 Y6.5489
G01 X7.5110 Y6.5973
G01 X7.5228 Y6.6447
G01 X7.5393 Y6.6908
G01 X7.5603 Y6.7350
G01 X7.5854 Y6.7770
G01 X7.6146 Y6.8163
G01 X7.6474 Y6.8526
G01 X7.6837 Y6.8854
G01 X7.7230 Y6.9146
G01 X7.7650 Y6.9397
G01 X7.8092 Y6.9607
G01 X7.8553 Y6.9772
G01 X7.9027 Y6.9890
G01 X7.9511 Y6.9962
G01 X8.0000 Y6.9986
G01 X8.0489 Y6.9962
G01 X8.0973 Y6.9890
G01 X8.1447 Y6.9772
G01 X8.1908 Y6.9607
G01 X8.2350 Y6.9397
G01 X8.2770 Y6.9146
G01 X8.3163 Y6.8854
G01 X8.3526 Y6.8526
G01 X8.3854 Y6.8163
G01 X8.4146 Y6.7770
G01 X8.4397 Y6.7350
G01 X8.4607 Y6.6908
G01 X8.4772 Y6.6447
G01 X8.4890 Y6.5973
G01 X8.4962 Y6.5489
G01 X8.4986 Y6.5000
G01 X8.4962 Y6.4511
G01 X8.4890 Y6.4027
G01 X8.4772 Y6.3553
G01 X8.4607 Y6.3092
G01 X8.4397 Y6.2650
G01 X8.4146 Y6.2230
G01 X8.3854 Y6.1837
G01 X8.3526 Y6.1474
G01 X8.3163 Y6.1146
G01 X8.2770 Y6.0854
G01 X8.2350 Y6.0603
G01 X8.1908 Y6.0393
G01 X8.1447 Y6.0228
G01 X8.0973 Y6.0110
G01 X8.0489 Y6.0038
G01 X8.0000 Y6.0014
G01 X7.9511 Y6.0038
G01 X7.9027 Y6.0110
G01 X7.8553 Y6.0228
G01 X7.8092 Y6.0393
G01 X7.7650 Y6.0603
G01 X7.7230 Y6.0854
G01 X7.6837 Y6.1146
G01 X7.6474 Y6.1474
G01 X7.6146 Y6.1837
G01 X7.5854 Y6.2230
G01 X7.5603 Y6.2650
G01 X7.5393 Y6.3092
G01 X7.5228 Y6.3553
G01 X7.5110 Y6.4027
G01 X7.5038 Y6.4511
G01 X7.5014 Y6.5000
G00 X7.5014 Y6.5000
G01 F100.00
G01 Z-7.2000
G01 F200.00
G01 X7.5038 Y6.5489
G01 X7.5110 Y6.5973
G01 X7.5228 Y6.6447
G01 X7.5393 Y6.6908
G01 X7.5603 Y6.7350
G01 X7.5854 Y6.7770
G01 X7.6146 Y6.8163
G01 X7.6474 Y6.8526
G01 X7.6837 Y6.8854
G01 X7.7230 Y6.9146
G01 X7.7650 Y6.9397
G01 X7.8092 Y6.9607
G01 X7.8553 Y6.9772
G01 X7.9027 Y6.9890
G01 X7.9511 Y6.9962
G01 X8.0000 Y6.9986
G01 X8.0489 Y6.9962
G01 X8.0973 Y6.9890
G01 X8.1447 Y6.9772
G01 X8.1908 Y6.9607
G01 X8.2350 Y6.9397
G01 X8.2770 Y6.9146
G01 X8.3163 Y6.8854
G01 X8.3526 Y6.8526
G01 X8.3854 Y6.8163
G01 X8.4146 Y6.7770
G01 X8.4397 Y6.7350
G01 X8.4607 Y6.6908
G01 X8.4772 Y6.6447
G01 X8.4890 Y6.5973
G01 X8.4962 Y6.5489
G01 X8.4986 Y6.5000
G01 X8.4962 Y6.4511
G01 X8.4890 Y6.4027
G01 X8.4772 Y6.3553
G01 X8.4607 Y6.3092
G01 X8.4397 Y6.2650
G01 X8.4146 Y6.2230
G01 X8.3854 Y6.1837
G01 X8.3526 Y6.1474
G01 X8.3163 Y6.1146
G01 X8.2770 Y6.0854
G01 X8.2350 Y6.0603
G01 X8.1908 Y6.0393
G01 X8.1447 Y6.0228
G01 X8.0973 Y6.0110
G01 X8.0489 Y6.0038
G01 X8.0000 Y6.0014
G01 X7.9511 Y6.0038
G01 X7.9027 Y6.0110
G01 X7.8553 Y6.0228
G01 X7.8092 Y6.0393
G01 X7.7650 Y6.0603
G01 X7.7230 Y6.0854
G01 X7.6837 Y6.1146
G01 X7.6474 Y6.1474
G01 X7.6146 Y6.1837
G01 X7.5854 Y6.2230
G01 X7.5603 Y6.2650
G01 X7.5393 Y6.3092
G01 X7.5228 Y6.3553
G01 X7.5110 Y6.4027
G01 X7.5038 Y6.4511
G01 X7.5014 Y6.5000
G00 X7.5014 Y6.5000
G01 F100.00
G01 Z-7.8000
G01 F200.00
G01 X7.5038 Y6.5489
G01 X7.5110 Y6.5973
G01 X7.5228 Y6.6447
G01 X7.5393 Y6.6908
G01 X7.5603 Y6.7350
G01 X7.5854 Y6.7770
G01 X7.6146 Y6.8163
G01 X7.6474 Y6.8526
G01 X7.6837 Y6.8854
G01 X7.7230 Y6.9146
G01 X7.7650 Y6.9397
G01 X7.8092 Y6.9607
G01 X7.8553 Y6.9772
G01 X7.9027 Y6.9890
G01 X7.9511 Y6.9962
G01 X8.0000 Y6.9986
G01 X8.0489 Y6.9962
G01 X8.0973 Y6.9890
G01 X8.1447 Y6.9772
G01 X8.1908 Y6.9607
G01 X8.2350 Y6.9397
G01 X8.2770 Y6.9146
G01 X8.3163 Y6.8854
G01 X8.3526 Y6.8526
G01 X8.3854 Y6.8163
G01 X8.4146 Y6.7770
G01 X8.4397 Y6.7350
G01 X8.4607 Y6.6908
G01 X8.4772 Y6.6447
G01 X8.4890 Y6.5973
G01 X8.4962 Y6.5489
G01 X8.4986 Y6.5000
G01 X8.4962 Y6.4511
G01 X8.4890 Y6.4027
G01 X8.4772 Y6.3553
G01 X8.4607 Y6.3092
G01 X8.4397 Y6.2650
G01 X8.4146 Y6.2230
G01 X8.3854 Y6.1837
G01 X8.3526 Y6.1474
G01 X8.3163 Y6.1146
G01 X8.2770 Y6.0854
G01 X8.2350 Y6.0603
G01 X8.1908 Y6.0393
G01 X8.1447 Y6.0228
G01 X8.0973 Y6.0110
G01 X8.0489 Y6.0038
G01 X8.0000 Y6.0014
G01 X7.9511 Y6.0038
G01 X7.9027 Y6.0110
G01 X7.8553 Y6.0228
G01 X7.8092 Y6.0393
G01 X7.7650 Y6.0603
G01 X7.7230 Y6.0854
G01 X7.6837 Y6.1146
G01 X7.6474 Y6.1474
G01 X7.6146 Y6.1837
G01 X7.5854 Y6.2230
G01 X7.5603 Y6.2650
G01 X7.5393 Y6.3092
G01 X7.5228 Y6.3553
G01 X7.5110 Y6.4027
G01 X7.5038 Y6.4511
G01 X7.5014 Y6.5000
G00 X7.5014 Y6.5000
G01 F100.00
G01 Z-8.4000
G01 F200.00
G01 X7.5038 Y6.5489
G01 X7.5110 Y6.5973
G01 X7.5228 Y6.6447
G01 X7.5393 Y6.6908
G01 X7.5603 Y6.7350
G01 X7.5854 Y6.7770
G01 X7.6146 Y6.8163
G01 X7.6474 Y6.8526
G01 X7.6837 Y6.8854
G01 X7.7230 Y6.9146
G01 X7.7650 Y6.9397
G01 X7.8092 Y6.9607
G01 X7.8553 Y6.9772
G01 X7.9027 Y6.9890
G01 X7.9511 Y6.9962
G01 X8.0000 Y6.9986
G01 X8.0489 Y6.9962
G01 X8.0973 Y6.9890
G01 X8.1447 Y6.9772
G01 X8.1908 Y6.9607
G01 X8.2350 Y6.9397
G01 X8.2770 Y6.9146
G01 X8.3163 Y6.8854
G01 X8.3526 Y6.8526
G01 X8.3854 Y6.8163
G01 X8.4146 Y6.7770
G01 X8.4397 Y6.7350
G01 X8.4607 Y6.6908
G01 X8.4772 Y6.6447
G01 X8.4890 Y6.5973
G01 X8.4962 Y6.5489
G01 X8.4986 Y6.5000
G01 X8.4962 Y6.4511
G01 X8.4890 Y6.4027
G01 X8.4772 Y6.3553
G01 X8.4607 Y6.3092
G01 X8.4397 Y6.2650
G01 X8.4146 Y6.2230
G01 X8.3854 Y6.1837
G01 X8.3526 Y6.1474
G01 X8.3163 Y6.1146
G01 X8.2770 Y6.0854
G01 X8.2350 Y6.0603
G01 X8.1908 Y6.0393
G01 X8.1447 Y6.0228
G01 X8.0973 Y6.0110
G01 X8.0489 Y6.0038
G01 X8.0000 Y6.0014
G01 X7.9511 Y6.0038
G01 X7.9027 Y6.0110
G01 X7.8553 Y6.0228
G01 X7.8092 Y6.0393
G01 X7.7650 Y6.0603
G01 X7.7230 Y6.0854
G01 X7.6837 Y6.1146
G01 X7.6474 Y6.1474
G01 X7.6146 Y6.1837
G01 X7.5854 Y6.2230
G01 X7.5603 Y6.2650
G01 X7.5393 Y6.3092
G01 X7.5228 Y6.3553
G01 X7.5110 Y6.4027
G01 X7.5038 Y6.4511
G01 X7.5014 Y6.5000
G00 X7.5014 Y6.5000
G01 F100.00
G01 Z-9.0000
G01 F200.00
G01 X7.5038 Y6.5489
G01 X7.5110 Y6.5973
G01 X7.5228 Y6.6447
G01 X7.5393 Y6.6908
G01 X7.5603 Y6.7350
G01 X7.5854 Y6.7770
G01 X7.6146 Y6.8163
G01 X7.6474 Y6.8526
G01 X7.6837 Y6.8854
G01 X7.7230 Y6.9146
G01 X7.7650 Y6.9397
G01 X7.8092 Y6.9607
G01 X7.8553 Y6.9772
G01 X7.9027 Y6.9890
G01 X7.9511 Y6.9962
G01 X8.0000 Y6.9986
G01 X8.0489 Y6.9962
G01 X8.0973 Y6.9890
G01 X8.1447 Y6.9772
G01 X8.1908 Y6.9607
G01 X8.2350 Y6.9397
G01 X8.2770 Y6.9146
G01 X8.3163 Y6.8854
G01 X8.3526 Y6.8526
G01 X8.3854 Y6.8163
G01 X8.4146 Y6.7770
G01 X8.4397 Y6.7350
G01 X8.4607 Y6.6908
G01 X8.4772 Y6.6447
G01 X8.4890 Y6.5973
G01 X8.4962 Y6.5489
G01 X8.4986 Y6.5000
G01 X8.4962 Y6.4511
G01 X8.4890 Y6.4027
G01 X8.4772 Y6.3553
G01 X8.4607 Y6.3092
G01 X8.4397 Y6.2650
G01 X8.4146 Y6.2230
G01 X8.3854 Y6.1837
G01 X8.3526 Y6.1474
G01 X8.3163 Y6.1146
G01 X8.2770 Y6.0854
G01 X8.2350 Y6.0603
G01 X8.1908 Y6.0393
G01 X8.1447 Y6.0228
G01 X8.0973 Y6.0110
G01 X8.0489 Y6.0038
G01 X8.0000 Y6.0014
G01 X7.9511 Y6.0038
G01 X7.9027 Y6.0110
G01 X7.8553 Y6.0228
G01 X7.8092 Y6.0393
G01 X7.7650 Y6.0603
G01 X7.7230 Y6.0854
G01 X7.6837 Y6.1146
G01 X7.6474 Y6.1474
G01 X7.6146 Y6.1837
G01 X7.5854 Y6.2230
G01 X7.5603 Y6.2650
G01 X7.5393 Y6.3092
G01 X7.5228 Y6.3553
G01 X7.5110 Y6.4027
G01 X7.5038 Y6.4511
G01 X7.5014 Y6.5000
G00 X7.5014 Y6.5000
G01 F100.00
G01 Z-9.6000
G01 F200.00
G01 X7.5038 Y6.5489
G01 X7.5110 Y6.5973
G01 X7.5228 Y6.6447
G01 X7.5393 Y6.6908
G01 X7.5603 Y6.7350
G01 X7.5854 Y6.7770
G01 X7.6146 Y6.8163
G01 X7.6474 Y6.8526
G01 X7.6837 Y6.8854
G01 X7.7230 Y6.9146
G01 X7.7650 Y6.9397
G01 X7.8092 Y6.9607
G01 X7.8553 Y6.9772
G01 X7.9027 Y6.9890
G01 X7.9511 Y6.9962
G01 X8.0000 Y6.9986
G01 X8.0489 Y6.9962
G01 X8.0973 Y6.9890
G01 X8.1447 Y6.9772
G01 X8.1908 Y6.9607
G01 X8.2350 Y6.9397
G01 X8.2770 Y6.9146
G01 X8.3163 Y6.8854
G01 X8.3526 Y6.8526
G01 X8.3854 Y6.8163
G01 X8.4146 Y6.7770
G01 X8.4397 Y6.7350
G01 X8.4607 Y6.6908
G01 X8.4772 Y6.6447
G01 X8.4890 Y6.5973
G01 X8.4962 Y6.5489
G01 X8.4986 Y6.5000
G01 X8.4962 Y6.4511
G01 X8.4890 Y6.4027
G01 X8.4772 Y6.3553
G01 X8.4607 Y6.3092
G01 X8.4397 Y6.2650
G01 X8.4146 Y6.2230
G01 X8.3854 Y6.1837
G01 X8.3526 Y6.1474
G01 X8.3163 Y6.1146
G01 X8.2770 Y6.0854
G01 X8.2350 Y6.0603
G01 X8.1908 Y6.0393
G01 X8.1447 Y6.0228
G01 X8.0973 Y6.0110
G01 X8.0489 Y6.0038
G01 X8.0000 Y6.0014
G01 X7.9511 Y6.0038
G01 X7.9027 Y6.0110
G01 X7.8553 Y6.0228
G01 X7.8092 Y6.0393
G01 X7.7650 Y6.0603
G01 X7.7230 Y6.0854
G01 X7.6837 Y6.1146
G01 X7.6474 Y6.1474
G01 X7.6146 Y6.1837
G01 X7.5854 Y6.2230
G01 X7.5603 Y6.2650
G01 X7.5393 Y6.3092
G01 X7.5228 Y6.3553
G01 X7.5110 Y6.4027
G01 X7.5038 Y6.4511
G01 X7.5014 Y6.5000
G00 X7.5014 Y6.5000
G01 F100.00
G01 Z-10.2000
G01 F200.00
G01 X7.5038 Y6.5489
G01 X7.5110 Y6.5973
G01 X7.5228 Y6.6447
G01 X7.5393 Y6.6908
G01 X7.5603 Y6.7350
G01 X7.5854 Y6.7770
G01 X7.6146 Y6.8163
G01 X7.6474 Y6.8526
G01 X7.6837 Y6.8854
G01 X7.7230 Y6.9146
G01 X7.7650 Y6.9397
G01 X7.8092 Y6.9607
G01 X7.8553 Y6.9772
G01 X7.9027 Y6.9890
G01 X7.9511 Y6.9962
G01 X8.0000 Y6.9986
G01 X8.0489 Y6.9962
G01 X8.0973 Y6.9890
G01 X8.1447 Y6.9772
G01 X8.1908 Y6.9607
G01 X8.2350 Y6.9397
G01 X8.2770 Y6.9146
G01 X8.3163 Y6.8854
G01 X8.3526 Y6.8526
G01 X8.3854 Y6.8163
G01 X8.4146 Y6.7770
G01 X8.4397 Y6.7350
G01 X8.4607 Y6.6908
G01 X8.4772 Y6.6447
G01 X8.4890 Y6.5973
G01 X8.4962 Y6.5489
G01 X8.4986 Y6.5000
G01 X8.4962 Y6.4511
G01 X8.4890 Y6.4027
G01 X8.4772 Y6.3553
G01 X8.4607 Y6.3092
G01 X8.4397 Y6.2650
G01 X8.4146 Y6.2230
G01 X8.3854 Y6.1837
G01 X8.3526 Y6.1474
G01 X8.3163 Y6.1146
G01 X8.2770 Y6.0854
G01 X8.2350 Y6.0603
G01 X8.1908 Y6.0393
G01 X8.1447 Y6.0228
G01 X8.0973 Y6.0110
G01 X8.0489 Y6.0038
G01 X8.0000 Y6.0014
G01 X7.9511 Y6.0038
G01 X7.9027 Y6.0110
G01 X7.8553 Y6.0228
G01 X7.8092 Y6.0393
G01 X7.7650 Y6.0603
G01 X7.7230 Y6.0854
G01 X7.6837 Y6.1146
G01 X7.6474 Y6.1474
G01 X7.6146 Y6.1837
G01 X7.5854 Y6.2230
G01 X7.5603 Y6.2650
G01 X7.5393 Y6.3092
G01 X7.5228 Y6.3553
G01 X7.5110 Y6.4027
G01 X7.5038 Y6.4511
G01 X7.5014 Y6.5000
G00 Z2.0000
G00 X7.5014 Y88.5000
G01 F100.00
G01 Z-0.6000
G01 F200.00
G01 X7.5038 Y88.5489
G01 X7.5110 Y88.5973
G01 X7.5228 Y88.6447
G01 X7.5393 Y88.6908
G01 X7.5603 Y88.7350
G01 X7.5854 Y88.7770
G01 X7.6146 Y88.8163
G01 X7.6474 Y88.8526
G01 X7.6837 Y88.8854
G01 X7.7230 Y88.9146
G01 X7.7650 Y88.9397
G01 X7.8092 Y88.9607
G01 X7.8553 Y88.9772
G01 X7.9027 Y88.9890
G01 X7.9511 Y88.9962
G01 X8.0000 Y88.9986
G01 X8.0489 Y88.9962
G01 X8.0973 Y88.9890
G01 X8.1447 Y88.9772
G01 X8.1908 Y88.9607
G01 X8.2350 Y88.9397
G01 X8.2770 Y88.9146
G01 X8.3163 Y88.8854
G01 X8.3526 Y88.8526
G01 X8.3854 Y88.8163
G01 X8.4146 Y88.7770
G01 X8.4397 Y88.7350
G01 X8.4607 Y88.6908
G01 X8.4772 Y88.6447
G01 X8.4890 Y88.5973
G01 X8.4962 Y88.5489
G01 X8.4986 Y88.5000
G01 X8.4962 Y88.4511
G01 X8.4890 Y88.4027
G01 X8.4772 Y88.3553
G01 X8.4607 Y88.3092
G01 X8.4397 Y88.2650
G01 X8.4146 Y88.2230
G01 X8.3854 Y88.1837
G01 X8.3526 Y88.1474
G01 X8.3163 Y88.1146
G01 X8.2770 Y88.0854
G01 X8.2350 Y88.0603
G01 X8.1908 Y88.0393
G01 X8.1447 Y88.0228
G01 X8.0973 Y88.0110
G01 X8.0489 Y88.0038
G01 X8.0000 Y88.0014
G01 X7.9511 Y88.0038
G01 X7.9027 Y88.0110
G01 X7.8553 Y88.0228
G01 X7.8092 Y88.0393
G01 X7.7650 Y88.0603
G01 X7.7230 Y88.0854
G01 X7.6837 Y88.1146
G01 X7.6474 Y88.1474
G01 X7.6146 Y88.1837
G01 X7.5854 Y88.2230
G01 X7.5603 Y88.2650
G01 X7.5393 Y88.3092
G01 X7.5228 Y88.3553
G01 X7.5110 Y88.4027
G01 X7.5038 Y88.4511
G01 X7.5014 Y88.5000
G00 X7.5014 Y88.5000
G01 F100.00
G01 Z-1.2000
G01 F200.00
G01 X7.5038 Y88.5489
G01 X7.5110 Y88.5973
G01 X7.5228 Y88.6447
G01 X7.5393 Y88.6908
G01 X7.5603 Y88.7350
G01 X7.5854 Y88.7770
G01 X7.6146 Y88.8163
G01 X7.6474 Y88.8526
G01 X7.6837 Y88.8854
G01 X7.7230 Y88.9146
G01 X7.7650 Y88.9397
G01 X7.8092 Y88.9607
G01 X7.8553 Y88.9772
G01 X7.9027 Y88.9890
G01 X7.9511 Y88.9962
G01 X8.0000 Y88.9986
G01 X8.0489 Y88.9962
G01 X8.0973 Y88.9890
G01 X8.1447 Y88.9772
G01 X8.1908 Y88.9607
G01 X8.2350 Y88.9397
G01 X8.2770 Y88.9146
G01 X8.3163 Y88.8854
G01 X8.3526 Y88.8526
G01 X8.3854 Y88.8163
G01 X8.4146 Y88.7770
G01 X8.4397 Y88.7350
G01 X8.4607 Y88.6908
G01 X8.4772 Y88.6447
G01 X8.4890 Y88.5973
G01 X8.4962 Y88.5489
G01 X8.4986 Y88.5000
G01 X8.4962 Y88.4511
G01 X8.4890 Y88.4027
G01 X8.4772 Y88.3553
G01 X8.4607 Y88.3092
G01 X8.4397 Y88.2650
G01 X8.4146 Y88.2230
G01 X8.3854 Y88.1837
G01 X8.3526 Y88.1474
G01 X8.3163 Y88.1146
G01 X8.2770 Y88.0854
G01 X8.2350 Y88.0603
G01 X8.1908 Y88.0393
G01 X8.1447 Y88.0228
G01 X8.0973 Y88.0110
G01 X8.0489 Y88.0038
G01 X8.0000 Y88.0014
G01 X7.9511 Y88.0038
G01 X7.9027 Y88.0110
G01 X7.8553 Y88.0228
G01 X7.8092 Y88.0393
G01 X7.7650 Y88.0603
G01 X7.7230 Y88.0854
G01 X7.6837 Y88.1146
G01 X7.6474 Y88.1474
G01 X7.6146 Y88.1837
G01 X7.5854 Y88.2230
G01 X7.5603 Y88.2650
G01 X7.5393 Y88.3092
G01 X7.5228 Y88.3553
G01 X7.5110 Y88.4027
G01 X7.5038 Y88.4511
G01 X7.5014 Y88.5000
G00 X7.5014 Y88.5000
G01 F100.00
G01 Z-1.8000
G01 F200.00
G01 X7.5038 Y88.5489
G01 X7.5110 Y88.5973
G01 X7.5228 Y88.6447
G01 X7.5393 Y88.6908
G01 X7.5603 Y88.7350
G01 X7.5854 Y88.7770
G01 X7.6146 Y88.8163
G01 X7.6474 Y88.8526
G01 X7.6837 Y88.8854
G01 X7.7230 Y88.9146
G01 X7.7650 Y88.9397
G01 X7.8092 Y88.9607
G01 X7.8553 Y88.9772
G01 X7.9027 Y88.9890
G01 X7.9511 Y88.9962
G01 X8.0000 Y88.9986
G01 X8.0489 Y88.9962
G01 X8.0973 Y88.9890
G01 X8.1447 Y88.9772
G01 X8.1908 Y88.9607
G01 X8.2350 Y88.9397
G01 X8.2770 Y88.9146
G01 X8.3163 Y88.8854
G01 X8.3526 Y88.8526
G01 X8.3854 Y88.8163
G01 X8.4146 Y88.7770
G01 X8.4397 Y88.7350
G01 X8.4607 Y88.6908
G01 X8.4772 Y88.6447
G01 X8.4890 Y88.5973
G01 X8.4962 Y88.5489
G01 X8.4986 Y88.5000
G01 X8.4962 Y88.4511
G01 X8.4890 Y88.4027
G01 X8.4772 Y88.3553
G01 X8.4607 Y88.3092
G01 X8.4397 Y88.2650
G01 X8.4146 Y88.2230
G01 X8.3854 Y88.1837
G01 X8.3526 Y88.1474
G01 X8.3163 Y88.1146
G01 X8.2770 Y88.0854
G01 X8.2350 Y88.0603
G01 X8.1908 Y88.0393
G01 X8.1447 Y88.0228
G01 X8.0973 Y88.0110
G01 X8.0489 Y88.0038
G01 X8.0000 Y88.0014
G01 X7.9511 Y88.0038
G01 X7.9027 Y88.0110
G01 X7.8553 Y88.0228
G01 X7.8092 Y88.0393
G01 X7.7650 Y88.0603
G01 X7.7230 Y88.0854
G01 X7.6837 Y88.1146
G01 X7.6474 Y88.1474
G01 X7.6146 Y88.1837
G01 X7.5854 Y88.2230
G01 X7.5603 Y88.2650
G01 X7.5393 Y88.3092
G01 X7.5228 Y88.3553
G01 X7.5110 Y88.4027
G01 X7.5038 Y88.4511
G01 X7.5014 Y88.5000
G00 X7.5014 Y88.5000
G01 F100.00
G01 Z-2.4000
G01 F200.00
G01 X7.5038 Y88.5489
G01 X7.5110 Y88.5973
G01 X7.5228 Y88.6447
G01 X7.5393 Y88.6908
G01 X7.5603 Y88.7350
G01 X7.5854 Y88.7770
G01 X7.6146 Y88.8163
G01 X7.6474 Y88.8526
G01 X7.6837 Y88.8854
G01 X7.7230 Y88.9146
G01 X7.7650 Y88.9397
G01 X7.8092 Y88.9607
G01 X7.8553 Y88.9772
G01 X7.9027 Y88.9890
G01 X7.9511 Y88.9962
G01 X8.0000 Y88.9986
G01 X8.0489 Y88.9962
G01 X8.0973 Y88.9890
G01 X8.1447 Y88.9772
G01 X8.1908 Y88.9607
G01 X8.2350 Y88.9397
G01 X8.2770 Y88.9146
G01 X8.3163 Y88.8854
G01 X8.3526 Y88.8526
G01 X8.3854 Y88.8163
G01 X8.4146 Y88.7770
G01 X8.4397 Y88.7350
G01 X8.4607 Y88.6908
G01 X8.4772 Y88.6447
G01 X8.4890 Y88.5973
G01 X8.4962 Y88.5489
G01 X8.4986 Y88.5000
G01 X8.4962 Y88.4511
G01 X8.4890 Y88.4027
G01 X8.4772 Y88.3553
G01 X8.4607 Y88.3092
G01 X8.4397 Y88.2650
G01 X8.4146 Y88.2230
G01 X8.3854 Y88.1837
G01 X8.3526 Y88.1474
G01 X8.3163 Y88.1146
G01 X8.2770 Y88.0854
G01 X8.2350 Y88.0603
G01 X8.1908 Y88.0393
G01 X8.1447 Y88.0228
G01 X8.0973 Y88.0110
G01 X8.0489 Y88.0038
G01 X8.0000 Y88.0014
G01 X7.9511 Y88.0038
G01 X7.9027 Y88.0110
G01 X7.8553 Y88.0228
G01 X7.8092 Y88.0393
G01 X7.7650 Y88.0603
G01 X7.7230 Y88.0854
G01 X7.6837 Y88.1146
G01 X7.6474 Y88.1474
G01 X7.6146 Y88.1837
G01 X7.5854 Y88.2230
G01 X7.5603 Y88.2650
G01 X7.5393 Y88.3092
G01 X7.5228 Y88.3553
G01 X7.5110 Y88.4027
G01 X7.5038 Y88.4511
G01 X7.5014 Y88.5000
G00 X7.5014 Y88.5000
G01 F100.00
G01 Z-3.0000
G01 F200.00
G01 X7.5038 Y88.5489
G01 X7.5110 Y88.5973
G01 X7.5228 Y88.6447
G01 X7.5393 Y88.6908
G01 X7.5603 Y88.7350
G01 X7.5854 Y88.7770
G01 X7.6146 Y88.8163
G01 X7.6474 Y88.8526
G01 X7.6837 Y88.8854
G01 X7.7230 Y88.9146
G01 X7.7650 Y88.9397
G01 X7.8092 Y88.9607
G01 X7.8553 Y88.9772
G01 X7.9027 Y88.9890
G01 X7.9511 Y88.9962
G01 X8.0000 Y88.9986
G01 X8.0489 Y88.9962
G01 X8.0973 Y88.9890
G01 X8.1447 Y88.9772
G01 X8.1908 Y88.9607
G01 X8.2350 Y88.9397
G01 X8.2770 Y88.9146
G01 X8.3163 Y88.8854
G01 X8.3526 Y88.8526
G01 X8.3854 Y88.8163
G01 X8.4146 Y88.7770
G01 X8.4397 Y88.7350
G01 X8.4607 Y88.6908
G01 X8.4772 Y88.6447
G01 X8.4890 Y88.5973
G01 X8.4962 Y88.5489
G01 X8.4986 Y88.5000
G01 X8.4962 Y88.4511
G01 X8.4890 Y88.4027
G01 X8.4772 Y88.3553
G01 X8.4607 Y88.3092
G01 X8.4397 Y88.2650
G01 X8.4146 Y88.2230
G01 X8.3854 Y88.1837
G01 X8.3526 Y88.1474
G01 X8.3163 Y88.1146
G01 X8.2770 Y88.0854
G01 X8.2350 Y88.0603
G01 X8.1908 Y88.0393
G01 X8.1447 Y88.0228
G01 X8.0973 Y88.0110
G01 X8.0489 Y88.0038
G01 X8.0000 Y88.0014
G01 X7.9511 Y88.0038
G01 X7.9027 Y88.0110
G01 X7.8553 Y88.0228
G01 X7.8092 Y88.0393
G01 X7.7650 Y88.0603
G01 X7.7230 Y88.0854
G01 X7.6837 Y88.1146
G01 X7.6474 Y88.1474
G01 X7.6146 Y88.1837
G01 X7.5854 Y88.2230
G01 X7.5603 Y88.2650
G01 X7.5393 Y88.3092
G01 X7.5228 Y88.3553
G01 X7.5110 Y88.4027
G01 X7.5038 Y88.4511
G01 X7.5014 Y88.5000
G00 X7.5014 Y88.5000
G01 F100.00
G01 Z-3.6000
G01 F200.00
G01 X7.5038 Y88.5489
G01 X7.5110 Y88.5973
G01 X7.5228 Y88.6447
G01 X7.5393 Y88.6908
G01 X7.5603 Y88.7350
G01 X7.5854 Y88.7770
G01 X7.6146 Y88.8163
G01 X7.6474 Y88.8526
G01 X7.6837 Y88.8854
G01 X7.7230 Y88.9146
G01 X7.7650 Y88.9397
G01 X7.8092 Y88.9607
G01 X7.8553 Y88.9772
G01 X7.9027 Y88.9890
G01 X7.9511 Y88.9962
G01 X8.0000 Y88.9986
G01 X8.0489 Y88.9962
G01 X8.0973 Y88.9890
G01 X8.1447 Y88.9772
G01 X8.1908 Y88.9607
G01 X8.2350 Y88.9397
G01 X8.2770 Y88.9146
G01 X8.3163 Y88.8854
G01 X8.3526 Y88.8526
G01 X8.3854 Y88.8163
G01 X8.4146 Y88.7770
G01 X8.4397 Y88.7350
G01 X8.4607 Y88.6908
G01 X8.4772 Y88.6447
G01 X8.4890 Y88.5973
G01 X8.4962 Y88.5489
G01 X8.4986 Y88.5000
G01 X8.4962 Y88.4511
G01 X8.4890 Y88.4027
G01 X8.4772 Y88.3553
G01 X8.4607 Y88.3092
G01 X8.4397 Y88.2650
G01 X8.4146 Y88.2230
G01 X8.3854 Y88.1837
G01 X8.3526 Y88.1474
G01 X8.3163 Y88.1146
G01 X8.2770 Y88.0854
G01 X8.2350 Y88.0603
G01 X8.1908 Y88.0393
G01 X8.1447 Y88.0228
G01 X8.0973 Y88.0110
G01 X8.0489 Y88.0038
G01 X8.0000 Y88.0014
G01 X7.9511 Y88.0038
G01 X7.9027 Y88.0110
G01 X7.8553 Y88.0228
G01 X7.8092 Y88.0393
G01 X7.7650 Y88.0603
G01 X7.7230 Y88.0854
G01 X7.6837 Y88.1146
G01 X7.6474 Y88.1474
G01 X7.6146 Y88.1837
G01 X7.5854 Y88.2230
G01 X7.5603 Y88.2650
G01 X7.5393 Y88.3092
G01 X7.5228 Y88.3553
G01 X7.5110 Y88.4027
G01 X7.5038 Y88.4511
G01 X7.5014 Y88.5000
G00 X7.5014 Y88.5000
G01 F100.00
G01 Z-4.2000
G01 F200.00
G01 X7.5038 Y88.5489
G01 X7.5110 Y88.5973
G01 X7.5228 Y88.6447
G01 X7.5393 Y88.6908
G01 X7.5603 Y88.7350
G01 X7.5854 Y88.7770
G01 X7.6146 Y88.8163
G01 X7.6474 Y88.8526
G01 X7.6837 Y88.8854
G01 X7.7230 Y88.9146
G01 X7.7650 Y88.9397
G01 X7.8092 Y88.9607
G01 X7.8553 Y88.9772
G01 X7.9027 Y88.9890
G01 X7.9511 Y88.9962
G01 X8.0000 Y88.9986
G01 X8.0489 Y88.9962
G01 X8.0973 Y88.9890
G01 X8.1447 Y88.9772
G01 X8.1908 Y88.9607
G01 X8.2350 Y88.9397
G01 X8.2770 Y88.9146
G01 X8.3163 Y88.8854
G01 X8.3526 Y88.8526
G01 X8.3854 Y88.8163
G01 X8.4146 Y88.7770
G01 X8.4397 Y88.7350
G01 X8.4607 Y88.6908
G01 X8.4772 Y88.6447
G01 X8.4890 Y88.5973
G01 X8.4962 Y88.5489
G01 X8.4986 Y88.5000
G01 X8.4962 Y88.4511
G01 X8.4890 Y88.4027
G01 X8.4772 Y88.3553
G01 X8.4607 Y88.3092
G01 X8.4397 Y88.2650
G01 X8.4146 Y88.2230
G01 X8.3854 Y88.1837
G01 X8.3526 Y88.1474
G01 X8.3163 Y88.1146
G01 X8.2770 Y88.0854
G01 X8.2350 Y88.0603
G01 X8.1908 Y88.0393
G01 X8.1447 Y88.0228
G01 X8.0973 Y88.0110
G01 X8.0489 Y88.0038
G01 X8.0000 Y88.0014
G01 X7.9511 Y88.0038
G01 X7.9027 Y88.0110
G01 X7.8553 Y88.0228
G01 X7.8092 Y88.0393
G01 X7.7650 Y88.0603
G01 X7.7230 Y88.0854
G01 X7.6837 Y88.1146
G01 X7.6474 Y88.1474
G01 X7.6146 Y88.1837
G01 X7.5854 Y88.2230
G01 X7.5603 Y88.2650
G01 X7.5393 Y88.3092
G01 X7.5228 Y88.3553
G01 X7.5110 Y88.4027
G01 X7.5038 Y88.4511
G01 X7.5014 Y88.5000
G00 X7.5014 Y88.5000
G01 F100.00
G01 Z-4.8000
G01 F200.00
G01 X7.5038 Y88.5489
G01 X7.5110 Y88.5973
G01 X7.5228 Y88.6447
G01 X7.5393 Y88.6908
G01 X7.5603 Y88.7350
G01 X7.5854 Y88.7770
G01 X7.6146 Y88.8163
G01 X7.6474 Y88.8526
G01 X7.6837 Y88.8854
G01 X7.7230 Y88.9146
G01 X7.7650 Y88.9397
G01 X7.8092 Y88.9607
G01 X7.8553 Y88.9772
G01 X7.9027 Y88.9890
G01 X7.9511 Y88.9962
G01 X8.0000 Y88.9986
G01 X8.0489 Y88.9962
G01 X8.0973 Y88.9890
G01 X8.1447 Y88.9772
G01 X8.1908 Y88.9607
G01 X8.2350 Y88.9397
G01 X8.2770 Y88.9146
G01 X8.3163 Y88.8854
G01 X8.3526 Y88.8526
G01 X8.3854 Y88.8163
G01 X8.4146 Y88.7770
G01 X8.4397 Y88.7350
G01 X8.4607 Y88.6908
G01 X8.4772 Y88.6447
G01 X8.4890 Y88.5973
G01 X8.4962 Y88.5489
G01 X8.4986 Y88.5000
G01 X8.4962 Y88.4511
G01 X8.4890 Y88.4027
G01 X8.4772 Y88.3553
G01 X8.4607 Y88.3092
G01 X8.4397 Y88.2650
G01 X8.4146 Y88.2230
G01 X8.3854 Y88.1837
G01 X8.3526 Y88.1474
G01 X8.3163 Y88.1146
G01 X8.2770 Y88.0854
G01 X8.2350 Y88.0603
G01 X8.1908 Y88.0393
G01 X8.1447 Y88.0228
G01 X8.0973 Y88.0110
G01 X8.0489 Y88.0038
G01 X8.0000 Y88.0014
G01 X7.9511 Y88.0038
G01 X7.9027 Y88.0110
G01 X7.8553 Y88.0228
G01 X7.8092 Y88.0393
G01 X7.7650 Y88.0603
G01 X7.7230 Y88.0854
G01 X7.6837 Y88.1146
G01 X7.6474 Y88.1474
G01 X7.6146 Y88.1837
G01 X7.5854 Y88.2230
G01 X7.5603 Y88.2650
G01 X7.5393 Y88.3092
G01 X7.5228 Y88.3553
G01 X7.5110 Y88.4027
G01 X7.5038 Y88.4511
G01 X7.5014 Y88.5000
G00 X7.5014 Y88.5000
G01 F100.00
G01 Z-5.4000
G01 F200.00
G01 X7.5038 Y88.5489
G01 X7.5110 Y88.5973
G01 X7.5228 Y88.6447
G01 X7.5393 Y88.6908
G01 X7.5603 Y88.7350
G01 X7.5854 Y88.7770
G01 X7.6146 Y88.8163
G01 X7.6474 Y88.8526
G01 X7.6837 Y88.8854
G01 X7.7230 Y88.9146
G01 X7.7650 Y88.9397
G01 X7.8092 Y88.9607
G01 X7.8553 Y88.9772
G01 X7.9027 Y88.9890
G01 X7.9511 Y88.9962
G01 X8.0000 Y88.9986
G01 X8.0489 Y88.9962
G01 X8.0973 Y88.9890
G01 X8.1447 Y88.9772
G01 X8.1908 Y88.9607
G01 X8.2350 Y88.9397
G01 X8.2770 Y88.9146
G01 X8.3163 Y88.8854
G01 X8.3526 Y88.8526
G01 X8.3854 Y88.8163
G01 X8.4146 Y88.7770
G01 X8.4397 Y88.7350
G01 X8.4607 Y88.6908
G01 X8.4772 Y88.6447
G01 X8.4890 Y88.5973
G01 X8.4962 Y88.5489
G01 X8.4986 Y88.5000
G01 X8.4962 Y88.4511
G01 X8.4890 Y88.4027
G01 X8.4772 Y88.3553
G01 X8.4607 Y88.3092
G01 X8.4397 Y88.2650
G01 X8.4146 Y88.2230
G01 X8.3854 Y88.1837
G01 X8.3526 Y88.1474
G01 X8.3163 Y88.1146
G01 X8.2770 Y88.0854
G01 X8.2350 Y88.0603
G01 X8.1908 Y88.0393
G01 X8.1447 Y88.0228
G01 X8.0973 Y88.0110
G01 X8.0489 Y88.0038
G01 X8.0000 Y88.0014
G01 X7.9511 Y88.0038
G01 X7.9027 Y88.0110
G01 X7.8553 Y88.0228
G01 X7.8092 Y88.0393
G01 X7.7650 Y88.0603
G01 X7.7230 Y88.0854
G01 X7.6837 Y88.1146
G01 X7.6474 Y88.1474
G01 X7.6146 Y88.1837
G01 X7.5854 Y88.2230
G01 X7.5603 Y88.2650
G01 X7.5393 Y88.3092
G01 X7.5228 Y88.3553
G01 X7.5110 Y88.4027
G01 X7.5038 Y88.4511
G01 X7.5014 Y88.5000
G00 X7.5014 Y88.5000
G01 F100.00
G01 Z-6.0000
G01 F200.00
G01 X7.5038 Y88.5489
G01 X7.5110 Y88.5973
G01 X7.5228 Y88.6447
G01 X7.5393 Y88.6908
G01 X7.5603 Y88.7350
G01 X7.5854 Y88.7770
G01 X7.6146 Y88.8163
G01 X7.6474 Y88.8526
G01 X7.6837 Y88.8854
G01 X7.7230 Y88.9146
G01 X7.7650 Y88.9397
G01 X7.8092 Y88.9607
G01 X7.8553 Y88.9772
G01 X7.9027 Y88.9890
G01 X7.9511 Y88.9962
G01 X8.0000 Y88.9986
G01 X8.0489 Y88.9962
G01 X8.0973 Y88.9890
G01 X8.1447 Y88.9772
G01 X8.1908 Y88.9607
G01 X8.2350 Y88.9397
G01 X8.2770 Y88.9146
G01 X8.3163 Y88.8854
G01 X8.3526 Y88.8526
G01 X8.3854 Y88.8163
G01 X8.4146 Y88.7770
G01 X8.4397 Y88.7350
G01 X8.4607 Y88.6908
G01 X8.4772 Y88.6447
G01 X8.4890 Y88.5973
G01 X8.4962 Y88.5489
G01 X8.4986 Y88.5000
G01 X8.4962 Y88.4511
G01 X8.4890 Y88.4027
G01 X8.4772 Y88.3553
G01 X8.4607 Y88.3092
G01 X8.4397 Y88.2650
G01 X8.4146 Y88.2230
G01 X8.3854 Y88.1837
G01 X8.3526 Y88.1474
G01 X8.3163 Y88.1146
G01 X8.2770 Y88.0854
G01 X8.2350 Y88.0603
G01 X8.1908 Y88.0393
G01 X8.1447 Y88.0228
G01 X8.0973 Y88.0110
G01 X8.0489 Y88.0038
G01 X8.0000 Y88.0014
G01 X7.9511 Y88.0038
G01 X7.9027 Y88.0110
G01 X7.8553 Y88.0228
G01 X7.8092 Y88.0393
G01 X7.7650 Y88.0603
G01 X7.7230 Y88.0854
G01 X7.6837 Y88.1146
G01 X7.6474 Y88.1474
G01 X7.6146 Y88.1837
G01 X7.5854 Y88.2230
G01 X7.5603 Y88.2650
G01 X7.5393 Y88.3092
G01 X7.5228 Y88.3553
G01 X7.5110 Y88.4027
G01 X7.5038 Y88.4511
G01 X7.5014 Y88.5000
G00 X7.5014 Y88.5000
G01 F100.00
G01 Z-6.6000
G01 F200.00
G01 X7.5038 Y88.5489
G01 X7.5110 Y88.5973
G01 X7.5228 Y88.6447
G01 X7.5393 Y88.6908
G01 X7.5603 Y88.7350
G01 X7.5854 Y88.7770
G01 X7.6146 Y88.8163
G01 X7.6474 Y88.8526
G01 X7.6837 Y88.8854
G01 X7.7230 Y88.9146
G01 X7.7650 Y88.9397
G01 X7.8092 Y88.9607
G01 X7.8553 Y88.9772
G01 X7.9027 Y88.9890
G01 X7.9511 Y88.9962
G01 X8.0000 Y88.9986
G01 X8.0489 Y88.9962
G01 X8.0973 Y88.9890
G01 X8.1447 Y88.9772
G01 X8.1908 Y88.9607
G01 X8.2350 Y88.9397
G01 X8.2770 Y88.9146
G01 X8.3163 Y88.8854
G01 X8.3526 Y88.8526
G01 X8.3854 Y88.8163
G01 X8.4146 Y88.7770
G01 X8.4397 Y88.7350
G01 X8.4607 Y88.6908
G01 X8.4772 Y88.6447
G01 X8.4890 Y88.5973
G01 X8.4962 Y88.5489
G01 X8.4986 Y88.5000
G01 X8.4962 Y88.4511
G01 X8.4890 Y88.4027
G01 X8.4772 Y88.3553
G01 X8.4607 Y88.3092
G01 X8.4397 Y88.2650
G01 X8.4146 Y88.2230
G01 X8.3854 Y88.1837
G01 X8.3526 Y88.1474
G01 X8.3163 Y88.1146
G01 X8.2770 Y88.0854
G01 X8.2350 Y88.0603
G01 X8.1908 Y88.0393
G01 X8.1447 Y88.0228
G01 X8.0973 Y88.0110
G01 X8.0489 Y88.0038
G01 X8.0000 Y88.0014
G01 X7.9511 Y88.0038
G01 X7.9027 Y88.0110
G01 X7.8553 Y88.0228
G01 X7.8092 Y88.0393
G01 X7.7650 Y88.0603
G01 X7.7230 Y88.0854
G01 X7.6837 Y88.1146
G01 X7.6474 Y88.1474
G01 X7.6146 Y88.1837
G01 X7.5854 Y88.2230
G01 X7.5603 Y88.2650
G01 X7.5393 Y88.3092
G01 X7.5228 Y88.3553
G01 X7.5110 Y88.4027
G01 X7.5038 Y88.4511
G01 X7.5014 Y88.5000
G00 X7.5014 Y88.5000
G01 F100.00
G01 Z-7.2000
G01 F200.00
G01 X7.5038 Y88.5489
G01 X7.5110 Y88.5973
G01 X7.5228 Y88.6447
G01 X7.5393 Y88.6908
G01 X7.5603 Y88.7350
G01 X7.5854 Y88.7770
G01 X7.6146 Y88.8163
G01 X7.6474 Y88.8526
G01 X7.6837 Y88.8854
G01 X7.7230 Y88.9146
G01 X7.7650 Y88.9397
G01 X7.8092 Y88.9607
G01 X7.8553 Y88.9772
G01 X7.9027 Y88.9890
G01 X7.9511 Y88.9962
G01 X8.0000 Y88.9986
G01 X8.0489 Y88.9962
G01 X8.0973 Y88.9890
G01 X8.1447 Y88.9772
G01 X8.1908 Y88.9607
G01 X8.2350 Y88.9397
G01 X8.2770 Y88.9146
G01 X8.3163 Y88.8854
G01 X8.3526 Y88.8526
G01 X8.3854 Y88.8163
G01 X8.4146 Y88.7770
G01 X8.4397 Y88.7350
G01 X8.4607 Y88.6908
G01 X8.4772 Y88.6447
G01 X8.4890 Y88.5973
G01 X8.4962 Y88.5489
G01 X8.4986 Y88.5000
G01 X8.4962 Y88.4511
G01 X8.4890 Y88.4027
G01 X8.4772 Y88.3553
G01 X8.4607 Y88.3092
G01 X8.4397 Y88.2650
G01 X8.4146 Y88.2230
G01 X8.3854 Y88.1837
G01 X8.3526 Y88.1474
G01 X8.3163 Y88.1146
G01 X8.2770 Y88.0854
G01 X8.2350 Y88.0603
G01 X8.1908 Y88.0393
G01 X8.1447 Y88.0228
G01 X8.0973 Y88.0110
G01 X8.0489 Y88.0038
G01 X8.0000 Y88.0014
G01 X7.9511 Y88.0038
G01 X7.9027 Y88.0110
G01 X7.8553 Y88.0228
G01 X7.8092 Y88.0393
G01 X7.7650 Y88.0603
G01 X7.7230 Y88.0854
G01 X7.6837 Y88.1146
G01 X7.6474 Y88.1474
G01 X7.6146 Y88.1837
G01 X7.5854 Y88.2230
G01 X7.5603 Y88.2650
G01 X7.5393 Y88.3092
G01 X7.5228 Y88.3553
G01 X7.5110 Y88.4027
G01 X7.5038 Y88.4511
G01 X7.5014 Y88.5000
G00 X7.5014 Y88.5000
G01 F100.00
G01 Z-7.8000
G01 F200.00
G01 X7.5038 Y88.5489
G01 X7.5110 Y88.5973
G01 X7.5228 Y88.6447
G01 X7.5393 Y88.6908
G01 X7.5603 Y88.7350
G01 X7.5854 Y88.7770
G01 X7.6146 Y88.8163
G01 X7.6474 Y88.8526
G01 X7.6837 Y88.8854
G01 X7.7230 Y88.9146
G01 X7.7650 Y88.9397
G01 X7.8092 Y88.9607
G01 X7.8553 Y88.9772
G01 X7.9027 Y88.9890
G01 X7.9511 Y88.9962
G01 X8.0000 Y88.9986
G01 X8.0489 Y88.9962
G01 X8.0973 Y88.9890
G01 X8.1447 Y88.9772
G01 X8.1908 Y88.9607
G01 X8.2350 Y88.9397
G01 X8.2770 Y88.9146
G01 X8.3163 Y88.8854
G01 X8.3526 Y88.8526
G01 X8.3854 Y88.8163
G01 X8.4146 Y88.7770
G01 X8.4397 Y88.7350
G01 X8.4607 Y88.6908
G01 X8.4772 Y88.6447
G01 X8.4890 Y88.5973
G01 X8.4962 Y88.5489
G01 X8.4986 Y88.5000
G01 X8.4962 Y88.4511
G01 X8.4890 Y88.4027
G01 X8.4772 Y88.3553
G01 X8.4607 Y88.3092
G01 X8.4397 Y88.2650
G01 X8.4146 Y88.2230
G01 X8.3854 Y88.1837
G01 X8.3526 Y88.1474
G01 X8.3163 Y88.1146
G01 X8.2770 Y88.0854
G01 X8.2350 Y88.0603
G01 X8.1908 Y88.0393
G01 X8.1447 Y88.0228
G01 X8.0973 Y88.0110
G01 X8.0489 Y88.0038
G01 X8.0000 Y88.0014
G01 X7.9511 Y88.0038
G01 X7.9027 Y88.0110
G01 X7.8553 Y88.0228
G01 X7.8092 Y88.0393
G01 X7.7650 Y88.0603
G01 X7.7230 Y88.0854
G01 X7.6837 Y88.1146
G01 X7.6474 Y88.1474
G01 X7.6146 Y88.1837
G01 X7.5854 Y88.2230
G01 X7.5603 Y88.2650
G01 X7.5393 Y88.3092
G01 X7.5228 Y88.3553
G01 X7.5110 Y88.4027
G01 X7.5038 Y88.4511
G01 X7.5014 Y88.5000
G00 X7.5014 Y88.5000
G01 F100.00
G01 Z-8.4000
G01 F200.00
G01 X7.5038 Y88.5489
G01 X7.5110 Y88.5973
G01 X7.5228 Y88.6447
G01 X7.5393 Y88.6908
G01 X7.5603 Y88.7350
G01 X7.5854 Y88.7770
G01 X7.6146 Y88.8163
G01 X7.6474 Y88.8526
G01 X7.6837 Y88.8854
G01 X7.7230 Y88.9146
G01 X7.7650 Y88.9397
G01 X7.8092 Y88.9607
G01 X7.8553 Y88.9772
G01 X7.9027 Y88.9890
G01 X7.9511 Y88.9962
G01 X8.0000 Y88.9986
G01 X8.0489 Y88.9962
G01 X8.0973 Y88.9890
G01 X8.1447 Y88.9772
G01 X8.1908 Y88.9607
G01 X8.2350 Y88.9397
G01 X8.2770 Y88.9146
G01 X8.3163 Y88.8854
G01 X8.3526 Y88.8526
G01 X8.3854 Y88.8163
G01 X8.4146 Y88.7770
G01 X8.4397 Y88.7350
G01 X8.4607 Y88.6908
G01 X8.4772 Y88.6447
G01 X8.4890 Y88.5973
G01 X8.4962 Y88.5489
G01 X8.4986 Y88.5000
G01 X8.4962 Y88.4511
G01 X8.4890 Y88.4027
G01 X8.4772 Y88.3553
G01 X8.4607 Y88.3092
G01 X8.4397 Y88.2650
G01 X8.4146 Y88.2230
G01 X8.3854 Y88.1837
G01 X8.3526 Y88.1474
G01 X8.3163 Y88.1146
G01 X8.2770 Y88.0854
G01 X8.2350 Y88.0603
G01 X8.1908 Y88.0393
G01 X8.1447 Y88.0228
G01 X8.0973 Y88.0110
G01 X8.0489 Y88.0038
G01 X8.0000 Y88.0014
G01 X7.9511 Y88.0038
G01 X7.9027 Y88.0110
G01 X7.8553 Y88.0228
G01 X7.8092 Y88.0393
G01 X7.7650 Y88.0603
G01 X7.7230 Y88.0854
G01 X7.6837 Y88.1146
G01 X7.6474 Y88.1474
G01 X7.6146 Y88.1837
G01 X7.5854 Y88.2230
G01 X7.5603 Y88.2650
G01 X7.5393 Y88.3092
G01 X7.5228 Y88.3553
G01 X7.5110 Y88.4027
G01 X7.5038 Y88.4511
G01 X7.5014 Y88.5000
G00 X7.5014 Y88.5000
G01 F100.00
G01 Z-9.0000
G01 F200.00
G01 X7.5038 Y88.5489
G01 X7.5110 Y88.5973
G01 X7.5228 Y88.6447
G01 X7.5393 Y88.6908
G01 X7.5603 Y88.7350
G01 X7.5854 Y88.7770
G01 X7.6146 Y88.8163
G01 X7.6474 Y88.8526
G01 X7.6837 Y88.8854
G01 X7.7230 Y88.9146
G01 X7.7650 Y88.9397
G01 X7.8092 Y88.9607
G01 X7.8553 Y88.9772
G01 X7.9027 Y88.9890
G01 X7.9511 Y88.9962
G01 X8.0000 Y88.9986
G01 X8.0489 Y88.9962
G01 X8.0973 Y88.9890
G01 X8.1447 Y88.9772
G01 X8.1908 Y88.9607
G01 X8.2350 Y88.9397
G01 X8.2770 Y88.9146
G01 X8.3163 Y88.8854
G01 X8.3526 Y88.8526
G01 X8.3854 Y88.8163
G01 X8.4146 Y88.7770
G01 X8.4397 Y88.7350
G01 X8.4607 Y88.6908
G01 X8.4772 Y88.6447
G01 X8.4890 Y88.5973
G01 X8.4962 Y88.5489
G01 X8.4986 Y88.5000
G01 X8.4962 Y88.4511
G01 X8.4890 Y88.4027
G01 X8.4772 Y88.3553
G01 X8.4607 Y88.3092
G01 X8.4397 Y88.2650
G01 X8.4146 Y88.2230
G01 X8.3854 Y88.1837
G01 X8.3526 Y88.1474
G01 X8.3163 Y88.1146
G01 X8.2770 Y88.0854
G01 X8.2350 Y88.0603
G01 X8.1908 Y88.0393
G01 X8.1447 Y88.0228
G01 X8.0973 Y88.0110
G01 X8.0489 Y88.0038
G01 X8.0000 Y88.0014
G01 X7.9511 Y88.0038
G01 X7.9027 Y88.0110
G01 X7.8553 Y88.0228
G01 X7.8092 Y88.0393
G01 X7.7650 Y88.0603
G01 X7.7230 Y88.0854
G01 X7.6837 Y88.1146
G01 X7.6474 Y88.1474
G01 X7.6146 Y88.1837
G01 X7.5854 Y88.2230
G01 X7.5603 Y88.2650
G01 X7.5393 Y88.3092
G01 X7.5228 Y88.3553
G01 X7.5110 Y88.4027
G01 X7.5038 Y88.4511
G01 X7.5014 Y88.5000
G00 X7.5014 Y88.5000
G01 F100.00
G01 Z-9.6000
G01 F200.00
G01 X7.5038 Y88.5489
G01 X7.5110 Y88.5973
G01 X7.5228 Y88.6447
G01 X7.5393 Y88.6908
G01 X7.5603 Y88.7350
G01 X7.5854 Y88.7770
G01 X7.6146 Y88.8163
G01 X7.6474 Y88.8526
G01 X7.6837 Y88.8854
G01 X7.7230 Y88.9146
G01 X7.7650 Y88.9397
G01 X7.8092 Y88.9607
G01 X7.8553 Y88.9772
G01 X7.9027 Y88.9890
G01 X7.9511 Y88.9962
G01 X8.0000 Y88.9986
G01 X8.0489 Y88.9962
G01 X8.0973 Y88.9890
G01 X8.1447 Y88.9772
G01 X8.1908 Y88.9607
G01 X8.2350 Y88.9397
G01 X8.2770 Y88.9146
G01 X8.3163 Y88.8854
G01 X8.3526 Y88.8526
G01 X8.3854 Y88.8163
G01 X8.4146 Y88.7770
G01 X8.4397 Y88.7350
G01 X8.4607 Y88.6908
G01 X8.4772 Y88.6447
G01 X8.4890 Y88.5973
G01 X8.4962 Y88.5489
G01 X8.4986 Y88.5000
G01 X8.4962 Y88.4511
G01 X8.4890 Y88.4027
G01 X8.4772 Y88.3553
G01 X8.4607 Y88.3092
G01 X8.4397 Y88.2650
G01 X8.4146 Y88.2230
G01 X8.3854 Y88.1837
G01 X8.3526 Y88.1474
G01 X8.3163 Y88.1146
G01 X8.2770 Y88.0854
G01 X8.2350 Y88.0603
G01 X8.1908 Y88.0393
G01 X8.1447 Y88.0228
G01 X8.0973 Y88.0110
G01 X8.0489 Y88.0038
G01 X8.0000 Y88.0014
G01 X7.9511 Y88.0038
G01 X7.9027 Y88.0110
G01 X7.8553 Y88.0228
G01 X7.8092 Y88.0393
G01 X7.7650 Y88.0603
G01 X7.7230 Y88.0854
G01 X7.6837 Y88.1146
G01 X7.6474 Y88.1474
G01 X7.6146 Y88.1837
G01 X7.5854 Y88.2230
G01 X7.5603 Y88.2650
G01 X7.5393 Y88.3092
G01 X7.5228 Y88.3553
G01 X7.5110 Y88.4027
G01 X7.5038 Y88.4511
G01 X7.5014 Y88.5000
G00 X7.5014 Y88.5000
G01 F100.00
G01 Z-10.2000
G01 F200.00
G01 X7.5038 Y88.5489
G01 X7.5110 Y88.5973
G01 X7.5228 Y88.6447
G01 X7.5393 Y88.6908
G01 X7.5603 Y88.7350
G01 X7.5854 Y88.7770
G01 X7.6146 Y88.8163
G01 X7.6474 Y88.8526
G01 X7.6837 Y88.8854
G01 X7.7230 Y88.9146
G01 X7.7650 Y88.9397
G01 X7.8092 Y88.9607
G01 X7.8553 Y88.9772
G01 X7.9027 Y88.9890
G01 X7.9511 Y88.9962
G01 X8.0000 Y88.9986
G01 X8.0489 Y88.9962
G01 X8.0973 Y88.9890
G01 X8.1447 Y88.9772
G01 X8.1908 Y88.9607
G01 X8.2350 Y88.9397
G01 X8.2770 Y88.9146
G01 X8.3163 Y88.8854
G01 X8.3526 Y88.8526
G01 X8.3854 Y88.8163
G01 X8.4146 Y88.7770
G01 X8.4397 Y88.7350
G01 X8.4607 Y88.6908
G01 X8.4772 Y88.6447
G01 X8.4890 Y88.5973
G01 X8.4962 Y88.5489
G01 X8.4986 Y88.5000
G01 X8.4962 Y88.4511
G01 X8.4890 Y88.4027
G01 X8.4772 Y88.3553
G01 X8.4607 Y88.3092
G01 X8.4397 Y88.2650
G01 X8.4146 Y88.2230
G01 X8.3854 Y88.1837
G01 X8.3526 Y88.1474
G01 X8.3163 Y88.1146
G01 X8.2770 Y88.0854
G01 X8.2350 Y88.0603
G01 X8.1908 Y88.0393
G01 X8.1447 Y88.0228
G01 X8.0973 Y88.0110
G01 X8.0489 Y88.0038
G01 X8.0000 Y88.0014
G01 X7.9511 Y88.0038
G01 X7.9027 Y88.0110
G01 X7.8553 Y88.0228
G01 X7.8092 Y88.0393
G01 X7.7650 Y88.0603
G01 X7.7230 Y88.0854
G01 X7.6837 Y88.1146
G01 X7.6474 Y88.1474
G01 X7.6146 Y88.1837
G01 X7.5854 Y88.2230
G01 X7.5603 Y88.2650
G01 X7.5393 Y88.3092
G01 X7.5228 Y88.3553
G01 X7.5110 Y88.4027
G01 X7.5038 Y88.4511
G01 X7.5014 Y88.5000
G00 Z2.0000
G00 X88.0262 Y61.5000
G01 F100.00
G01 Z-0.6000
G01 F200.00
G01 X88.0309 Y61.5954
G01 X88.0450 Y61.6900
G01 X88.0682 Y61.7827
G01 X88.1004 Y61.8726
G01 X88.1412 Y61.9590
G01 X88.1904 Y62.0410
G01 X88.2473 Y62.1177
G01 X88.3115 Y62.1885
G01 X88.3823 Y62.2527
G01 X88.4590 Y62.3096
G01 X88.5410 Y62.3588
G01 X88.6274 Y62.3996
G01 X88.7173 Y62.4318
G01 X88.8100 Y62.4550
G01 X88.9046 Y62.4691
G01 X89.0000 Y62.4738
G01 X89.0954 Y62.4691
G01 X89.1900 Y62.4550
G01 X89.2827 Y62.4318
G01 X89.3726 Y62.3996
G01 X89.4590 Y62.3588
G01 X89.5410 Y62.3096
G01 X89.6177 Y62.2527
G01 X89.6885 Y62.1885
G01 X89.7527 Y62.1177
G01 X89.8096 Y62.0410
G01 X89.8588 Y61.9590
G01 X89.8996 Y61.8726
G01 X89.9318 Y61.7827
G01 X89.9550 Y61.6900
G01 X89.9691 Y61.5954
G01 X89.9738 Y61.5000
G01 X89.9691 Y61.4046
G01 X89.9550 Y61.3100
G01 X89.9318 Y61.2173
G01 X89.8996 Y61.1274
G01 X89.8588 Y61.0410
G01 X89.8096 Y60.9590
G01 X89.7527 Y60.8823
G01 X89.6885 Y60.8115
G01 X89.6177 Y60.7473
G01 X89.5410 Y60.6904
G01 X89.4590 Y60.6412
G01 X89.3726 Y60.6004
G01 X89.2827 Y60.5682
G01 X89.1900 Y60.5450
G01 X89.0954 Y60.5309
G01 X89.0000 Y60.5262
G01 X88.9046 Y60.5309
G01 X88.8100 Y60.5450
G01 X88.7173 Y60.5682
G01 X88.6274 Y60.6004
G01 X88.5410 Y60.6412
G01 X88.4590 Y60.6904
G01 X88.3823 Y60.7473
G01 X88.3115 Y60.8115
G01 X88.2473 Y60.8823
G01 X88.1904 Y60.9590
G01 X88.1412 Y61.0410
G01 X88.1004 Y61.1274
G01 X88.0682 Y61.2173
G01 X88.0450 Y61.3100
G01 X88.0309 Y61.4046
G01 X88.0262 Y61.5000
G00 X88.0262 Y61.5000
G01 F100.00
G01 Z-1.2000
G01 F200.00
G01 X88.0309 Y61.5954
G01 X88.0450 Y61.6900
G01 X88.0682 Y61.7827
G01 X88.1004 Y61.8726
G01 X88.1412 Y61.9590
G01 X88.1904 Y62.0410
G01 X88.2473 Y62.1177
G01 X88.3115 Y62.1885
G01 X88.3823 Y62.2527
G01 X88.4590 Y62.3096
G01 X88.5410 Y62.3588
G01 X88.6274 Y62.3996
G01 X88.7173 Y62.4318
G01 X88.8100 Y62.4550
G01 X88.9046 Y62.4691
G01 X89.0000 Y62.4738
G01 X89.0954 Y62.4691
G01 X89.1900 Y62.4550
G01 X89.2827 Y62.4318
G01 X89.3726 Y62.3996
G01 X89.4590 Y62.3588
G01 X89.5410 Y62.3096
G01 X89.6177 Y62.2527
G01 X89.6885 Y62.1885
G01 X89.7527 Y62.1177
G01 X89.8096 Y62.0410
G01 X89.8588 Y61.9590
G01 X89.8996 Y61.8726
G01 X89.9318 Y61.7827
G01 X89.9550 Y61.6900
G01 X89.9691 Y61.5954
G01 X89.9738 Y61.5000
G01 X89.9691 Y61.4046
G01 X89.9550 Y61.3100
G01 X89.9318 Y61.2173
G01 X89.8996 Y61.1274
G01 X89.8588 Y61.0410
G01 X89.8096 Y60.9590
G01 X89.7527 Y60.8823
G01 X89.6885 Y60.8115
G01 X89.6177 Y60.7473
G01 X89.5410 Y60.6904
G01 X89.4590 Y60.6412
G01 X89.3726 Y60.6004
G01 X89.2827 Y60.5682
G01 X89.1900 Y60.5450
G01 X89.0954 Y60.5309
G01 X89.0000 Y60.5262
G01 X88.9046 Y60.5309
G01 X88.8100 Y60.5450
G01 X88.7173 Y60.5682
G01 X88.6274 Y60.6004
G01 X88.5410 Y60.6412
G01 X88.4590 Y60.6904
G01 X88.3823 Y60.7473
G01 X88.3115 Y60.8115
G01 X88.2473 Y60.8823
G01 X88.1904 Y60.9590
G01 X88.1412 Y61.0410
G01 X88.1004 Y61.1274
G01 X88.0682 Y61.2173
G01 X88.0450 Y61.3100
G01 X88.0309 Y61.4046
G01 X88.0262 Y61.5000
G00 X88.0262 Y61.5000
G01 F100.00
G01 Z-1.8000
G01 F200.00
G01 X88.0309 Y61.5954
G01 X88.0450 Y61.6900
G01 X88.0682 Y61.7827
G01 X88.1004 Y61.8726
G01 X88.1412 Y61.9590
G01 X88.1904 Y62.0410
G01 X88.2473 Y62.1177
G01 X88.3115 Y62.1885
G01 X88.3823 Y62.2527
G01 X88.4590 Y62.3096
G01 X88.5410 Y62.3588
G01 X88.6274 Y62.3996
G01 X88.7173 Y62.4318
G01 X88.8100 Y62.4550
G01 X88.9046 Y62.4691
G01 X89.0000 Y62.4738
G01 X89.0954 Y62.4691
G01 X89.1900 Y62.4550
G01 X89.2827 Y62.4318
G01 X89.3726 Y62.3996
G01 X89.4590 Y62.3588
G01 X89.5410 Y62.3096
G01 X89.6177 Y62.2527
G01 X89.6885 Y62.1885
G01 X89.7527 Y62.1177
G01 X89.8096 Y62.0410
G01 X89.8588 Y61.9590
G01 X89.8996 Y61.8726
G01 X89.9318 Y61.7827
G01 X89.9550 Y61.6900
G01 X89.9691 Y61.5954
G01 X89.9738 Y61.5000
G01 X89.9691 Y61.4046
G01 X89.9550 Y61.3100
G01 X89.9318 Y61.2173
G01 X89.8996 Y61.1274
G01 X89.8588 Y61.0410
G01 X89.8096 Y60.9590
G01 X89.7527 Y60.8823
G01 X89.6885 Y60.8115
G01 X89.6177 Y60.7473
G01 X89.5410 Y60.6904
G01 X89.4590 Y60.6412
G01 X89.3726 Y60.6004
G01 X89.2827 Y60.5682
G01 X89.1900 Y60.5450
G01 X89.0954 Y60.5309
G01 X89.0000 Y60.5262
G01 X88.9046 Y60.5309
G01 X88.8100 Y60.5450
G01 X88.7173 Y60.5682
G01 X88.6274 Y60.6004
G01 X88.5410 Y60.6412
G01 X88.4590 Y60.6904
G01 X88.3823 Y60.7473
G01 X88.3115 Y60.8115
G01 X88.2473 Y60.8823
G01 X88.1904 Y60.9590
G01 X88.1412 Y61.0410
G01 X88.1004 Y61.1274
G01 X88.0682 Y61.2173
G01 X88.0450 Y61.3100
G01 X88.0309 Y61.4046
G01 X88.0262 Y61.5000
G00 X88.0262 Y61.5000
G01 F100.00
G01 Z-2.4000
G01 F200.00
G01 X88.0309 Y61.5954
G01 X88.0450 Y61.6900
G01 X88.0682 Y61.7827
G01 X88.1004 Y61.8726
G01 X88.1412 Y61.9590
G01 X88.1904 Y62.0410
G01 X88.2473 Y62.1177
G01 X88.3115 Y62.1885
G01 X88.3823 Y62.2527
G01 X88.4590 Y62.3096
G01 X88.5410 Y62.3588
G01 X88.6274 Y62.3996
G01 X88.7173 Y62.4318
G01 X88.8100 Y62.4550
G01 X88.9046 Y62.4691
G01 X89.0000 Y62.4738
G01 X89.0954 Y62.4691
G01 X89.1900 Y62.4550
G01 X89.2827 Y62.4318
G01 X89.3726 Y62.3996
G01 X89.4590 Y62.3588
G01 X89.5410 Y62.3096
G01 X89.6177 Y62.2527
G01 X89.6885 Y62.1885
G01 X89.7527 Y62.1177
G01 X89.8096 Y62.0410
G01 X89.8588 Y61.9590
G01 X89.8996 Y61.8726
G01 X89.9318 Y61.7827
G01 X89.9550 Y61.6900
G01 X89.9691 Y61.5954
G01 X89.9738 Y61.5000
G01 X89.9691 Y61.4046
G01 X89.9550 Y61.3100
G01 X89.9318 Y61.2173
G01 X89.8996 Y61.1274
G01 X89.8588 Y61.0410
G01 X89.8096 Y60.9590
G01 X89.7527 Y60.8823
G01 X89.6885 Y60.8115
G01 X89.6177 Y60.7473
G01 X89.5410 Y60.6904
G01 X89.4590 Y60.6412
G01 X89.3726 Y60.6004
G01 X89.2827 Y60.5682
G01 X89.1900 Y60.5450
G01 X89.0954 Y60.5309
G01 X89.0000 Y60.5262
G01 X88.9046 Y60.5309
G01 X88.8100 Y60.5450
G01 X88.7173 Y60.5682
G01 X88.6274 Y60.6004
G01 X88.5410 Y60.6412
G01 X88.4590 Y60.6904
G01 X88.3823 Y60.7473
G01 X88.3115 Y60.8115
G01 X88.2473 Y60.8823
G01 X88.1904 Y60.9590
G01 X88.1412 Y61.0410
G01 X88.1004 Y61.1274
G01 X88.0682 Y61.2173
G01 X88.0450 Y61.3100
G01 X88.0309 Y61.4046
G01 X88.0262 Y61.5000
G00 X88.0262 Y61.5000
G01 F100.00
G01 Z-3.0000
G01 F200.00
G01 X88.0309 Y61.5954
G01 X88.0450 Y61.6900
G01 X88.0682 Y61.7827
G01 X88.1004 Y61.8726
G01 X88.1412 Y61.9590
G01 X88.1904 Y62.0410
G01 X88.2473 Y62.1177
G01 X88.3115 Y62.1885
G01 X88.3823 Y62.2527
G01 X88.4590 Y62.3096
G01 X88.5410 Y62.3588
G01 X88.6274 Y62.3996
G01 X88.7173 Y62.4318
G01 X88.8100 Y62.4550
G01 X88.9046 Y62.4691
G01 X89.0000 Y62.4738
G01 X89.0954 Y62.4691
G01 X89.1900 Y62.4550
G01 X89.2827 Y62.4318
G01 X89.3726 Y62.3996
G01 X89.4590 Y62.3588
G01 X89.5410 Y62.3096
G01 X89.6177 Y62.2527
G01 X89.6885 Y62.1885
G01 X89.7527 Y62.1177
G01 X89.8096 Y62.0410
G01 X89.8588 Y61.9590
G01 X89.8996 Y61.8726
G01 X89.9318 Y61.7827
G01 X89.9550 Y61.6900
G01 X89.9691 Y61.5954
G01 X89.9738 Y61.5000
G01 X89.9691 Y61.4046
G01 X89.9550 Y61.3100
G01 X89.9318 Y61.2173
G01 X89.8996 Y61.1274
G01 X89.8588 Y61.0410
G01 X89.8096 Y60.9590
G01 X89.7527 Y60.8823
G01 X89.6885 Y60.8115
G01 X89.6177 Y60.7473
G01 X89.5410 Y60.6904
G01 X89.4590 Y60.6412
G01 X89.3726 Y60.6004
G01 X89.2827 Y60.5682
G01 X89.1900 Y60.5450
G01 X89.0954 Y60.5309
G01 X89.0000 Y60.5262
G01 X88.9046 Y60.5309
G01 X88.8100 Y60.5450
G01 X88.7173 Y60.5682
G01 X88.6274 Y60.6004
G01 X88.5410 Y60.6412
G01 X88.4590 Y60.6904
G01 X88.3823 Y60.7473
G01 X88.3115 Y60.8115
G01 X88.2473 Y60.8823
G01 X88.1904 Y60.9590
G01 X88.1412 Y61.0410
G01 X88.1004 Y61.1274
G01 X88.0682 Y61.2173
G01 X88.0450 Y61.3100
G01 X88.0309 Y61.4046
G01 X88.0262 Y61.5000
G00 X88.0262 Y61.5000
G01 F100.00
G01 Z-3.6000
G01 F200.00
G01 X88.0309 Y61.5954
G01 X88.0450 Y61.6900
G01 X88.0682 Y61.7827
G01 X88.1004 Y61.8726
G01 X88.1412 Y61.9590
G01 X88.1904 Y62.0410
G01 X88.2473 Y62.1177
G01 X88.3115 Y62.1885
G01 X88.3823 Y62.2527
G01 X88.4590 Y62.3096
G01 X88.5410 Y62.3588
G01 X88.6274 Y62.3996
G01 X88.7173 Y62.4318
G01 X88.8100 Y62.4550
G01 X88.9046 Y62.4691
G01 X89.0000 Y62.4738
G01 X89.0954 Y62.4691
G01 X89.1900 Y62.4550
G01 X89.2827 Y62.4318
G01 X89.3726 Y62.3996
G01 X89.4590 Y62.3588
G01 X89.5410 Y62.3096
G01 X89.6177 Y62.2527
G01 X89.6885 Y62.1885
G01 X89.7527 Y62.1177
G01 X89.8096 Y62.0410
G01 X89.8588 Y61.9590
G01 X89.8996 Y61.8726
G01 X89.9318 Y61.7827
G01 X89.9550 Y61.6900
G01 X89.9691 Y61.5954
G01 X89.9738 Y61.5000
G01 X89.9691 Y61.4046
G01 X89.9550 Y61.3100
G01 X89.9318 Y61.2173
G01 X89.8996 Y61.1274
G01 X89.8588 Y61.0410
G01 X89.8096 Y60.9590
G01 X89.7527 Y60.8823
G01 X89.6885 Y60.8115
G01 X89.6177 Y60.7473
G01 X89.5410 Y60.6904
G01 X89.4590 Y60.6412
G01 X89.3726 Y60.6004
G01 X89.2827 Y60.5682
G01 X89.1900 Y60.5450
G01 X89.0954 Y60.5309
G01 X89.0000 Y60.5262
G01 X88.9046 Y60.5309
G01 X88.8100 Y60.5450
G01 X88.7173 Y60.5682
G01 X88.6274 Y60.6004
G01 X88.5410 Y60.6412
G01 X88.4590 Y60.6904
G01 X88.3823 Y60.7473
G01 X88.3115 Y60.8115
G01 X88.2473 Y60.8823
G01 X88.1904 Y60.9590
G01 X88.1412 Y61.0410
G01 X88.1004 Y61.1274
G01 X88.0682 Y61.2173
G01 X88.0450 Y61.3100
G01 X88.0309 Y61.4046
G01 X88.0262 Y61.5000
G00 X88.0262 Y61.5000
G01 F100.00
G01 Z-4.2000
G01 F200.00
G01 X88.0309 Y61.5954
G01 X88.0450 Y61.6900
G01 X88.0682 Y61.7827
G01 X88.1004 Y61.8726
G01 X88.1412 Y61.9590
G01 X88.1904 Y62.0410
G01 X88.2473 Y62.1177
G01 X88.3115 Y62.1885
G01 X88.3823 Y62.2527
G01 X88.4590 Y62.3096
G01 X88.5410 Y62.3588
G01 X88.6274 Y62.3996
G01 X88.7173 Y62.4318
G01 X88.8100 Y62.4550
G01 X88.9046 Y62.4691
G01 X89.0000 Y62.4738
G01 X89.0954 Y62.4691
G01 X89.1900 Y62.4550
G01 X89.2827 Y62.4318
G01 X89.3726 Y62.3996
G01 X89.4590 Y62.3588
G01 X89.5410 Y62.3096
G01 X89.6177 Y62.2527
G01 X89.6885 Y62.1885
G01 X89.7527 Y62.1177
G01 X89.8096 Y62.0410
G01 X89.8588 Y61.9590
G01 X89.8996 Y61.8726
G01 X89.9318 Y61.7827
G01 X89.9550 Y61.6900
G01 X89.9691 Y61.5954
G01 X89.9738 Y61.5000
G01 X89.9691 Y61.4046
G01 X89.9550 Y61.3100
G01 X89.9318 Y61.2173
G01 X89.8996 Y61.1274
G01 X89.8588 Y61.0410
G01 X89.8096 Y60.9590
G01 X89.7527 Y60.8823
G01 X89.6885 Y60.8115
G01 X89.6177 Y60.7473
G01 X89.5410 Y60.6904
G01 X89.4590 Y60.6412
G01 X89.3726 Y60.6004
G01 X89.2827 Y60.5682
G01 X89.1900 Y60.5450
G01 X89.0954 Y60.5309
G01 X89.0000 Y60.5262
G01 X88.9046 Y60.5309
G01 X88.8100 Y60.5450
G01 X88.7173 Y60.5682
G01 X88.6274 Y60.6004
G01 X88.5410 Y60.6412
G01 X88.4590 Y60.6904
G01 X88.3823 Y60.7473
G01 X88.3115 Y60.8115
G01 X88.2473 Y60.8823
G01 X88.1904 Y60.9590
G01 X88.1412 Y61.0410
G01 X88.1004 Y61.1274
G01 X88.0682 Y61.2173
G01 X88.0450 Y61.3100
G01 X88.0309 Y61.4046
G01 X88.0262 Y61.5000
G00 X88.0262 Y61.5000
G01 F100.00
G01 Z-4.8000
G01 F200.00
G01 X88.0309 Y61.5954
G01 X88.0450 Y61.6900
G01 X88.0682 Y61.7827
G01 X88.1004 Y61.8726
G01 X88.1412 Y61.9590
G01 X88.1904 Y62.0410
G01 X88.2473 Y62.1177
G01 X88.3115 Y62.1885
G01 X88.3823 Y62.2527
G01 X88.4590 Y62.3096
G01 X88.5410 Y62.3588
G01 X88.6274 Y62.3996
G01 X88.7173 Y62.4318
G01 X88.8100 Y62.4550
G01 X88.9046 Y62.4691
G01 X89.0000 Y62.4738
G01 X89.0954 Y62.4691
G01 X89.1900 Y62.4550
G01 X89.2827 Y62.4318
G01 X89.3726 Y62.3996
G01 X89.4590 Y62.3588
G01 X89.5410 Y62.3096
G01 X89.6177 Y62.2527
G01 X89.6885 Y62.1885
G01 X89.7527 Y62.1177
G01 X89.8096 Y62.0410
G01 X89.8588 Y61.9590
G01 X89.8996 Y61.8726
G01 X89.9318 Y61.7827
G01 X89.9550 Y61.6900
G01 X89.9691 Y61.5954
G01 X89.9738 Y61.5000
G01 X89.9691 Y61.4046
G01 X89.9550 Y61.3100
G01 X89.9318 Y61.2173
G01 X89.8996 Y61.1274
G01 X89.8588 Y61.0410
G01 X89.8096 Y60.9590
G01 X89.7527 Y60.8823
G01 X89.6885 Y60.8115
G01 X89.6177 Y60.7473
G01 X89.5410 Y60.6904
G01 X89.4590 Y60.6412
G01 X89.3726 Y60.6004
G01 X89.2827 Y60.5682
G01 X89.1900 Y60.5450
G01 X89.0954 Y60.5309
G01 X89.0000 Y60.5262
G01 X88.9046 Y60.5309
G01 X88.8100 Y60.5450
G01 X88.7173 Y60.5682
G01 X88.6274 Y60.6004
G01 X88.5410 Y60.6412
G01 X88.4590 Y60.6904
G01 X88.3823 Y60.7473
G01 X88.3115 Y60.8115
G01 X88.2473 Y60.8823
G01 X88.1904 Y60.9590
G01 X88.1412 Y61.0410
G01 X88.1004 Y61.1274
G01 X88.0682 Y61.2173
G01 X88.0450 Y61.3100
G01 X88.0309 Y61.4046
G01 X88.0262 Y61.5000
G00 X88.0262 Y61.5000
G01 F100.00
G01 Z-5.4000
G01 F200.00
G01 X88.0309 Y61.5954
G01 X88.0450 Y61.6900
G01 X88.0682 Y61.7827
G01 X88.1004 Y61.8726
G01 X88.1412 Y61.9590
G01 X88.1904 Y62.0410
G01 X88.2473 Y62.1177
G01 X88.3115 Y62.1885
G01 X88.3823 Y62.2527
G01 X88.4590 Y62.3096
G01 X88.5410 Y62.3588
G01 X88.6274 Y62.3996
G01 X88.7173 Y62.4318
G01 X88.8100 Y62.4550
G01 X88.9046 Y62.4691
G01 X89.0000 Y62.4738
G01 X89.0954 Y62.4691
G01 X89.1900 Y62.4550
G01 X89.2827 Y62.4318
G01 X89.3726 Y62.3996
G01 X89.4590 Y62.3588
G01 X89.5410 Y62.3096
G01 X89.6177 Y62.2527
G01 X89.6885 Y62.1885
G01 X89.7527 Y62.1177
G01 X89.8096 Y62.0410
G01 X89.8588 Y61.9590
G01 X89.8996 Y61.8726
G01 X89.9318 Y61.7827
G01 X89.9550 Y61.6900
G01 X89.9691 Y61.5954
G01 X89.9738 Y61.5000
G01 X89.9691 Y61.4046
G01 X89.9550 Y61.3100
G01 X89.9318 Y61.2173
G01 X89.8996 Y61.1274
G01 X89.8588 Y61.0410
G01 X89.8096 Y60.9590
G01 X89.7527 Y60.8823
G01 X89.6885 Y60.8115
G01 X89.6177 Y60.7473
G01 X89.5410 Y60.6904
G01 X89.4590 Y60.6412
G01 X89.3726 Y60.6004
G01 X89.2827 Y60.5682
G01 X89.1900 Y60.5450
G01 X89.0954 Y60.5309
G01 X89.0000 Y60.5262
G01 X88.9046 Y60.5309
G01 X88.8100 Y60.5450
G01 X88.7173 Y60.5682
G01 X88.6274 Y60.6004
G01 X88.5410 Y60.6412
G01 X88.4590 Y60.6904
G01 X88.3823 Y60.7473
G01 X88.3115 Y60.8115
G01 X88.2473 Y60.8823
G01 X88.1904 Y60.9590
G01 X88.1412 Y61.0410
G01 X88.1004 Y61.1274
G01 X88.0682 Y61.2173
G01 X88.0450 Y61.3100
G01 X88.0309 Y61.4046
G01 X88.0262 Y61.5000
G00 X88.0262 Y61.5000
G01 F100.00
G01 Z-6.0000
G01 F200.00
G01 X88.0309 Y61.5954
G01 X88.0450 Y61.6900
G01 X88.0682 Y61.7827
G01 X88.1004 Y61.8726
G01 X88.1412 Y61.9590
G01 X88.1904 Y62.0410
G01 X88.2473 Y62.1177
G01 X88.3115 Y62.1885
G01 X88.3823 Y62.2527
G01 X88.4590 Y62.3096
G01 X88.5410 Y62.3588
G01 X88.6274 Y62.3996
G01 X88.7173 Y62.4318
G01 X88.8100 Y62.4550
G01 X88.9046 Y62.4691
G01 X89.0000 Y62.4738
G01 X89.0954 Y62.4691
G01 X89.1900 Y62.4550
G01 X89.2827 Y62.4318
G01 X89.3726 Y62.3996
G01 X89.4590 Y62.3588
G01 X89.5410 Y62.3096
G01 X89.6177 Y62.2527
G01 X89.6885 Y62.1885
G01 X89.7527 Y62.1177
G01 X89.8096 Y62.0410
G01 X89.8588 Y61.9590
G01 X89.8996 Y61.8726
G01 X89.9318 Y61.7827
G01 X89.9550 Y61.6900
G01 X89.9691 Y61.5954
G01 X89.9738 Y61.5000
G01 X89.9691 Y61.4046
G01 X89.9550 Y61.3100
G01 X89.9318 Y61.2173
G01 X89.8996 Y61.1274
G01 X89.8588 Y61.0410
G01 X89.8096 Y60.9590
G01 X89.7527 Y60.8823
G01 X89.6885 Y60.8115
G01 X89.6177 Y60.7473
G01 X89.5410 Y60.6904
G01 X89.4590 Y60.6412
G01 X89.3726 Y60.6004
G01 X89.2827 Y60.5682
G01 X89.1900 Y60.5450
G01 X89.0954 Y60.5309
G01 X89.0000 Y60.5262
G01 X88.9046 Y60.5309
G01 X88.8100 Y60.5450
G01 X88.7173 Y60.5682
G01 X88.6274 Y60.6004
G01 X88.5410 Y60.6412
G01 X88.4590 Y60.6904
G01 X88.3823 Y60.7473
G01 X88.3115 Y60.8115
G01 X88.2473 Y60.8823
G01 X88.1904 Y60.9590
G01 X88.1412 Y61.0410
G01 X88.1004 Y61.1274
G01 X88.0682 Y61.2173
G01 X88.0450 Y61.3100
G01 X88.0309 Y61.4046
G01 X88.0262 Y61.5000
G00 X88.0262 Y61.5000
G01 F100.00
G01 Z-6.6000
G01 F200.00
G01 X88.0309 Y61.5954
G01 X88.0450 Y61.6900
G01 X88.0682 Y61.7827
G01 X88.1004 Y61.8726
G01 X88.1412 Y61.9590
G01 X88.1904 Y62.0410
G01 X88.2473 Y62.1177
G01 X88.3115 Y62.1885
G01 X88.3823 Y62.2527
G01 X88.4590 Y62.3096
G01 X88.5410 Y62.3588
G01 X88.6274 Y62.3996
G01 X88.7173 Y62.4318
G01 X88.8100 Y62.4550
G01 X88.9046 Y62.4691
G01 X89.0000 Y62.4738
G01 X89.0954 Y62.4691
G01 X89.1900 Y62.4550
G01 X89.2827 Y62.4318
G01 X89.3726 Y62.3996
G01 X89.4590 Y62.3588
G01 X89.5410 Y62.3096
G01 X89.6177 Y62.2527
G01 X89.6885 Y62.1885
G01 X89.7527 Y62.1177
G01 X89.8096 Y62.0410
G01 X89.8588 Y61.9590
G01 X89.8996 Y61.8726
G01 X89.9318 Y61.7827
G01 X89.9550 Y61.6900
G01 X89.9691 Y61.5954
G01 X89.9738 Y61.5000
G01 X89.9691 Y61.4046
G01 X89.9550 Y61.3100
G01 X89.9318 Y61.2173
G01 X89.8996 Y61.1274
G01 X89.8588 Y61.0410
G01 X89.8096 Y60.9590
G01 X89.7527 Y60.8823
G01 X89.6885 Y60.8115
G01 X89.6177 Y60.7473
G01 X89.5410 Y60.6904
G01 X89.4590 Y60.6412
G01 X89.3726 Y60.6004
G01 X89.2827 Y60.5682
G01 X89.1900 Y60.5450
G01 X89.0954 Y60.5309
G01 X89.0000 Y60.5262
G01 X88.9046 Y60.5309
G01 X88.8100 Y60.5450
G01 X88.7173 Y60.5682
G01 X88.6274 Y60.6004
G01 X88.5410 Y60.6412
G01 X88.4590 Y60.6904
G01 X88.3823 Y60.7473
G01 X88.3115 Y60.8115
G01 X88.2473 Y60.8823
G01 X88.1904 Y60.9590
G01 X88.1412 Y61.0410
G01 X88.1004 Y61.1274
G01 X88.0682 Y61.2173
G01 X88.0450 Y61.3100
G01 X88.0309 Y61.4046
G01 X88.0262 Y61.5000
G00 X88.0262 Y61.5000
G01 F100.00
G01 Z-7.2000
G01 F200.00
G01 X88.0309 Y61.5954
G01 X88.0450 Y61.6900
G01 X88.0682 Y61.7827
G01 X88.1004 Y61.8726
G01 X88.1412 Y61.9590
G01 X88.1904 Y62.0410
G01 X88.2473 Y62.1177
G01 X88.3115 Y62.1885
G01 X88.3823 Y62.2527
G01 X88.4590 Y62.3096
G01 X88.5410 Y62.3588
G01 X88.6274 Y62.3996
G01 X88.7173 Y62.4318
G01 X88.8100 Y62.4550
G01 X88.9046 Y62.4691
G01 X89.0000 Y62.4738
G01 X89.0954 Y62.4691
G01 X89.1900 Y62.4550
G01 X89.2827 Y62.4318
G01 X89.3726 Y62.3996
G01 X89.4590 Y62.3588
G01 X89.5410 Y62.3096
G01 X89.6177 Y62.2527
G01 X89.6885 Y62.1885
G01 X89.7527 Y62.1177
G01 X89.8096 Y62.0410
G01 X89.8588 Y61.9590
G01 X89.8996 Y61.8726
G01 X89.9318 Y61.7827
G01 X89.9550 Y61.6900
G01 X89.9691 Y61.5954
G01 X89.9738 Y61.5000
G01 X89.9691 Y61.4046
G01 X89.9550 Y61.3100
G01 X89.9318 Y61.2173
G01 X89.8996 Y61.1274
G01 X89.8588 Y61.0410
G01 X89.8096 Y60.9590
G01 X89.7527 Y60.8823
G01 X89.6885 Y60.8115
G01 X89.6177 Y60.7473
G01 X89.5410 Y60.6904
G01 X89.4590 Y60.6412
G01 X89.3726 Y60.6004
G01 X89.2827 Y60.5682
G01 X89.1900 Y60.5450
G01 X89.0954 Y60.5309
G01 X89.0000 Y60.5262
G01 X88.9046 Y60.5309
G01 X88.8100 Y60.5450
G01 X88.7173 Y60.5682
G01 X88.6274 Y60.6004
G01 X88.5410 Y60.6412
G01 X88.4590 Y60.6904
G01 X88.3823 Y60.7473
G01 X88.3115 Y60.8115
G01 X88.2473 Y60.8823
G01 X88.1904 Y60.9590
G01 X88.1412 Y61.0410
G01 X88.1004 Y61.1274
G01 X88.0682 Y61.2173
G01 X88.0450 Y61.3100
G01 X88.0309 Y61.4046
G01 X88.0262 Y61.5000
G00 X88.0262 Y61.5000
G01 F100.00
G01 Z-7.8000
G01 F200.00
G01 X88.0309 Y61.5954
G01 X88.0450 Y61.6900
G01 X88.0682 Y61.7827
G01 X88.1004 Y61.8726
G01 X88.1412 Y61.9590
G01 X88.1904 Y62.0410
G01 X88.2473 Y62.1177
G01 X88.3115 Y62.1885
G01 X88.3823 Y62.2527
G01 X88.4590 Y62.3096
G01 X88.5410 Y62.3588
G01 X88.6274 Y62.3996
G01 X88.7173 Y62.4318
G01 X88.8100 Y62.4550
G01 X88.9046 Y62.4691
G01 X89.0000 Y62.4738
G01 X89.0954 Y62.4691
G01 X89.1900 Y62.4550
G01 X89.2827 Y62.4318
G01 X89.3726 Y62.3996
G01 X89.4590 Y62.3588
G01 X89.5410 Y62.3096
G01 X89.6177 Y62.2527
G01 X89.6885 Y62.1885
G01 X89.7527 Y62.1177
G01 X89.8096 Y62.0410
G01 X89.8588 Y61.9590
G01 X89.8996 Y61.8726
G01 X89.9318 Y61.7827
G01 X89.9550 Y61.6900
G01 X89.9691 Y61.5954
G01 X89.9738 Y61.5000
G01 X89.9691 Y61.4046
G01 X89.9550 Y61.3100
G01 X89.9318 Y61.2173
G01 X89.8996 Y61.1274
G01 X89.8588 Y61.0410
G01 X89.8096 Y60.9590
G01 X89.7527 Y60.8823
G01 X89.6885 Y60.8115
G01 X89.6177 Y60.7473
G01 X89.5410 Y60.6904
G01 X89.4590 Y60.6412
G01 X89.3726 Y60.6004
G01 X89.2827 Y60.5682
G01 X89.1900 Y60.5450
G01 X89.0954 Y60.5309
G01 X89.0000 Y60.5262
G01 X88.9046 Y60.5309
G01 X88.8100 Y60.5450
G01 X88.7173 Y60.5682
G01 X88.6274 Y60.6004
G01 X88.5410 Y60.6412
G01 X88.4590 Y60.6904
G01 X88.3823 Y60.7473
G01 X88.3115 Y60.8115
G01 X88.2473 Y60.8823
G01 X88.1904 Y60.9590
G01 X88.1412 Y61.0410
G01 X88.1004 Y61.1274
G01 X88.0682 Y61.2173
G01 X88.0450 Y61.3100
G01 X88.0309 Y61.4046
G01 X88.0262 Y61.5000
G00 X88.0262 Y61.5000
G01 F100.00
G01 Z-8.4000
G01 F200.00
G01 X88.0309 Y61.5954
G01 X88.0450 Y61.6900
G01 X88.0682 Y61.7827
G01 X88.1004 Y61.8726
G01 X88.1412 Y61.9590
G01 X88.1904 Y62.0410
G01 X88.2473 Y62.1177
G01 X88.3115 Y62.1885
G01 X88.3823 Y62.2527
G01 X88.4590 Y62.3096
G01 X88.5410 Y62.3588
G01 X88.6274 Y62.3996
G01 X88.7173 Y62.4318
G01 X88.8100 Y62.4550
G01 X88.9046 Y62.4691
G01 X89.0000 Y62.4738
G01 X89.0954 Y62.4691
G01 X89.1900 Y62.4550
G01 X89.2827 Y62.4318
G01 X89.3726 Y62.3996
G01 X89.4590 Y62.3588
G01 X89.5410 Y62.3096
G01 X89.6177 Y62.2527
G01 X89.6885 Y62.1885
G01 X89.7527 Y62.1177
G01 X89.8096 Y62.0410
G01 X89.8588 Y61.9590
G01 X89.8996 Y61.8726
G01 X89.9318 Y61.7827
G01 X89.9550 Y61.6900
G01 X89.9691 Y61.5954
G01 X89.9738 Y61.5000
G01 X89.9691 Y61.4046
G01 X89.9550 Y61.3100
G01 X89.9318 Y61.2173
G01 X89.8996 Y61.1274
G01 X89.8588 Y61.0410
G01 X89.8096 Y60.9590
G01 X89.7527 Y60.8823
G01 X89.6885 Y60.8115
G01 X89.6177 Y60.7473
G01 X89.5410 Y60.6904
G01 X89.4590 Y60.6412
G01 X89.3726 Y60.6004
G01 X89.2827 Y60.5682
G01 X89.1900 Y60.5450
G01 X89.0954 Y60.5309
G01 X89.0000 Y60.5262
G01 X88.9046 Y60.5309
G01 X88.8100 Y60.5450
G01 X88.7173 Y60.5682
G01 X88.6274 Y60.6004
G01 X88.5410 Y60.6412
G01 X88.4590 Y60.6904
G01 X88.3823 Y60.7473
G01 X88.3115 Y60.8115
G01 X88.2473 Y60.8823
G01 X88.1904 Y60.9590
G01 X88.1412 Y61.0410
G01 X88.1004 Y61.1274
G01 X88.0682 Y61.2173
G01 X88.0450 Y61.3100
G01 X88.0309 Y61.4046
G01 X88.0262 Y61.5000
G00 X88.0262 Y61.5000
G01 F100.00
G01 Z-9.0000
G01 F200.00
G01 X88.0309 Y61.5954
G01 X88.0450 Y61.6900
G01 X88.0682 Y61.7827
G01 X88.1004 Y61.8726
G01 X88.1412 Y61.9590
G01 X88.1904 Y62.0410
G01 X88.2473 Y62.1177
G01 X88.3115 Y62.1885
G01 X88.3823 Y62.2527
G01 X88.4590 Y62.3096
G01 X88.5410 Y62.3588
G01 X88.6274 Y62.3996
G01 X88.7173 Y62.4318
G01 X88.8100 Y62.4550
G01 X88.9046 Y62.4691
G01 X89.0000 Y62.4738
G01 X89.0954 Y62.4691
G01 X89.1900 Y62.4550
G01 X89.2827 Y62.4318
G01 X89.3726 Y62.3996
G01 X89.4590 Y62.3588
G01 X89.5410 Y62.3096
G01 X89.6177 Y62.2527
G01 X89.6885 Y62.1885
G01 X89.7527 Y62.1177
G01 X89.8096 Y62.0410
G01 X89.8588 Y61.9590
G01 X89.8996 Y61.8726
G01 X89.9318 Y61.7827
G01 X89.9550 Y61.6900
G01 X89.9691 Y61.5954
G01 X89.9738 Y61.5000
G01 X89.9691 Y61.4046
G01 X89.9550 Y61.3100
G01 X89.9318 Y61.2173
G01 X89.8996 Y61.1274
G01 X89.8588 Y61.0410
G01 X89.8096 Y60.9590
G01 X89.7527 Y60.8823
G01 X89.6885 Y60.8115
G01 X89.6177 Y60.7473
G01 X89.5410 Y60.6904
G01 X89.4590 Y60.6412
G01 X89.3726 Y60.6004
G01 X89.2827 Y60.5682
G01 X89.1900 Y60.5450
G01 X89.0954 Y60.5309
G01 X89.0000 Y60.5262
G01 X88.9046 Y60.5309
G01 X88.8100 Y60.5450
G01 X88.7173 Y60.5682
G01 X88.6274 Y60.6004
G01 X88.5410 Y60.6412
G01 X88.4590 Y60.6904
G01 X88.3823 Y60.7473
G01 X88.3115 Y60.8115
G01 X88.2473 Y60.8823
G01 X88.1904 Y60.9590
G01 X88.1412 Y61.0410
G01 X88.1004 Y61.1274
G01 X88.0682 Y61.2173
G01 X88.0450 Y61.3100
G01 X88.0309 Y61.4046
G01 X88.0262 Y61.5000
G00 X88.0262 Y61.5000
G01 F100.00
G01 Z-9.6000
G01 F200.00
G01 X88.0309 Y61.5954
G01 X88.0450 Y61.6900
G01 X88.0682 Y61.7827
G01 X88.1004 Y61.8726
G01 X88.1412 Y61.9590
G01 X88.1904 Y62.0410
G01 X88.2473 Y62.1177
G01 X88.3115 Y62.1885
G01 X88.3823 Y62.2527
G01 X88.4590 Y62.3096
G01 X88.5410 Y62.3588
G01 X88.6274 Y62.3996
G01 X88.7173 Y62.4318
G01 X88.8100 Y62.4550
G01 X88.9046 Y62.4691
G01 X89.0000 Y62.4738
G01 X89.0954 Y62.4691
G01 X89.1900 Y62.4550
G01 X89.2827 Y62.4318
G01 X89.3726 Y62.3996
G01 X89.4590 Y62.3588
G01 X89.5410 Y62.3096
G01 X89.6177 Y62.2527
G01 X89.6885 Y62.1885
G01 X89.7527 Y62.1177
G01 X89.8096 Y62.0410
G01 X89.8588 Y61.9590
G01 X89.8996 Y61.8726
G01 X89.9318 Y61.7827
G01 X89.9550 Y61.6900
G01 X89.9691 Y61.5954
G01 X89.9738 Y61.5000
G01 X89.9691 Y61.4046
G01 X89.9550 Y61.3100
G01 X89.9318 Y61.2173
G01 X89.8996 Y61.1274
G01 X89.8588 Y61.0410
G01 X89.8096 Y60.9590
G01 X89.7527 Y60.8823
G01 X89.6885 Y60.8115
G01 X89.6177 Y60.7473
G01 X89.5410 Y60.6904
G01 X89.4590 Y60.6412
G01 X89.3726 Y60.6004
G01 X89.2827 Y60.5682
G01 X89.1900 Y60.5450
G01 X89.0954 Y60.5309
G01 X89.0000 Y60.5262
G01 X88.9046 Y60.5309
G01 X88.8100 Y60.5450
G01 X88.7173 Y60.5682
G01 X88.6274 Y60.6004
G01 X88.5410 Y60.6412
G01 X88.4590 Y60.6904
G01 X88.3823 Y60.7473
G01 X88.3115 Y60.8115
G01 X88.2473 Y60.8823
G01 X88.1904 Y60.9590
G01 X88.1412 Y61.0410
G01 X88.1004 Y61.1274
G01 X88.0682 Y61.2173
G01 X88.0450 Y61.3100
G01 X88.0309 Y61.4046
G01 X88.0262 Y61.5000
G00 X88.0262 Y61.5000
G01 F100.00
G01 Z-10.2000
G01 F200.00
G01 X88.0309 Y61.5954
G01 X88.0450 Y61.6900
G01 X88.0682 Y61.7827
G01 X88.1004 Y61.8726
G01 X88.1412 Y61.9590
G01 X88.1904 Y62.0410
G01 X88.2473 Y62.1177
G01 X88.3115 Y62.1885
G01 X88.3823 Y62.2527
G01 X88.4590 Y62.3096
G01 X88.5410 Y62.3588
G01 X88.6274 Y62.3996
G01 X88.7173 Y62.4318
G01 X88.8100 Y62.4550
G01 X88.9046 Y62.4691
G01 X89.0000 Y62.4738
G01 X89.0954 Y62.4691
G01 X89.1900 Y62.4550
G01 X89.2827 Y62.4318
G01 X89.3726 Y62.3996
G01 X89.4590 Y62.3588
G01 X89.5410 Y62.3096
G01 X89.6177 Y62.2527
G01 X89.6885 Y62.1885
G01 X89.7527 Y62.1177
G01 X89.8096 Y62.0410
G01 X89.8588 Y61.9590
G01 X89.8996 Y61.8726
G01 X89.9318 Y61.7827
G01 X89.9550 Y61.6900
G01 X89.9691 Y61.5954
G01 X89.9738 Y61.5000
G01 X89.9691 Y61.4046
G01 X89.9550 Y61.3100
G01 X89.9318 Y61.2173
G01 X89.8996 Y61.1274
G01 X89.8588 Y61.0410
G01 X89.8096 Y60.9590
G01 X89.7527 Y60.8823
G01 X89.6885 Y60.8115
G01 X89.6177 Y60.7473
G01 X89.5410 Y60.6904
G01 X89.4590 Y60.6412
G01 X89.3726 Y60.6004
G01 X89.2827 Y60.5682
G01 X89.1900 Y60.5450
G01 X89.0954 Y60.5309
G01 X89.0000 Y60.5262
G01 X88.9046 Y60.5309
G01 X88.8100 Y60.5450
G01 X88.7173 Y60.5682
G01 X88.6274 Y60.6004
G01 X88.5410 Y60.6412
G01 X88.4590 Y60.6904
G01 X88.3823 Y60.7473
G01 X88.3115 Y60.8115
G01 X88.2473 Y60.8823
G01 X88.1904 Y60.9590
G01 X88.1412 Y61.0410
G01 X88.1004 Y61.1274
G01 X88.0682 Y61.2173
G01 X88.0450 Y61.3100
G01 X88.0309 Y61.4046
G01 X88.0262 Y61.5000
G00 Z2.0000
G00 X118.5014 Y67.9000
G01 F100.00
G01 Z-0.6000
G01 F200.00
G01 X118.5038 Y67.9489
G01 X118.5110 Y67.9973
G01 X118.5228 Y68.0447
G01 X118.5393 Y68.0908
G01 X118.5603 Y68.1350
G01 X118.5854 Y68.1770
G01 X118.6146 Y68.2163
G01 X118.6474 Y68.2526
G01 X118.6837 Y68.2854
G01 X118.7230 Y68.3146
G01 X118.7650 Y68.3397
G01 X118.8092 Y68.3607
G01 X118.8553 Y68.3772
G01 X118.9027 Y68.3890
G01 X118.9511 Y68.3962
G01 X119.0000 Y68.3986
G01 X119.0489 Y68.3962
G01 X119.0973 Y68.3890
G01 X119.1447 Y68.3772
G01 X119.1908 Y68.3607
G01 X119.2350 Y68.3397
G01 X119.2770 Y68.3146
G01 X119.3163 Y68.2854
G01 X119.3526 Y68.2526
G01 X119.3854 Y68.2163
G01 X119.4146 Y68.1770
G01 X119.4397 Y68.1350
G01 X119.4607 Y68.0908
G01 X119.4772 Y68.0447
G01 X119.4890 Y67.9973
G01 X119.4962 Y67.9489
G01 X119.4986 Y67.9000
G01 X119.4962 Y67.8511
G01 X119.4890 Y67.8027
G01 X119.4772 Y67.7553
G01 X119.4607 Y67.7092
G01 X119.4397 Y67.6650
G01 X119.4146 Y67.6230
G01 X119.3854 Y67.5837
G01 X119.3526 Y67.5474
G01 X119.3163 Y67.5146
G01 X119.2770 Y67.4854
G01 X119.2350 Y67.4603
G01 X119.1908 Y67.4393
G01 X119.1447 Y67.4228
G01 X119.0973 Y67.4110
G01 X119.0489 Y67.4038
G01 X119.0000 Y67.4014
G01 X118.9511 Y67.4038
G01 X118.9027 Y67.4110
G01 X118.8553 Y67.4228
G01 X118.8092 Y67.4393
G01 X118.7650 Y67.4603
G01 X118.7230 Y67.4854
G01 X118.6837 Y67.5146
G01 X118.6474 Y67.5474
G01 X118.6146 Y67.5837
G01 X118.5854 Y67.6230
G01 X118.5603 Y67.6650
G01 X118.5393 Y67.7092
G01 X118.5228 Y67.7553
G01 X118.5110 Y67.8027
G01 X118.5038 Y67.8511
G01 X118.5014 Y67.9000
G00 X118.5014 Y67.9000
G01 F100.00
G01 Z-1.2000
G01 F200.00
G01 X118.5038 Y67.9489
G01 X118.5110 Y67.9973
G01 X118.5228 Y68.0447
G01 X118.5393 Y68.0908
G01 X118.5603 Y68.1350
G01 X118.5854 Y68.1770
G01 X118.6146 Y68.2163
G01 X118.6474 Y68.2526
G01 X118.6837 Y68.2854
G01 X118.7230 Y68.3146
G01 X118.7650 Y68.3397
G01 X118.8092 Y68.3607
G01 X118.8553 Y68.3772
G01 X118.9027 Y68.3890
G01 X118.9511 Y68.3962
G01 X119.0000 Y68.3986
G01 X119.0489 Y68.3962
G01 X119.0973 Y68.3890
G01 X119.1447 Y68.3772
G01 X119.1908 Y68.3607
G01 X119.2350 Y68.3397
G01 X119.2770 Y68.3146
G01 X119.3163 Y68.2854
G01 X119.3526 Y68.2526
G01 X119.3854 Y68.2163
G01 X119.4146 Y68.1770
G01 X119.4397 Y68.1350
G01 X119.4607 Y68.0908
G01 X119.4772 Y68.0447
G01 X119.4890 Y67.9973
G01 X119.4962 Y67.9489
G01 X119.4986 Y67.9000
G01 X119.4962 Y67.8511
G01 X119.4890 Y67.8027
G01 X119.4772 Y67.7553
G01 X119.4607 Y67.7092
G01 X119.4397 Y67.6650
G01 X119.4146 Y67.6230
G01 X119.3854 Y67.5837
G01 X119.3526 Y67.5474
G01 X119.3163 Y67.5146
G01 X119.2770 Y67.4854
G01 X119.2350 Y67.4603
G01 X119.1908 Y67.4393
G01 X119.1447 Y67.4228
G01 X119.0973 Y67.4110
G01 X119.0489 Y67.4038
G01 X119.0000 Y67.4014
G01 X118.9511 Y67.4038
G01 X118.9027 Y67.4110
G01 X118.8553 Y67.4228
G01 X118.8092 Y67.4393
G01 X118.7650 Y67.4603
G01 X118.7230 Y67.4854
G01 X118.6837 Y67.5146
G01 X118.6474 Y67.5474
G01 X118.6146 Y67.5837
G01 X118.5854 Y67.6230
G01 X118.5603 Y67.6650
G01 X118.5393 Y67.7092
G01 X118.5228 Y67.7553
G01 X118.5110 Y67.8027
G01 X118.5038 Y67.8511
G01 X118.5014 Y67.9000
G00 X118.5014 Y67.9000
G01 F100.00
G01 Z-1.8000
G01 F200.00
G01 X118.5038 Y67.9489
G01 X118.5110 Y67.9973
G01 X118.5228 Y68.0447
G01 X118.5393 Y68.0908
G01 X118.5603 Y68.1350
G01 X118.5854 Y68.1770
G01 X118.6146 Y68.2163
G01 X118.6474 Y68.2526
G01 X118.6837 Y68.2854
G01 X118.7230 Y68.3146
G01 X118.7650 Y68.3397
G01 X118.8092 Y68.3607
G01 X118.8553 Y68.3772
G01 X118.9027 Y68.3890
G01 X118.9511 Y68.3962
G01 X119.0000 Y68.3986
G01 X119.0489 Y68.3962
G01 X119.0973 Y68.3890
G01 X119.1447 Y68.3772
G01 X119.1908 Y68.3607
G01 X119.2350 Y68.3397
G01 X119.2770 Y68.3146
G01 X119.3163 Y68.2854
G01 X119.3526 Y68.2526
G01 X119.3854 Y68.2163
G01 X119.4146 Y68.1770
G01 X119.4397 Y68.1350
G01 X119.4607 Y68.0908
G01 X119.4772 Y68.0447
G01 X119.4890 Y67.9973
G01 X119.4962 Y67.9489
G01 X119.4986 Y67.9000
G01 X119.4962 Y67.8511
G01 X119.4890 Y67.8027
G01 X119.4772 Y67.7553
G01 X119.4607 Y67.7092
G01 X119.4397 Y67.6650
G01 X119.4146 Y67.6230
G01 X119.3854 Y67.5837
G01 X119.3526 Y67.5474
G01 X119.3163 Y67.5146
G01 X119.2770 Y67.4854
G01 X119.2350 Y67.4603
G01 X119.1908 Y67.4393
G01 X119.1447 Y67.4228
G01 X119.0973 Y67.4110
G01 X119.0489 Y67.4038
G01 X119.0000 Y67.4014
G01 X118.9511 Y67.4038
G01 X118.9027 Y67.4110
G01 X118.8553 Y67.4228
G01 X118.8092 Y67.4393
G01 X118.7650 Y67.4603
G01 X118.7230 Y67.4854
G01 X118.6837 Y67.5146
G01 X118.6474 Y67.5474
G01 X118.6146 Y67.5837
G01 X118.5854 Y67.6230
G01 X118.5603 Y67.6650
G01 X118.5393 Y67.7092
G01 X118.5228 Y67.7553
G01 X118.5110 Y67.8027
G01 X118.5038 Y67.8511
G01 X118.5014 Y67.9000
G00 X118.5014 Y67.9000
G01 F100.00
G01 Z-2.4000
G01 F200.00
G01 X118.5038 Y67.9489
G01 X118.5110 Y67.9973
G01 X118.5228 Y68.0447
G01 X118.5393 Y68.0908
G01 X118.5603 Y68.1350
G01 X118.5854 Y68.1770
G01 X118.6146 Y68.2163
G01 X118.6474 Y68.2526
G01 X118.6837 Y68.2854
G01 X118.7230 Y68.3146
G01 X118.7650 Y68.3397
G01 X118.8092 Y68.3607
G01 X118.8553 Y68.3772
G01 X118.9027 Y68.3890
G01 X118.9511 Y68.3962
G01 X119.0000 Y68.3986
G01 X119.0489 Y68.3962
G01 X119.0973 Y68.3890
G01 X119.1447 Y68.3772
G01 X119.1908 Y68.3607
G01 X119.2350 Y68.3397
G01 X119.2770 Y68.3146
G01 X119.3163 Y68.2854
G01 X119.3526 Y68.2526
G01 X119.3854 Y68.2163
G01 X119.4146 Y68.1770
G01 X119.4397 Y68.1350
G01 X119.4607 Y68.0908
G01 X119.4772 Y68.0447
G01 X119.4890 Y67.9973
G01 X119.4962 Y67.9489
G01 X119.4986 Y67.9000
G01 X119.4962 Y67.8511
G01 X119.4890 Y67.8027
G01 X119.4772 Y67.7553
G01 X119.4607 Y67.7092
G01 X119.4397 Y67.6650
G01 X119.4146 Y67.6230
G01 X119.3854 Y67.5837
G01 X119.3526 Y67.5474
G01 X119.3163 Y67.5146
G01 X119.2770 Y67.4854
G01 X119.2350 Y67.4603
G01 X119.1908 Y67.4393
G01 X119.1447 Y67.4228
G01 X119.0973 Y67.4110
G01 X119.0489 Y67.4038
G01 X119.0000 Y67.4014
G01 X118.9511 Y67.4038
G01 X118.9027 Y67.4110
G01 X118.8553 Y67.4228
G01 X118.8092 Y67.4393
G01 X118.7650 Y67.4603
G01 X118.7230 Y67.4854
G01 X118.6837 Y67.5146
G01 X118.6474 Y67.5474
G01 X118.6146 Y67.5837
G01 X118.5854 Y67.6230
G01 X118.5603 Y67.6650
G01 X118.5393 Y67.7092
G01 X118.5228 Y67.7553
G01 X118.5110 Y67.8027
G01 X118.5038 Y67.8511
G01 X118.5014 Y67.9000
G00 X118.5014 Y67.9000
G01 F100.00
G01 Z-3.0000
G01 F200.00
G01 X118.5038 Y67.9489
G01 X118.5110 Y67.9973
G01 X118.5228 Y68.0447
G01 X118.5393 Y68.0908
G01 X118.5603 Y68.1350
G01 X118.5854 Y68.1770
G01 X118.6146 Y68.2163
G01 X118.6474 Y68.2526
G01 X118.6837 Y68.2854
G01 X118.7230 Y68.3146
G01 X118.7650 Y68.3397
G01 X118.8092 Y68.3607
G01 X118.8553 Y68.3772
G01 X118.9027 Y68.3890
G01 X118.9511 Y68.3962
G01 X119.0000 Y68.3986
G01 X119.0489 Y68.3962
G01 X119.0973 Y68.3890
G01 X119.1447 Y68.3772
G01 X119.1908 Y68.3607
G01 X119.2350 Y68.3397
G01 X119.2770 Y68.3146
G01 X119.3163 Y68.2854
G01 X119.3526 Y68.2526
G01 X119.3854 Y68.2163
G01 X119.4146 Y68.1770
G01 X119.4397 Y68.1350
G01 X119.4607 Y68.0908
G01 X119.4772 Y68.0447
G01 X119.4890 Y67.9973
G01 X119.4962 Y67.9489
G01 X119.4986 Y67.9000
G01 X119.4962 Y67.8511
G01 X119.4890 Y67.8027
G01 X119.4772 Y67.7553
G01 X119.4607 Y67.7092
G01 X119.4397 Y67.6650
G01 X119.4146 Y67.6230
G01 X119.3854 Y67.5837
G01 X119.3526 Y67.5474
G01 X119.3163 Y67.5146
G01 X119.2770 Y67.4854
G01 X119.2350 Y67.4603
G01 X119.1908 Y67.4393
G01 X119.1447 Y67.4228
G01 X119.0973 Y67.4110
G01 X119.0489 Y67.4038
G01 X119.0000 Y67.4014
G01 X118.9511 Y67.4038
G01 X118.9027 Y67.4110
G01 X118.8553 Y67.4228
G01 X118.8092 Y67.4393
G01 X118.7650 Y67.4603
G01 X118.7230 Y67.4854
G01 X118.6837 Y67.5146
G01 X118.6474 Y67.5474
G01 X118.6146 Y67.5837
G01 X118.5854 Y67.6230
G01 X118.5603 Y67.6650
G01 X118.5393 Y67.7092
G01 X118.5228 Y67.7553
G01 X118.5110 Y67.8027
G01 X118.5038 Y67.8511
G01 X118.5014 Y67.9000
G00 X118.5014 Y67.9000
G01 F100.00
G01 Z-3.6000
G01 F200.00
G01 X118.5038 Y67.9489
G01 X118.5110 Y67.9973
G01 X118.5228 Y68.0447
G01 X118.5393 Y68.0908
G01 X118.5603 Y68.1350
G01 X118.5854 Y68.1770
G01 X118.6146 Y68.2163
G01 X118.6474 Y68.2526
G01 X118.6837 Y68.2854
G01 X118.7230 Y68.3146
G01 X118.7650 Y68.3397
G01 X118.8092 Y68.3607
G01 X118.8553 Y68.3772
G01 X118.9027 Y68.3890
G01 X118.9511 Y68.3962
G01 X119.0000 Y68.3986
G01 X119.0489 Y68.3962
G01 X119.0973 Y68.3890
G01 X119.1447 Y68.3772
G01 X119.1908 Y68.3607
G01 X119.2350 Y68.3397
G01 X119.2770 Y68.3146
G01 X119.3163 Y68.2854
G01 X119.3526 Y68.2526
G01 X119.3854 Y68.2163
G01 X119.4146 Y68.1770
G01 X119.4397 Y68.1350
G01 X119.4607 Y68.0908
G01 X119.4772 Y68.0447
G01 X119.4890 Y67.9973
G01 X119.4962 Y67.9489
G01 X119.4986 Y67.9000
G01 X119.4962 Y67.8511
G01 X119.4890 Y67.8027
G01 X119.4772 Y67.7553
G01 X119.4607 Y67.7092
G01 X119.4397 Y67.6650
G01 X119.4146 Y67.6230
G01 X119.3854 Y67.5837
G01 X119.3526 Y67.5474
G01 X119.3163 Y67.5146
G01 X119.2770 Y67.4854
G01 X119.2350 Y67.4603
G01 X119.1908 Y67.4393
G01 X119.1447 Y67.4228
G01 X119.0973 Y67.4110
G01 X119.0489 Y67.4038
G01 X119.0000 Y67.4014
G01 X118.9511 Y67.4038
G01 X118.9027 Y67.4110
G01 X118.8553 Y67.4228
G01 X118.8092 Y67.4393
G01 X118.7650 Y67.4603
G01 X118.7230 Y67.4854
G01 X118.6837 Y67.5146
G01 X118.6474 Y67.5474
G01 X118.6146 Y67.5837
G01 X118.5854 Y67.6230
G01 X118.5603 Y67.6650
G01 X118.5393 Y67.7092
G01 X118.5228 Y67.7553
G01 X118.5110 Y67.8027
G01 X118.5038 Y67.8511
G01 X118.5014 Y67.9000
G00 X118.5014 Y67.9000
G01 F100.00
G01 Z-4.2000
G01 F200.00
G01 X118.5038 Y67.9489
G01 X118.5110 Y67.9973
G01 X118.5228 Y68.0447
G01 X118.5393 Y68.0908
G01 X118.5603 Y68.1350
G01 X118.5854 Y68.1770
G01 X118.6146 Y68.2163
G01 X118.6474 Y68.2526
G01 X118.6837 Y68.2854
G01 X118.7230 Y68.3146
G01 X118.7650 Y68.3397
G01 X118.8092 Y68.3607
G01 X118.8553 Y68.3772
G01 X118.9027 Y68.3890
G01 X118.9511 Y68.3962
G01 X119.0000 Y68.3986
G01 X119.0489 Y68.3962
G01 X119.0973 Y68.3890
G01 X119.1447 Y68.3772
G01 X119.1908 Y68.3607
G01 X119.2350 Y68.3397
G01 X119.2770 Y68.3146
G01 X119.3163 Y68.2854
G01 X119.3526 Y68.2526
G01 X119.3854 Y68.2163
G01 X119.4146 Y68.1770
G01 X119.4397 Y68.1350
G01 X119.4607 Y68.0908
G01 X119.4772 Y68.0447
G01 X119.4890 Y67.9973
G01 X119.4962 Y67.9489
G01 X119.4986 Y67.9000
G01 X119.4962 Y67.8511
G01 X119.4890 Y67.8027
G01 X119.4772 Y67.7553
G01 X119.4607 Y67.7092
G01 X119.4397 Y67.6650
G01 X119.4146 Y67.6230
G01 X119.3854 Y67.5837
G01 X119.3526 Y67.5474
G01 X119.3163 Y67.5146
G01 X119.2770 Y67.4854
G01 X119.2350 Y67.4603
G01 X119.1908 Y67.4393
G01 X119.1447 Y67.4228
G01 X119.0973 Y67.4110
G01 X119.0489 Y67.4038
G01 X119.0000 Y67.4014
G01 X118.9511 Y67.4038
G01 X118.9027 Y67.4110
G01 X118.8553 Y67.4228
G01 X118.8092 Y67.4393
G01 X118.7650 Y67.4603
G01 X118.7230 Y67.4854
G01 X118.6837 Y67.5146
G01 X118.6474 Y67.5474
G01 X118.6146 Y67.5837
G01 X118.5854 Y67.6230
G01 X118.5603 Y67.6650
G01 X118.5393 Y67.7092
G01 X118.5228 Y67.7553
G01 X118.5110 Y67.8027
G01 X118.5038 Y67.8511
G01 X118.5014 Y67.9000
G00 X118.5014 Y67.9000
G01 F100.00
G01 Z-4.8000
G01 F200.00
G01 X118.5038 Y67.9489
G01 X118.5110 Y67.9973
G01 X118.5228 Y68.0447
G01 X118.5393 Y68.0908
G01 X118.5603 Y68.1350
G01 X118.5854 Y68.1770
G01 X118.6146 Y68.2163
G01 X118.6474 Y68.2526
G01 X118.6837 Y68.2854
G01 X118.7230 Y68.3146
G01 X118.7650 Y68.3397
G01 X118.8092 Y68.3607
G01 X118.8553 Y68.3772
G01 X118.9027 Y68.3890
G01 X118.9511 Y68.3962
G01 X119.0000 Y68.3986
G01 X119.0489 Y68.3962
G01 X119.0973 Y68.3890
G01 X119.1447 Y68.3772
G01 X119.1908 Y68.3607
G01 X119.2350 Y68.3397
G01 X119.2770 Y68.3146
G01 X119.3163 Y68.2854
G01 X119.3526 Y68.2526
G01 X119.3854 Y68.2163
G01 X119.4146 Y68.1770
G01 X119.4397 Y68.1350
G01 X119.4607 Y68.0908
G01 X119.4772 Y68.0447
G01 X119.4890 Y67.9973
G01 X119.4962 Y67.9489
G01 X119.4986 Y67.9000
G01 X119.4962 Y67.8511
G01 X119.4890 Y67.8027
G01 X119.4772 Y67.7553
G01 X119.4607 Y67.7092
G01 X119.4397 Y67.6650
G01 X119.4146 Y67.6230
G01 X119.3854 Y67.5837
G01 X119.3526 Y67.5474
G01 X119.3163 Y67.5146
G01 X119.2770 Y67.4854
G01 X119.2350 Y67.4603
G01 X119.1908 Y67.4393
G01 X119.1447 Y67.4228
G01 X119.0973 Y67.4110
G01 X119.0489 Y67.4038
G01 X119.0000 Y67.4014
G01 X118.9511 Y67.4038
G01 X118.9027 Y67.4110
G01 X118.8553 Y67.4228
G01 X118.8092 Y67.4393
G01 X118.7650 Y67.4603
G01 X118.7230 Y67.4854
G01 X118.6837 Y67.5146
G01 X118.6474 Y67.5474
G01 X118.6146 Y67.5837
G01 X118.5854 Y67.6230
G01 X118.5603 Y67.6650
G01 X118.5393 Y67.7092
G01 X118.5228 Y67.7553
G01 X118.5110 Y67.8027
G01 X118.5038 Y67.8511
G01 X118.5014 Y67.9000
G00 X118.5014 Y67.9000
G01 F100.00
G01 Z-5.4000
G01 F200.00
G01 X118.5038 Y67.9489
G01 X118.5110 Y67.9973
G01 X118.5228 Y68.0447
G01 X118.5393 Y68.0908
G01 X118.5603 Y68.1350
G01 X118.5854 Y68.1770
G01 X118.6146 Y68.2163
G01 X118.6474 Y68.2526
G01 X118.6837 Y68.2854
G01 X118.7230 Y68.3146
G01 X118.7650 Y68.3397
G01 X118.8092 Y68.3607
G01 X118.8553 Y68.3772
G01 X118.9027 Y68.3890
G01 X118.9511 Y68.3962
G01 X119.0000 Y68.3986
G01 X119.0489 Y68.3962
G01 X119.0973 Y68.3890
G01 X119.1447 Y68.3772
G01 X119.1908 Y68.3607
G01 X119.2350 Y68.3397
G01 X119.2770 Y68.3146
G01 X119.3163 Y68.2854
G01 X119.3526 Y68.2526
G01 X119.3854 Y68.2163
G01 X119.4146 Y68.1770
G01 X119.4397 Y68.1350
G01 X119.4607 Y68.0908
G01 X119.4772 Y68.0447
G01 X119.4890 Y67.9973
G01 X119.4962 Y67.9489
G01 X119.4986 Y67.9000
G01 X119.4962 Y67.8511
G01 X119.4890 Y67.8027
G01 X119.4772 Y67.7553
G01 X119.4607 Y67.7092
G01 X119.4397 Y67.6650
G01 X119.4146 Y67.6230
G01 X119.3854 Y67.5837
G01 X119.3526 Y67.5474
G01 X119.3163 Y67.5146
G01 X119.2770 Y67.4854
G01 X119.2350 Y67.4603
G01 X119.1908 Y67.4393
G01 X119.1447 Y67.4228
G01 X119.0973 Y67.4110
G01 X119.0489 Y67.4038
G01 X119.0000 Y67.4014
G01 X118.9511 Y67.4038
G01 X118.9027 Y67.4110
G01 X118.8553 Y67.4228
G01 X118.8092 Y67.4393
G01 X118.7650 Y67.4603
G01 X118.7230 Y67.4854
G01 X118.6837 Y67.5146
G01 X118.6474 Y67.5474
G01 X118.6146 Y67.5837
G01 X118.5854 Y67.6230
G01 X118.5603 Y67.6650
G01 X118.5393 Y67.7092
G01 X118.5228 Y67.7553
G01 X118.5110 Y67.8027
G01 X118.5038 Y67.8511
G01 X118.5014 Y67.9000
G00 X118.5014 Y67.9000
G01 F100.00
G01 Z-6.0000
G01 F200.00
G01 X118.5038 Y67.9489
G01 X118.5110 Y67.9973
G01 X118.5228 Y68.0447
G01 X118.5393 Y68.0908
G01 X118.5603 Y68.1350
G01 X118.5854 Y68.1770
G01 X118.6146 Y68.2163
G01 X118.6474 Y68.2526
G01 X118.6837 Y68.2854
G01 X118.7230 Y68.3146
G01 X118.7650 Y68.3397
G01 X118.8092 Y68.3607
G01 X118.8553 Y68.3772
G01 X118.9027 Y68.3890
G01 X118.9511 Y68.3962
G01 X119.0000 Y68.3986
G01 X119.0489 Y68.3962
G01 X119.0973 Y68.3890
G01 X119.1447 Y68.3772
G01 X119.1908 Y68.3607
G01 X119.2350 Y68.3397
G01 X119.2770 Y68.3146
G01 X119.3163 Y68.2854
G01 X119.3526 Y68.2526
G01 X119.3854 Y68.2163
G01 X119.4146 Y68.1770
G01 X119.4397 Y68.1350
G01 X119.4607 Y68.0908
G01 X119.4772 Y68.0447
G01 X119.4890 Y67.9973
G01 X119.4962 Y67.9489
G01 X119.4986 Y67.9000
G01 X119.4962 Y67.8511
G01 X119.4890 Y67.8027
G01 X119.4772 Y67.7553
G01 X119.4607 Y67.7092
G01 X119.4397 Y67.6650
G01 X119.4146 Y67.6230
G01 X119.3854 Y67.5837
G01 X119.3526 Y67.5474
G01 X119.3163 Y67.5146
G01 X119.2770 Y67.4854
G01 X119.2350 Y67.4603
G01 X119.1908 Y67.4393
G01 X119.1447 Y67.4228
G01 X119.0973 Y67.4110
G01 X119.0489 Y67.4038
G01 X119.0000 Y67.4014
G01 X118.9511 Y67.4038
G01 X118.9027 Y67.4110
G01 X118.8553 Y67.4228
G01 X118.8092 Y67.4393
G01 X118.7650 Y67.4603
G01 X118.7230 Y67.4854
G01 X118.6837 Y67.5146
G01 X118.6474 Y67.5474
G01 X118.6146 Y67.5837
G01 X118.5854 Y67.6230
G01 X118.5603 Y67.6650
G01 X118.5393 Y67.7092
G01 X118.5228 Y67.7553
G01 X118.5110 Y67.8027
G01 X118.5038 Y67.8511
G01 X118.5014 Y67.9000
G00 X118.5014 Y67.9000
G01 F100.00
G01 Z-6.6000
G01 F200.00
G01 X118.5038 Y67.9489
G01 X118.5110 Y67.9973
G01 X118.5228 Y68.0447
G01 X118.5393 Y68.0908
G01 X118.5603 Y68.1350
G01 X118.5854 Y68.1770
G01 X118.6146 Y68.2163
G01 X118.6474 Y68.2526
G01 X118.6837 Y68.2854
G01 X118.7230 Y68.3146
G01 X118.7650 Y68.3397
G01 X118.8092 Y68.3607
G01 X118.8553 Y68.3772
G01 X118.9027 Y68.3890
G01 X118.9511 Y68.3962
G01 X119.0000 Y68.3986
G01 X119.0489 Y68.3962
G01 X119.0973 Y68.3890
G01 X119.1447 Y68.3772
G01 X119.1908 Y68.3607
G01 X119.2350 Y68.3397
G01 X119.2770 Y68.3146
G01 X119.3163 Y68.2854
G01 X119.3526 Y68.2526
G01 X119.3854 Y68.2163
G01 X119.4146 Y68.1770
G01 X119.4397 Y68.1350
G01 X119.4607 Y68.0908
G01 X119.4772 Y68.0447
G01 X119.4890 Y67.9973
G01 X119.4962 Y67.9489
G01 X119.4986 Y67.9000
G01 X119.4962 Y67.8511
G01 X119.4890 Y67.8027
G01 X119.4772 Y67.7553
G01 X119.4607 Y67.7092
G01 X119.4397 Y67.6650
G01 X119.4146 Y67.6230
G01 X119.3854 Y67.5837
G01 X119.3526 Y67.5474
G01 X119.3163 Y67.5146
G01 X119.2770 Y67.4854
G01 X119.2350 Y67.4603
G01 X119.1908 Y67.4393
G01 X119.1447 Y67.4228
G01 X119.0973 Y67.4110
G01 X119.0489 Y67.4038
G01 X119.0000 Y67.4014
G01 X118.9511 Y67.4038
G01 X118.9027 Y67.4110
G01 X118.8553 Y67.4228
G01 X118.8092 Y67.4393
G01 X118.7650 Y67.4603
G01 X118.7230 Y67.4854
G01 X118.6837 Y67.5146
G01 X118.6474 Y67.5474
G01 X118.6146 Y67.5837
G01 X118.5854 Y67.6230
G01 X118.5603 Y67.6650
G01 X118.5393 Y67.7092
G01 X118.5228 Y67.7553
G01 X118.5110 Y67.8027
G01 X118.5038 Y67.8511
G01 X118.5014 Y67.9000
G00 X118.5014 Y67.9000
G01 F100.00
G01 Z-7.2000
G01 F200.00
G01 X118.5038 Y67.9489
G01 X118.5110 Y67.9973
G01 X118.5228 Y68.0447
G01 X118.5393 Y68.0908
G01 X118.5603 Y68.1350
G01 X118.5854 Y68.1770
G01 X118.6146 Y68.2163
G01 X118.6474 Y68.2526
G01 X118.6837 Y68.2854
G01 X118.7230 Y68.3146
G01 X118.7650 Y68.3397
G01 X118.8092 Y68.3607
G01 X118.8553 Y68.3772
G01 X118.9027 Y68.3890
G01 X118.9511 Y68.3962
G01 X119.0000 Y68.3986
G01 X119.0489 Y68.3962
G01 X119.0973 Y68.3890
G01 X119.1447 Y68.3772
G01 X119.1908 Y68.3607
G01 X119.2350 Y68.3397
G01 X119.2770 Y68.3146
G01 X119.3163 Y68.2854
G01 X119.3526 Y68.2526
G01 X119.3854 Y68.2163
G01 X119.4146 Y68.1770
G01 X119.4397 Y68.1350
G01 X119.4607 Y68.0908
G01 X119.4772 Y68.0447
G01 X119.4890 Y67.9973
G01 X119.4962 Y67.9489
G01 X119.4986 Y67.9000
G01 X119.4962 Y67.8511
G01 X119.4890 Y67.8027
G01 X119.4772 Y67.7553
G01 X119.4607 Y67.7092
G01 X119.4397 Y67.6650
G01 X119.4146 Y67.6230
G01 X119.3854 Y67.5837
G01 X119.3526 Y67.5474
G01 X119.3163 Y67.5146
G01 X119.2770 Y67.4854
G01 X119.2350 Y67.4603
G01 X119.1908 Y67.4393
G01 X119.1447 Y67.4228
G01 X119.0973 Y67.4110
G01 X119.0489 Y67.4038
G01 X119.0000 Y67.4014
G01 X118.9511 Y67.4038
G01 X118.9027 Y67.4110
G01 X118.8553 Y67.4228
G01 X118.8092 Y67.4393
G01 X118.7650 Y67.4603
G01 X118.7230 Y67.4854
G01 X118.6837 Y67.5146
G01 X118.6474 Y67.5474
G01 X118.6146 Y67.5837
G01 X118.5854 Y67.6230
G01 X118.5603 Y67.6650
G01 X118.5393 Y67.7092
G01 X118.5228 Y67.7553
G01 X118.5110 Y67.8027
G01 X118.5038 Y67.8511
G01 X118.5014 Y67.9000
G00 X118.5014 Y67.9000
G01 F100.00
G01 Z-7.8000
G01 F200.00
G01 X118.5038 Y67.9489
G01 X118.5110 Y67.9973
G01 X118.5228 Y68.0447
G01 X118.5393 Y68.0908
G01 X118.5603 Y68.1350
G01 X118.5854 Y68.1770
G01 X118.6146 Y68.2163
G01 X118.6474 Y68.2526
G01 X118.6837 Y68.2854
G01 X118.7230 Y68.3146
G01 X118.7650 Y68.3397
G01 X118.8092 Y68.3607
G01 X118.8553 Y68.3772
G01 X118.9027 Y68.3890
G01 X118.9511 Y68.3962
G01 X119.0000 Y68.3986
G01 X119.0489 Y68.3962
G01 X119.0973 Y68.3890
G01 X119.1447 Y68.3772
G01 X119.1908 Y68.3607
G01 X119.2350 Y68.3397
G01 X119.2770 Y68.3146
G01 X119.3163 Y68.2854
G01 X119.3526 Y68.2526
G01 X119.3854 Y68.2163
G01 X119.4146 Y68.1770
G01 X119.4397 Y68.1350
G01 X119.4607 Y68.0908
G01 X119.4772 Y68.0447
G01 X119.4890 Y67.9973
G01 X119.4962 Y67.9489
G01 X119.4986 Y67.9000
G01 X119.4962 Y67.8511
G01 X119.4890 Y67.8027
G01 X119.4772 Y67.7553
G01 X119.4607 Y67.7092
G01 X119.4397 Y67.6650
G01 X119.4146 Y67.6230
G01 X119.3854 Y67.5837
G01 X119.3526 Y67.5474
G01 X119.3163 Y67.5146
G01 X119.2770 Y67.4854
G01 X119.2350 Y67.4603
G01 X119.1908 Y67.4393
G01 X119.1447 Y67.4228
G01 X119.0973 Y67.4110
G01 X119.0489 Y67.4038
G01 X119.0000 Y67.4014
G01 X118.9511 Y67.4038
G01 X118.9027 Y67.4110
G01 X118.8553 Y67.4228
G01 X118.8092 Y67.4393
G01 X118.7650 Y67.4603
G01 X118.7230 Y67.4854
G01 X118.6837 Y67.5146
G01 X118.6474 Y67.5474
G01 X118.6146 Y67.5837
G01 X118.5854 Y67.6230
G01 X118.5603 Y67.6650
G01 X118.5393 Y67.7092
G01 X118.5228 Y67.7553
G01 X118.5110 Y67.8027
G01 X118.5038 Y67.8511
G01 X118.5014 Y67.9000
G00 X118.5014 Y67.9000
G01 F100.00
G01 Z-8.4000
G01 F200.00
G01 X118.5038 Y67.9489
G01 X118.5110 Y67.9973
G01 X118.5228 Y68.0447
G01 X118.5393 Y68.0908
G01 X118.5603 Y68.1350
G01 X118.5854 Y68.1770
G01 X118.6146 Y68.2163
G01 X118.6474 Y68.2526
G01 X118.6837 Y68.2854
G01 X118.7230 Y68.3146
G01 X118.7650 Y68.3397
G01 X118.8092 Y68.3607
G01 X118.8553 Y68.3772
G01 X118.9027 Y68.3890
G01 X118.9511 Y68.3962
G01 X119.0000 Y68.3986
G01 X119.0489 Y68.3962
G01 X119.0973 Y68.3890
G01 X119.1447 Y68.3772
G01 X119.1908 Y68.3607
G01 X119.2350 Y68.3397
G01 X119.2770 Y68.3146
G01 X119.3163 Y68.2854
G01 X119.3526 Y68.2526
G01 X119.3854 Y68.2163
G01 X119.4146 Y68.1770
G01 X119.4397 Y68.1350
G01 X119.4607 Y68.0908
G01 X119.4772 Y68.0447
G01 X119.4890 Y67.9973
G01 X119.4962 Y67.9489
G01 X119.4986 Y67.9000
G01 X119.4962 Y67.8511
G01 X119.4890 Y67.8027
G01 X119.4772 Y67.7553
G01 X119.4607 Y67.7092
G01 X119.4397 Y67.6650
G01 X119.4146 Y67.6230
G01 X119.3854 Y67.5837
G01 X119.3526 Y67.5474
G01 X119.3163 Y67.5146
G01 X119.2770 Y67.4854
G01 X119.2350 Y67.4603
G01 X119.1908 Y67.4393
G01 X119.1447 Y67.4228
G01 X119.0973 Y67.4110
G01 X119.0489 Y67.4038
G01 X119.0000 Y67.4014
G01 X118.9511 Y67.4038
G01 X118.9027 Y67.4110
G01 X118.8553 Y67.4228
G01 X118.8092 Y67.4393
G01 X118.7650 Y67.4603
G01 X118.7230 Y67.4854
G01 X118.6837 Y67.5146
G01 X118.6474 Y67.5474
G01 X118.6146 Y67.5837
G01 X118.5854 Y67.6230
G01 X118.5603 Y67.6650
G01 X118.5393 Y67.7092
G01 X118.5228 Y67.7553
G01 X118.5110 Y67.8027
G01 X118.5038 Y67.8511
G01 X118.5014 Y67.9000
G00 X118.5014 Y67.9000
G01 F100.00
G01 Z-9.0000
G01 F200.00
G01 X118.5038 Y67.9489
G01 X118.5110 Y67.9973
G01 X118.5228 Y68.0447
G01 X118.5393 Y68.0908
G01 X118.5603 Y68.1350
G01 X118.5854 Y68.1770
G01 X118.6146 Y68.2163
G01 X118.6474 Y68.2526
G01 X118.6837 Y68.2854
G01 X118.7230 Y68.3146
G01 X118.7650 Y68.3397
G01 X118.8092 Y68.3607
G01 X118.8553 Y68.3772
G01 X118.9027 Y68.3890
G01 X118.9511 Y68.3962
G01 X119.0000 Y68.3986
G01 X119.0489 Y68.3962
G01 X119.0973 Y68.3890
G01 X119.1447 Y68.3772
G01 X119.1908 Y68.3607
G01 X119.2350 Y68.3397
G01 X119.2770 Y68.3146
G01 X119.3163 Y68.2854
G01 X119.3526 Y68.2526
G01 X119.3854 Y68.2163
G01 X119.4146 Y68.1770
G01 X119.4397 Y68.1350
G01 X119.4607 Y68.0908
G01 X119.4772 Y68.0447
G01 X119.4890 Y67.9973
G01 X119.4962 Y67.9489
G01 X119.4986 Y67.9000
G01 X119.4962 Y67.8511
G01 X119.4890 Y67.8027
G01 X119.4772 Y67.7553
G01 X119.4607 Y67.7092
G01 X119.4397 Y67.6650
G01 X119.4146 Y67.6230
G01 X119.3854 Y67.5837
G01 X119.3526 Y67.5474
G01 X119.3163 Y67.5146
G01 X119.2770 Y67.4854
G01 X119.2350 Y67.4603
G01 X119.1908 Y67.4393
G01 X119.1447 Y67.4228
G01 X119.0973 Y67.4110
G01 X119.0489 Y67.4038
G01 X119.0000 Y67.4014
G01 X118.9511 Y67.4038
G01 X118.9027 Y67.4110
G01 X118.8553 Y67.4228
G01 X118.8092 Y67.4393
G01 X118.7650 Y67.4603
G01 X118.7230 Y67.4854
G01 X118.6837 Y67.5146
G01 X118.6474 Y67.5474
G01 X118.6146 Y67.5837
G01 X118.5854 Y67.6230
G01 X118.5603 Y67.6650
G01 X118.5393 Y67.7092
G01 X118.5228 Y67.7553
G01 X118.5110 Y67.8027
G01 X118.5038 Y67.8511
G01 X118.5014 Y67.9000
G00 X118.5014 Y67.9000
G01 F100.00
G01 Z-9.6000
G01 F200.00
G01 X118.5038 Y67.9489
G01 X118.5110 Y67.9973
G01 X118.5228 Y68.0447
G01 X118.5393 Y68.0908
G01 X118.5603 Y68.1350
G01 X118.5854 Y68.1770
G01 X118.6146 Y68.2163
G01 X118.6474 Y68.2526
