(G-CODE GENERATED BY FLATCAM v8.991 - www.flatcam.org - Version Date: 2019/12/27)

(Name: PlastronRainuresB_ncc_cnc)
(Type: G-code from Geometry)
(Units: MM)

(Created on Sunday, 29 September 2024 at 15:42)

(TOOL DIAMETER: 2.0 mm)
(Feedrate: 200.0 mm/min)
(Feedrate_Z: 100.0 mm/min)
(Feedrate rapids 1500.0 mm/min)

(Z_Cut: -1.4 mm)
(DepthPerCut: 0.7 mm <=>2 passes)
(Z_Move: 2.0 mm)
(Z Toolchange: 15.0 mm)
(X,Y Toolchange: 0.00, 0.00 mm)
(Z Start: None mm)
(Z End: 5.0 mm)
(Steps per circle: 64)
(Preprocessor Geometry: default)

(X range:  116.2001 ...  155.7999  mm)
(Y range:   31.8651 ...   34.3999  mm)

(Spindle Speed: 8000 RPM)
G21
G90
G94




G01 F200.00
G00 Z2.0000

M03 S8000
G00 X116.2001 Y31.8651
G01 F100.00
G01 Z-0.7000
G01 F200.00
G01 X116.2001 Y34.3999
G01 X155.7999 Y34.3999
G01 X155.7999 Y31.8651
G01 X116.2001 Y31.8651
G01 X117.4001 Y33.0651
G01 X117.4001 Y33.1999
G01 X154.5999 Y33.1999
G01 X154.5999 Y33.0651
G01 X117.4001 Y33.0651
G00 X117.4001 Y33.0651
G01 F100.00
G01 Z-1.4000
G01 F200.00
G01 X154.5999 Y33.0651
G01 X154.5999 Y33.1999
G01 X117.4001 Y33.1999
G01 X117.4001 Y33.0651
G01 X116.2001 Y31.8651
G01 X155.7999 Y31.8651
G01 X155.7999 Y34.3999
G01 X116.2001 Y34.3999
G01 X116.2001 Y31.8651
G00 Z2.0000
M05
G00 Z2.0000
G00 Z5.00
G00 X0.0 Y0.0

