(G-CODE GENERATED BY FLATCAM v8.991 - www.flatcam.org - Version Date: 2019/12/27)

(Name: PlastronTrousGrands_int_iso_cnc_1)
(Type: G-code from Geometry)
(Units: MM)

(Created on Sunday, 29 September 2024 at 15:13)

(TOOL DIAMETER: 2.0 mm)
(Feedrate: 200.0 mm/min)
(Feedrate_Z: 100.0 mm/min)
(Feedrate rapids 1500.0 mm/min)

(Z_Cut: -5.3 mm)
(Z_Move: 2.0 mm)
(Z Toolchange: 15.0 mm)
(X,Y Toolchange: 0.00, 0.00 mm)
(Z Start: None mm)
(Z End: 5.0 mm)
(Steps per circle: 64)
(Preprocessor Geometry: default)

(X range:  118.5014 ...  153.4986  mm)
(Y range:   26.6014 ...   68.3986  mm)

(Spindle Speed: 8000 RPM)
G21
G90
G94




G01 F200.00
G00 Z2.0000

M03 S8000
G00 X118.5014 Y27.1000
G01 F100.00
G01 Z-5.3000
G01 F200.00
G01 X118.5038 Y27.1489
G01 X118.5110 Y27.1973
G01 X118.5228 Y27.2447
G01 X118.5393 Y27.2908
G01 X118.5603 Y27.3350
G01 X118.5854 Y27.3770
G01 X118.6146 Y27.4163
G01 X118.6474 Y27.4526
G01 X118.6837 Y27.4854
G01 X118.7230 Y27.5146
G01 X118.7650 Y27.5397
G01 X118.8092 Y27.5607
G01 X118.8553 Y27.5772
G01 X118.9027 Y27.5890
G01 X118.9511 Y27.5962
G01 X119.0000 Y27.5986
G01 X119.0489 Y27.5962
G01 X119.0973 Y27.5890
G01 X119.1447 Y27.5772
G01 X119.1908 Y27.5607
G01 X119.2350 Y27.5397
G01 X119.2770 Y27.5146
G01 X119.3163 Y27.4854
G01 X119.3526 Y27.4526
G01 X119.3854 Y27.4163
G01 X119.4146 Y27.3770
G01 X119.4397 Y27.3350
G01 X119.4607 Y27.2908
G01 X119.4772 Y27.2447
G01 X119.4890 Y27.1973
G01 X119.4962 Y27.1489
G01 X119.4986 Y27.1000
G01 X119.4962 Y27.0511
G01 X119.4890 Y27.0027
G01 X119.4772 Y26.9553
G01 X119.4607 Y26.9092
G01 X119.4397 Y26.8650
G01 X119.4146 Y26.8230
G01 X119.3854 Y26.7837
G01 X119.3526 Y26.7474
G01 X119.3163 Y26.7146
G01 X119.2770 Y26.6854
G01 X119.2350 Y26.6603
G01 X119.1908 Y26.6393
G01 X119.1447 Y26.6228
G01 X119.0973 Y26.6110
G01 X119.0489 Y26.6038
G01 X119.0000 Y26.6014
G01 X118.9511 Y26.6038
G01 X118.9027 Y26.6110
G01 X118.8553 Y26.6228
G01 X118.8092 Y26.6393
G01 X118.7650 Y26.6603
G01 X118.7230 Y26.6854
G01 X118.6837 Y26.7146
G01 X118.6474 Y26.7474
G01 X118.6146 Y26.7837
G01 X118.5854 Y26.8230
G01 X118.5603 Y26.8650
G01 X118.5393 Y26.9092
G01 X118.5228 Y26.9553
G01 X118.5110 Y27.0027
G01 X118.5038 Y27.0511
G01 X118.5014 Y27.1000
G00 Z2.0000
G00 X152.5014 Y27.1000
G01 F100.00
G01 Z-5.3000
G01 F200.00
G01 X152.5038 Y27.1489
G01 X152.5110 Y27.1973
G01 X152.5228 Y27.2447
G01 X152.5393 Y27.2908
G01 X152.5603 Y27.3350
G01 X152.5854 Y27.3770
G01 X152.6146 Y27.4163
G01 X152.6474 Y27.4526
G01 X152.6837 Y27.4854
G01 X152.7230 Y27.5146
G01 X152.7650 Y27.5397
G01 X152.8092 Y27.5607
G01 X152.8553 Y27.5772
G01 X152.9027 Y27.5890
G01 X152.9511 Y27.5962
G01 X153.0000 Y27.5986
G01 X153.0489 Y27.5962
G01 X153.0973 Y27.5890
G01 X153.1447 Y27.5772
G01 X153.1908 Y27.5607
G01 X153.2350 Y27.5397
G01 X153.2770 Y27.5146
G01 X153.3163 Y27.4854
G01 X153.3526 Y27.4526
G01 X153.3854 Y27.4163
G01 X153.4146 Y27.3770
G01 X153.4397 Y27.3350
G01 X153.4607 Y27.2908
G01 X153.4772 Y27.2447
G01 X153.4890 Y27.1973
G01 X153.4962 Y27.1489
G01 X153.4986 Y27.1000
G01 X153.4962 Y27.0511
G01 X153.4890 Y27.0027
G01 X153.4772 Y26.9553
G01 X153.4607 Y26.9092
G01 X153.4397 Y26.8650
G01 X153.4146 Y26.8230
G01 X153.3854 Y26.7837
G01 X153.3526 Y26.7474
G01 X153.3163 Y26.7146
G01 X153.2770 Y26.6854
G01 X153.2350 Y26.6603
G01 X153.1908 Y26.6393
G01 X153.1447 Y26.6228
G01 X153.0973 Y26.6110
G01 X153.0489 Y26.6038
G01 X153.0000 Y26.6014
G01 X152.9511 Y26.6038
G01 X152.9027 Y26.6110
G01 X152.8553 Y26.6228
G01 X152.8092 Y26.6393
G01 X152.7650 Y26.6603
G01 X152.7230 Y26.6854
G01 X152.6837 Y26.7146
G01 X152.6474 Y26.7474
G01 X152.6146 Y26.7837
G01 X152.5854 Y26.8230
G01 X152.5603 Y26.8650
G01 X152.5393 Y26.9092
G01 X152.5228 Y26.9553
G01 X152.5110 Y27.0027
G01 X152.5038 Y27.0511
G01 X152.5014 Y27.1000
G00 Z2.0000
G00 X152.5014 Y67.9000
G01 F100.00
G01 Z-5.3000
G01 F200.00
G01 X152.5038 Y67.9489
G01 X152.5110 Y67.9973
G01 X152.5228 Y68.0447
G01 X152.5393 Y68.0908
G01 X152.5603 Y68.1350
G01 X152.5854 Y68.1770
G01 X152.6146 Y68.2163
G01 X152.6474 Y68.2526
G01 X152.6837 Y68.2854
G01 X152.7230 Y68.3146
G01 X152.7650 Y68.3397
G01 X152.8092 Y68.3607
G01 X152.8553 Y68.3772
G01 X152.9027 Y68.3890
G01 X152.9511 Y68.3962
G01 X153.0000 Y68.3986
G01 X153.0489 Y68.3962
G01 X153.0973 Y68.3890
G01 X153.1447 Y68.3772
G01 X153.1908 Y68.3607
G01 X153.2350 Y68.3397
G01 X153.2770 Y68.3146
G01 X153.3163 Y68.2854
G01 X153.3526 Y68.2526
G01 X153.3854 Y68.2163
G01 X153.4146 Y68.1770
G01 X153.4397 Y68.1350
G01 X153.4607 Y68.0908
G01 X153.4772 Y68.0447
G01 X153.4890 Y67.9973
G01 X153.4962 Y67.9489
G01 X153.4986 Y67.9000
G01 X153.4962 Y67.8511
G01 X153.4890 Y67.8027
G01 X153.4772 Y67.7553
G01 X153.4607 Y67.7092
G01 X153.4397 Y67.6650
G01 X153.4146 Y67.6230
G01 X153.3854 Y67.5837
G01 X153.3526 Y67.5474
G01 X153.3163 Y67.5146
G01 X153.2770 Y67.4854
G01 X153.2350 Y67.4603
G01 X153.1908 Y67.4393
G01 X153.1447 Y67.4228
G01 X153.0973 Y67.4110
G01 X153.0489 Y67.4038
G01 X153.0000 Y67.4014
G01 X152.9511 Y67.4038
G01 X152.9027 Y67.4110
G01 X152.8553 Y67.4228
G01 X152.8092 Y67.4393
G01 X152.7650 Y67.4603
G01 X152.7230 Y67.4854
G01 X152.6837 Y67.5146
G01 X152.6474 Y67.5474
G01 X152.6146 Y67.5837
G01 X152.5854 Y67.6230
G01 X152.5603 Y67.6650
G01 X152.5393 Y67.7092
G01 X152.5228 Y67.7553
G01 X152.5110 Y67.8027
G01 X152.5038 Y67.8511
G01 X152.5014 Y67.9000
G00 Z2.0000
G00 X118.5014 Y67.9000
G01 F100.00
G01 Z-5.3000
G01 F200.00
G01 X118.5038 Y67.9489
G01 X118.5110 Y67.9973
G01 X118.5228 Y68.0447
G01 X118.5393 Y68.0908
G01 X118.5603 Y68.1350
G01 X118.5854 Y68.1770
G01 X118.6146 Y68.2163
G01 X118.6474 Y68.2526
G01 X118.6837 Y68.2854
G01 X118.7230 Y68.3146
G01 X118.7650 Y68.3397
G01 X118.8092 Y68.3607
G01 X118.8553 Y68.3772
G01 X118.9027 Y68.3890
G01 X118.9511 Y68.3962
G01 X119.0000 Y68.3986
G01 X119.0489 Y68.3962
G01 X119.0973 Y68.3890
G01 X119.1447 Y68.3772
G01 X119.1908 Y68.3607
G01 X119.2350 Y68.3397
G01 X119.2770 Y68.3146
G01 X119.3163 Y68.2854
G01 X119.3526 Y68.2526
G01 X119.3854 Y68.2163
G01 X119.4146 Y68.1770
G01 X119.4397 Y68.1350
G01 X119.4607 Y68.0908
G01 X119.4772 Y68.0447
G01 X119.4890 Y67.9973
G01 X119.4962 Y67.9489
G01 X119.4986 Y67.9000
G01 X119.4962 Y67.8511
G01 X119.4890 Y67.8027
G01 X119.4772 Y67.7553
G01 X119.4607 Y67.7092
G01 X119.4397 Y67.6650
G01 X119.4146 Y67.6230
G01 X119.3854 Y67.5837
G01 X119.3526 Y67.5474
G01 X119.3163 Y67.5146
G01 X119.2770 Y67.4854
G01 X119.2350 Y67.4603
G01 X119.1908 Y67.4393
G01 X119.1447 Y67.4228
G01 X119.0973 Y67.4110
G01 X119.0489 Y67.4038
G01 X119.0000 Y67.4014
G01 X118.9511 Y67.4038
G01 X118.9027 Y67.4110
G01 X118.8553 Y67.4228
G01 X118.8092 Y67.4393
G01 X118.7650 Y67.4603
G01 X118.7230 Y67.4854
G01 X118.6837 Y67.5146
G01 X118.6474 Y67.5474
G01 X118.6146 Y67.5837
G01 X118.5854 Y67.6230
G01 X118.5603 Y67.6650
G01 X118.5393 Y67.7092
G01 X118.5228 Y67.7553
G01 X118.5110 Y67.8027
G01 X118.5038 Y67.8511
G01 X118.5014 Y67.9000
G00 Z2.0000
M05
G00 Z2.0000
G00 Z5.00
G00 X0.0 Y0.0

