(G-CODE GENERATED BY FLATCAM v8.991 - www.flatcam.org - Version Date: 2019/12/27)

(Name: PlastronLumiere_int_iso_cnc)
(Type: G-code from Geometry)
(Units: MM)

(Created on Sunday, 29 September 2024 at 15:18)

(TOOL DIAMETER: 2.0 mm)
(Feedrate: 200.0 mm/min)
(Feedrate_Z: 100.0 mm/min)
(Feedrate rapids 1500.0 mm/min)

(Z_Cut: -5.3 mm)
(DepthPerCut: 0.6 mm <=>9 passes)
(Z_Move: 2.0 mm)
(Z Toolchange: 15.0 mm)
(X,Y Toolchange: 0.00, 0.00 mm)
(Z Start: None mm)
(Z End: 5.0 mm)
(Steps per circle: 64)
(Preprocessor Geometry: default)

(X range:  125.6000 ...  146.4000  mm)
(Y range:   37.1000 ...   57.9000  mm)

(Spindle Speed: 8000 RPM)
G21
G90
G94




G01 F200.00
G00 Z2.0000

M03 S8000
G00 X146.3999 Y37.1000
G01 F100.00
G01 Z-0.6000
G01 F200.00
G01 X125.6000 Y37.1001
G01 X125.6001 Y57.9000
G01 X146.4000 Y57.8999
G01 X146.3999 Y37.1000
G00 X146.3999 Y37.1000
G01 F100.00
G01 Z-1.2000
G01 F200.00
G01 X125.6000 Y37.1001
G01 X125.6001 Y57.9000
G01 X146.4000 Y57.8999
G01 X146.3999 Y37.1000
G00 X146.3999 Y37.1000
G01 F100.00
G01 Z-1.8000
G01 F200.00
G01 X125.6000 Y37.1001
G01 X125.6001 Y57.9000
G01 X146.4000 Y57.8999
G01 X146.3999 Y37.1000
G00 X146.3999 Y37.1000
G01 F100.00
G01 Z-2.4000
G01 F200.00
G01 X125.6000 Y37.1001
G01 X125.6001 Y57.9000
G01 X146.4000 Y57.8999
G01 X146.3999 Y37.1000
G00 X146.3999 Y37.1000
G01 F100.00
G01 Z-3.0000
G01 F200.00
G01 X125.6000 Y37.1001
G01 X125.6001 Y57.9000
G01 X146.4000 Y57.8999
G01 X146.3999 Y37.1000
G00 X146.3999 Y37.1000
G01 F100.00
G01 Z-3.6000
G01 F200.00
G01 X125.6000 Y37.1001
G01 X125.6001 Y57.9000
G01 X146.4000 Y57.8999
G01 X146.3999 Y37.1000
G00 X146.3999 Y37.1000
G01 F100.00
G01 Z-4.2000
G01 F200.00
G01 X125.6000 Y37.1001
G01 X125.6001 Y57.9000
G01 X146.4000 Y57.8999
G01 X146.3999 Y37.1000
G00 X146.3999 Y37.1000
G01 F100.00
G01 Z-4.8000
G01 F200.00
G01 X125.6000 Y37.1001
G01 X125.6001 Y57.9000
G01 X146.4000 Y57.8999
G01 X146.3999 Y37.1000
G00 X146.3999 Y37.1000
G01 F100.00
G01 Z-5.3000
G01 F200.00
G01 X125.6000 Y37.1001
G01 X125.6001 Y57.9000
G01 X146.4000 Y57.8999
G01 X146.3999 Y37.1000
G00 Z2.0000
M05
G00 Z2.0000
G00 Z5.00
G00 X0.0 Y0.0

