(G-CODE GENERATED BY FLATCAM v8.991 - www.flatcam.org - Version Date: 2019/12/27)

(Name: PlastronPetits_int_iso_cnc)
(Type: G-code from Geometry)
(Units: MM)

(Created on Sunday, 29 September 2024 at 15:12)

(TOOL DIAMETER: 2.0 mm)
(Feedrate: 200.0 mm/min)
(Feedrate_Z: 100.0 mm/min)
(Feedrate rapids 1500.0 mm/min)

(Z_Cut: -5.2 mm)
(DepthPerCut: 0.6 mm <=>9 passes)
(Z_Move: 2.0 mm)
(Z Toolchange: 15.0 mm)
(X,Y Toolchange: 0.00, 0.00 mm)
(Z Start: None mm)
(Z End: 5.0 mm)
(Steps per circle: 64)
(Preprocessor Geometry: default)

(X range:  135.9014 ...  136.0986  mm)
(Y range:   33.1514 ...   61.8486  mm)

(Spindle Speed: 8000 RPM)
G21
G90
G94




G01 F200.00
G00 Z2.0000

M03 S8000
G00 X135.9014 Y33.2500
G01 F100.00
G01 Z-0.6000
G01 F200.00
G01 X135.9019 Y33.2597
G01 X135.9033 Y33.2692
G01 X135.9056 Y33.2786
G01 X135.9089 Y33.2877
G01 X135.9130 Y33.2965
G01 X135.9180 Y33.3048
G01 X135.9238 Y33.3126
G01 X135.9303 Y33.3197
G01 X135.9374 Y33.3262
G01 X135.9452 Y33.3320
G01 X135.9535 Y33.3370
G01 X135.9623 Y33.3411
G01 X135.9714 Y33.3444
G01 X135.9808 Y33.3467
G01 X135.9903 Y33.3481
G01 X136.0000 Y33.3486
G01 X136.0097 Y33.3481
G01 X136.0192 Y33.3467
G01 X136.0286 Y33.3444
G01 X136.0377 Y33.3411
G01 X136.0465 Y33.3370
G01 X136.0548 Y33.3320
G01 X136.0626 Y33.3262
G01 X136.0697 Y33.3197
G01 X136.0762 Y33.3126
G01 X136.0820 Y33.3048
G01 X136.0870 Y33.2965
G01 X136.0911 Y33.2877
G01 X136.0944 Y33.2786
G01 X136.0967 Y33.2692
G01 X136.0981 Y33.2597
G01 X136.0986 Y33.2500
G01 X136.0981 Y33.2403
G01 X136.0967 Y33.2308
G01 X136.0944 Y33.2214
G01 X136.0911 Y33.2123
G01 X136.0870 Y33.2035
G01 X136.0820 Y33.1952
G01 X136.0762 Y33.1874
G01 X136.0697 Y33.1803
G01 X136.0626 Y33.1738
G01 X136.0548 Y33.1680
G01 X136.0465 Y33.1630
G01 X136.0377 Y33.1589
G01 X136.0286 Y33.1556
G01 X136.0192 Y33.1533
G01 X136.0097 Y33.1519
G01 X136.0000 Y33.1514
G01 X135.9903 Y33.1519
G01 X135.9808 Y33.1533
G01 X135.9714 Y33.1556
G01 X135.9623 Y33.1589
G01 X135.9535 Y33.1630
G01 X135.9452 Y33.1680
G01 X135.9374 Y33.1738
G01 X135.9303 Y33.1803
G01 X135.9238 Y33.1874
G01 X135.9180 Y33.1952
G01 X135.9130 Y33.2035
G01 X135.9089 Y33.2123
G01 X135.9056 Y33.2214
G01 X135.9033 Y33.2308
G01 X135.9019 Y33.2403
G01 X135.9014 Y33.2500
G00 X135.9014 Y33.2500
G01 F100.00
G01 Z-1.2000
G01 F200.00
G01 X135.9019 Y33.2597
G01 X135.9033 Y33.2692
G01 X135.9056 Y33.2786
G01 X135.9089 Y33.2877
G01 X135.9130 Y33.2965
G01 X135.9180 Y33.3048
G01 X135.9238 Y33.3126
G01 X135.9303 Y33.3197
G01 X135.9374 Y33.3262
G01 X135.9452 Y33.3320
G01 X135.9535 Y33.3370
G01 X135.9623 Y33.3411
G01 X135.9714 Y33.3444
G01 X135.9808 Y33.3467
G01 X135.9903 Y33.3481
G01 X136.0000 Y33.3486
G01 X136.0097 Y33.3481
G01 X136.0192 Y33.3467
G01 X136.0286 Y33.3444
G01 X136.0377 Y33.3411
G01 X136.0465 Y33.3370
G01 X136.0548 Y33.3320
G01 X136.0626 Y33.3262
G01 X136.0697 Y33.3197
G01 X136.0762 Y33.3126
G01 X136.0820 Y33.3048
G01 X136.0870 Y33.2965
G01 X136.0911 Y33.2877
G01 X136.0944 Y33.2786
G01 X136.0967 Y33.2692
G01 X136.0981 Y33.2597
G01 X136.0986 Y33.2500
G01 X136.0981 Y33.2403
G01 X136.0967 Y33.2308
G01 X136.0944 Y33.2214
G01 X136.0911 Y33.2123
G01 X136.0870 Y33.2035
G01 X136.0820 Y33.1952
G01 X136.0762 Y33.1874
G01 X136.0697 Y33.1803
G01 X136.0626 Y33.1738
G01 X136.0548 Y33.1680
G01 X136.0465 Y33.1630
G01 X136.0377 Y33.1589
G01 X136.0286 Y33.1556
G01 X136.0192 Y33.1533
G01 X136.0097 Y33.1519
G01 X136.0000 Y33.1514
G01 X135.9903 Y33.1519
G01 X135.9808 Y33.1533
G01 X135.9714 Y33.1556
G01 X135.9623 Y33.1589
G01 X135.9535 Y33.1630
G01 X135.9452 Y33.1680
G01 X135.9374 Y33.1738
G01 X135.9303 Y33.1803
G01 X135.9238 Y33.1874
G01 X135.9180 Y33.1952
G01 X135.9130 Y33.2035
G01 X135.9089 Y33.2123
G01 X135.9056 Y33.2214
G01 X135.9033 Y33.2308
G01 X135.9019 Y33.2403
G01 X135.9014 Y33.2500
G00 X135.9014 Y33.2500
G01 F100.00
G01 Z-1.8000
G01 F200.00
G01 X135.9019 Y33.2597
G01 X135.9033 Y33.2692
G01 X135.9056 Y33.2786
G01 X135.9089 Y33.2877
G01 X135.9130 Y33.2965
G01 X135.9180 Y33.3048
G01 X135.9238 Y33.3126
G01 X135.9303 Y33.3197
G01 X135.9374 Y33.3262
G01 X135.9452 Y33.3320
G01 X135.9535 Y33.3370
G01 X135.9623 Y33.3411
G01 X135.9714 Y33.3444
G01 X135.9808 Y33.3467
G01 X135.9903 Y33.3481
G01 X136.0000 Y33.3486
G01 X136.0097 Y33.3481
G01 X136.0192 Y33.3467
G01 X136.0286 Y33.3444
G01 X136.0377 Y33.3411
G01 X136.0465 Y33.3370
G01 X136.0548 Y33.3320
G01 X136.0626 Y33.3262
G01 X136.0697 Y33.3197
G01 X136.0762 Y33.3126
G01 X136.0820 Y33.3048
G01 X136.0870 Y33.2965
G01 X136.0911 Y33.2877
G01 X136.0944 Y33.2786
G01 X136.0967 Y33.2692
G01 X136.0981 Y33.2597
G01 X136.0986 Y33.2500
G01 X136.0981 Y33.2403
G01 X136.0967 Y33.2308
G01 X136.0944 Y33.2214
G01 X136.0911 Y33.2123
G01 X136.0870 Y33.2035
G01 X136.0820 Y33.1952
G01 X136.0762 Y33.1874
G01 X136.0697 Y33.1803
G01 X136.0626 Y33.1738
G01 X136.0548 Y33.1680
G01 X136.0465 Y33.1630
G01 X136.0377 Y33.1589
G01 X136.0286 Y33.1556
G01 X136.0192 Y33.1533
G01 X136.0097 Y33.1519
G01 X136.0000 Y33.1514
G01 X135.9903 Y33.1519
G01 X135.9808 Y33.1533
G01 X135.9714 Y33.1556
G01 X135.9623 Y33.1589
G01 X135.9535 Y33.1630
G01 X135.9452 Y33.1680
G01 X135.9374 Y33.1738
G01 X135.9303 Y33.1803
G01 X135.9238 Y33.1874
G01 X135.9180 Y33.1952
G01 X135.9130 Y33.2035
G01 X135.9089 Y33.2123
G01 X135.9056 Y33.2214
G01 X135.9033 Y33.2308
G01 X135.9019 Y33.2403
G01 X135.9014 Y33.2500
G00 X135.9014 Y33.2500
G01 F100.00
G01 Z-2.4000
G01 F200.00
G01 X135.9019 Y33.2597
G01 X135.9033 Y33.2692
G01 X135.9056 Y33.2786
G01 X135.9089 Y33.2877
G01 X135.9130 Y33.2965
G01 X135.9180 Y33.3048
G01 X135.9238 Y33.3126
G01 X135.9303 Y33.3197
G01 X135.9374 Y33.3262
G01 X135.9452 Y33.3320
G01 X135.9535 Y33.3370
G01 X135.9623 Y33.3411
G01 X135.9714 Y33.3444
G01 X135.9808 Y33.3467
G01 X135.9903 Y33.3481
G01 X136.0000 Y33.3486
G01 X136.0097 Y33.3481
G01 X136.0192 Y33.3467
G01 X136.0286 Y33.3444
G01 X136.0377 Y33.3411
G01 X136.0465 Y33.3370
G01 X136.0548 Y33.3320
G01 X136.0626 Y33.3262
G01 X136.0697 Y33.3197
G01 X136.0762 Y33.3126
G01 X136.0820 Y33.3048
G01 X136.0870 Y33.2965
G01 X136.0911 Y33.2877
G01 X136.0944 Y33.2786
G01 X136.0967 Y33.2692
G01 X136.0981 Y33.2597
G01 X136.0986 Y33.2500
G01 X136.0981 Y33.2403
G01 X136.0967 Y33.2308
G01 X136.0944 Y33.2214
G01 X136.0911 Y33.2123
G01 X136.0870 Y33.2035
G01 X136.0820 Y33.1952
G01 X136.0762 Y33.1874
G01 X136.0697 Y33.1803
G01 X136.0626 Y33.1738
G01 X136.0548 Y33.1680
G01 X136.0465 Y33.1630
G01 X136.0377 Y33.1589
G01 X136.0286 Y33.1556
G01 X136.0192 Y33.1533
G01 X136.0097 Y33.1519
G01 X136.0000 Y33.1514
G01 X135.9903 Y33.1519
G01 X135.9808 Y33.1533
G01 X135.9714 Y33.1556
G01 X135.9623 Y33.1589
G01 X135.9535 Y33.1630
G01 X135.9452 Y33.1680
G01 X135.9374 Y33.1738
G01 X135.9303 Y33.1803
G01 X135.9238 Y33.1874
G01 X135.9180 Y33.1952
G01 X135.9130 Y33.2035
G01 X135.9089 Y33.2123
G01 X135.9056 Y33.2214
G01 X135.9033 Y33.2308
G01 X135.9019 Y33.2403
G01 X135.9014 Y33.2500
G00 X135.9014 Y33.2500
G01 F100.00
G01 Z-3.0000
G01 F200.00
G01 X135.9019 Y33.2597
G01 X135.9033 Y33.2692
G01 X135.9056 Y33.2786
G01 X135.9089 Y33.2877
G01 X135.9130 Y33.2965
G01 X135.9180 Y33.3048
G01 X135.9238 Y33.3126
G01 X135.9303 Y33.3197
G01 X135.9374 Y33.3262
G01 X135.9452 Y33.3320
G01 X135.9535 Y33.3370
G01 X135.9623 Y33.3411
G01 X135.9714 Y33.3444
G01 X135.9808 Y33.3467
G01 X135.9903 Y33.3481
G01 X136.0000 Y33.3486
G01 X136.0097 Y33.3481
G01 X136.0192 Y33.3467
G01 X136.0286 Y33.3444
G01 X136.0377 Y33.3411
G01 X136.0465 Y33.3370
G01 X136.0548 Y33.3320
G01 X136.0626 Y33.3262
G01 X136.0697 Y33.3197
G01 X136.0762 Y33.3126
G01 X136.0820 Y33.3048
G01 X136.0870 Y33.2965
G01 X136.0911 Y33.2877
G01 X136.0944 Y33.2786
G01 X136.0967 Y33.2692
G01 X136.0981 Y33.2597
G01 X136.0986 Y33.2500
G01 X136.0981 Y33.2403
G01 X136.0967 Y33.2308
G01 X136.0944 Y33.2214
G01 X136.0911 Y33.2123
G01 X136.0870 Y33.2035
G01 X136.0820 Y33.1952
G01 X136.0762 Y33.1874
G01 X136.0697 Y33.1803
G01 X136.0626 Y33.1738
G01 X136.0548 Y33.1680
G01 X136.0465 Y33.1630
G01 X136.0377 Y33.1589
G01 X136.0286 Y33.1556
G01 X136.0192 Y33.1533
G01 X136.0097 Y33.1519
G01 X136.0000 Y33.1514
G01 X135.9903 Y33.1519
G01 X135.9808 Y33.1533
G01 X135.9714 Y33.1556
G01 X135.9623 Y33.1589
G01 X135.9535 Y33.1630
G01 X135.9452 Y33.1680
G01 X135.9374 Y33.1738
G01 X135.9303 Y33.1803
G01 X135.9238 Y33.1874
G01 X135.9180 Y33.1952
G01 X135.9130 Y33.2035
G01 X135.9089 Y33.2123
G01 X135.9056 Y33.2214
G01 X135.9033 Y33.2308
G01 X135.9019 Y33.2403
G01 X135.9014 Y33.2500
G00 X135.9014 Y33.2500
G01 F100.00
G01 Z-3.6000
G01 F200.00
G01 X135.9019 Y33.2597
G01 X135.9033 Y33.2692
G01 X135.9056 Y33.2786
G01 X135.9089 Y33.2877
G01 X135.9130 Y33.2965
G01 X135.9180 Y33.3048
G01 X135.9238 Y33.3126
G01 X135.9303 Y33.3197
G01 X135.9374 Y33.3262
G01 X135.9452 Y33.3320
G01 X135.9535 Y33.3370
G01 X135.9623 Y33.3411
G01 X135.9714 Y33.3444
G01 X135.9808 Y33.3467
G01 X135.9903 Y33.3481
G01 X136.0000 Y33.3486
G01 X136.0097 Y33.3481
G01 X136.0192 Y33.3467
G01 X136.0286 Y33.3444
G01 X136.0377 Y33.3411
G01 X136.0465 Y33.3370
G01 X136.0548 Y33.3320
G01 X136.0626 Y33.3262
G01 X136.0697 Y33.3197
G01 X136.0762 Y33.3126
G01 X136.0820 Y33.3048
G01 X136.0870 Y33.2965
G01 X136.0911 Y33.2877
G01 X136.0944 Y33.2786
G01 X136.0967 Y33.2692
G01 X136.0981 Y33.2597
G01 X136.0986 Y33.2500
G01 X136.0981 Y33.2403
G01 X136.0967 Y33.2308
G01 X136.0944 Y33.2214
G01 X136.0911 Y33.2123
G01 X136.0870 Y33.2035
G01 X136.0820 Y33.1952
G01 X136.0762 Y33.1874
G01 X136.0697 Y33.1803
G01 X136.0626 Y33.1738
G01 X136.0548 Y33.1680
G01 X136.0465 Y33.1630
G01 X136.0377 Y33.1589
G01 X136.0286 Y33.1556
G01 X136.0192 Y33.1533
G01 X136.0097 Y33.1519
G01 X136.0000 Y33.1514
G01 X135.9903 Y33.1519
G01 X135.9808 Y33.1533
G01 X135.9714 Y33.1556
G01 X135.9623 Y33.1589
G01 X135.9535 Y33.1630
G01 X135.9452 Y33.1680
G01 X135.9374 Y33.1738
G01 X135.9303 Y33.1803
G01 X135.9238 Y33.1874
G01 X135.9180 Y33.1952
G01 X135.9130 Y33.2035
G01 X135.9089 Y33.2123
G01 X135.9056 Y33.2214
G01 X135.9033 Y33.2308
G01 X135.9019 Y33.2403
G01 X135.9014 Y33.2500
G00 X135.9014 Y33.2500
G01 F100.00
G01 Z-4.2000
G01 F200.00
G01 X135.9019 Y33.2597
G01 X135.9033 Y33.2692
G01 X135.9056 Y33.2786
G01 X135.9089 Y33.2877
G01 X135.9130 Y33.2965
G01 X135.9180 Y33.3048
G01 X135.9238 Y33.3126
G01 X135.9303 Y33.3197
G01 X135.9374 Y33.3262
G01 X135.9452 Y33.3320
G01 X135.9535 Y33.3370
G01 X135.9623 Y33.3411
G01 X135.9714 Y33.3444
G01 X135.9808 Y33.3467
G01 X135.9903 Y33.3481
G01 X136.0000 Y33.3486
G01 X136.0097 Y33.3481
G01 X136.0192 Y33.3467
G01 X136.0286 Y33.3444
G01 X136.0377 Y33.3411
G01 X136.0465 Y33.3370
G01 X136.0548 Y33.3320
G01 X136.0626 Y33.3262
G01 X136.0697 Y33.3197
G01 X136.0762 Y33.3126
G01 X136.0820 Y33.3048
G01 X136.0870 Y33.2965
G01 X136.0911 Y33.2877
G01 X136.0944 Y33.2786
G01 X136.0967 Y33.2692
G01 X136.0981 Y33.2597
G01 X136.0986 Y33.2500
G01 X136.0981 Y33.2403
G01 X136.0967 Y33.2308
G01 X136.0944 Y33.2214
G01 X136.0911 Y33.2123
G01 X136.0870 Y33.2035
G01 X136.0820 Y33.1952
G01 X136.0762 Y33.1874
G01 X136.0697 Y33.1803
G01 X136.0626 Y33.1738
G01 X136.0548 Y33.1680
G01 X136.0465 Y33.1630
G01 X136.0377 Y33.1589
G01 X136.0286 Y33.1556
G01 X136.0192 Y33.1533
G01 X136.0097 Y33.1519
G01 X136.0000 Y33.1514
G01 X135.9903 Y33.1519
G01 X135.9808 Y33.1533
G01 X135.9714 Y33.1556
G01 X135.9623 Y33.1589
G01 X135.9535 Y33.1630
G01 X135.9452 Y33.1680
G01 X135.9374 Y33.1738
G01 X135.9303 Y33.1803
G01 X135.9238 Y33.1874
G01 X135.9180 Y33.1952
G01 X135.9130 Y33.2035
G01 X135.9089 Y33.2123
G01 X135.9056 Y33.2214
G01 X135.9033 Y33.2308
G01 X135.9019 Y33.2403
G01 X135.9014 Y33.2500
G00 X135.9014 Y33.2500
G01 F100.00
G01 Z-4.8000
G01 F200.00
G01 X135.9019 Y33.2597
G01 X135.9033 Y33.2692
G01 X135.9056 Y33.2786
G01 X135.9089 Y33.2877
G01 X135.9130 Y33.2965
G01 X135.9180 Y33.3048
G01 X135.9238 Y33.3126
G01 X135.9303 Y33.3197
G01 X135.9374 Y33.3262
G01 X135.9452 Y33.3320
G01 X135.9535 Y33.3370
G01 X135.9623 Y33.3411
G01 X135.9714 Y33.3444
G01 X135.9808 Y33.3467
G01 X135.9903 Y33.3481
G01 X136.0000 Y33.3486
G01 X136.0097 Y33.3481
G01 X136.0192 Y33.3467
G01 X136.0286 Y33.3444
G01 X136.0377 Y33.3411
G01 X136.0465 Y33.3370
G01 X136.0548 Y33.3320
G01 X136.0626 Y33.3262
G01 X136.0697 Y33.3197
G01 X136.0762 Y33.3126
G01 X136.0820 Y33.3048
G01 X136.0870 Y33.2965
G01 X136.0911 Y33.2877
G01 X136.0944 Y33.2786
G01 X136.0967 Y33.2692
G01 X136.0981 Y33.2597
G01 X136.0986 Y33.2500
G01 X136.0981 Y33.2403
G01 X136.0967 Y33.2308
G01 X136.0944 Y33.2214
G01 X136.0911 Y33.2123
G01 X136.0870 Y33.2035
G01 X136.0820 Y33.1952
G01 X136.0762 Y33.1874
G01 X136.0697 Y33.1803
G01 X136.0626 Y33.1738
G01 X136.0548 Y33.1680
G01 X136.0465 Y33.1630
G01 X136.0377 Y33.1589
G01 X136.0286 Y33.1556
G01 X136.0192 Y33.1533
G01 X136.0097 Y33.1519
G01 X136.0000 Y33.1514
G01 X135.9903 Y33.1519
G01 X135.9808 Y33.1533
G01 X135.9714 Y33.1556
G01 X135.9623 Y33.1589
G01 X135.9535 Y33.1630
G01 X135.9452 Y33.1680
G01 X135.9374 Y33.1738
G01 X135.9303 Y33.1803
G01 X135.9238 Y33.1874
G01 X135.9180 Y33.1952
G01 X135.9130 Y33.2035
G01 X135.9089 Y33.2123
G01 X135.9056 Y33.2214
G01 X135.9033 Y33.2308
G01 X135.9019 Y33.2403
G01 X135.9014 Y33.2500
G00 X135.9014 Y33.2500
G01 F100.00
G01 Z-5.2000
G01 F200.00
G01 X135.9019 Y33.2597
G01 X135.9033 Y33.2692
G01 X135.9056 Y33.2786
G01 X135.9089 Y33.2877
G01 X135.9130 Y33.2965
G01 X135.9180 Y33.3048
G01 X135.9238 Y33.3126
G01 X135.9303 Y33.3197
G01 X135.9374 Y33.3262
G01 X135.9452 Y33.3320
G01 X135.9535 Y33.3370
G01 X135.9623 Y33.3411
G01 X135.9714 Y33.3444
G01 X135.9808 Y33.3467
G01 X135.9903 Y33.3481
G01 X136.0000 Y33.3486
G01 X136.0097 Y33.3481
G01 X136.0192 Y33.3467
G01 X136.0286 Y33.3444
G01 X136.0377 Y33.3411
G01 X136.0465 Y33.3370
G01 X136.0548 Y33.3320
G01 X136.0626 Y33.3262
G01 X136.0697 Y33.3197
G01 X136.0762 Y33.3126
G01 X136.0820 Y33.3048
G01 X136.0870 Y33.2965
G01 X136.0911 Y33.2877
G01 X136.0944 Y33.2786
G01 X136.0967 Y33.2692
G01 X136.0981 Y33.2597
G01 X136.0986 Y33.2500
G01 X136.0981 Y33.2403
G01 X136.0967 Y33.2308
G01 X136.0944 Y33.2214
G01 X136.0911 Y33.2123
G01 X136.0870 Y33.2035
G01 X136.0820 Y33.1952
G01 X136.0762 Y33.1874
G01 X136.0697 Y33.1803
G01 X136.0626 Y33.1738
G01 X136.0548 Y33.1680
G01 X136.0465 Y33.1630
G01 X136.0377 Y33.1589
G01 X136.0286 Y33.1556
G01 X136.0192 Y33.1533
G01 X136.0097 Y33.1519
G01 X136.0000 Y33.1514
G01 X135.9903 Y33.1519
G01 X135.9808 Y33.1533
G01 X135.9714 Y33.1556
G01 X135.9623 Y33.1589
G01 X135.9535 Y33.1630
G01 X135.9452 Y33.1680
G01 X135.9374 Y33.1738
G01 X135.9303 Y33.1803
G01 X135.9238 Y33.1874
G01 X135.9180 Y33.1952
G01 X135.9130 Y33.2035
G01 X135.9089 Y33.2123
G01 X135.9056 Y33.2214
G01 X135.9033 Y33.2308
G01 X135.9019 Y33.2403
G01 X135.9014 Y33.2500
G00 Z2.0000
G00 X135.9014 Y61.7500
G01 F100.00
G01 Z-0.6000
G01 F200.00
G01 X135.9019 Y61.7597
G01 X135.9033 Y61.7692
G01 X135.9056 Y61.7786
G01 X135.9089 Y61.7877
G01 X135.9130 Y61.7965
G01 X135.9180 Y61.8048
G01 X135.9238 Y61.8126
G01 X135.9303 Y61.8197
G01 X135.9374 Y61.8262
G01 X135.9452 Y61.8320
G01 X135.9535 Y61.8370
G01 X135.9623 Y61.8411
G01 X135.9714 Y61.8444
G01 X135.9808 Y61.8467
G01 X135.9903 Y61.8481
G01 X136.0000 Y61.8486
G01 X136.0097 Y61.8481
G01 X136.0192 Y61.8467
G01 X136.0286 Y61.8444
G01 X136.0377 Y61.8411
G01 X136.0465 Y61.8370
G01 X136.0548 Y61.8320
G01 X136.0626 Y61.8262
G01 X136.0697 Y61.8197
G01 X136.0762 Y61.8126
G01 X136.0820 Y61.8048
G01 X136.0870 Y61.7965
G01 X136.0911 Y61.7877
G01 X136.0944 Y61.7786
G01 X136.0967 Y61.7692
G01 X136.0981 Y61.7597
G01 X136.0986 Y61.7500
G01 X136.0981 Y61.7403
G01 X136.0967 Y61.7308
G01 X136.0944 Y61.7214
G01 X136.0911 Y61.7123
G01 X136.0870 Y61.7035
G01 X136.0820 Y61.6952
G01 X136.0762 Y61.6874
G01 X136.0697 Y61.6803
G01 X136.0626 Y61.6738
G01 X136.0548 Y61.6680
G01 X136.0465 Y61.6630
G01 X136.0377 Y61.6589
G01 X136.0286 Y61.6556
G01 X136.0192 Y61.6533
G01 X136.0097 Y61.6519
G01 X136.0000 Y61.6514
G01 X135.9903 Y61.6519
G01 X135.9808 Y61.6533
G01 X135.9714 Y61.6556
G01 X135.9623 Y61.6589
G01 X135.9535 Y61.6630
G01 X135.9452 Y61.6680
G01 X135.9374 Y61.6738
G01 X135.9303 Y61.6803
G01 X135.9238 Y61.6874
G01 X135.9180 Y61.6952
G01 X135.9130 Y61.7035
G01 X135.9089 Y61.7123
G01 X135.9056 Y61.7214
G01 X135.9033 Y61.7308
G01 X135.9019 Y61.7403
G01 X135.9014 Y61.7500
G00 X135.9014 Y61.7500
G01 F100.00
G01 Z-1.2000
G01 F200.00
G01 X135.9019 Y61.7597
G01 X135.9033 Y61.7692
G01 X135.9056 Y61.7786
G01 X135.9089 Y61.7877
G01 X135.9130 Y61.7965
G01 X135.9180 Y61.8048
G01 X135.9238 Y61.8126
G01 X135.9303 Y61.8197
G01 X135.9374 Y61.8262
G01 X135.9452 Y61.8320
G01 X135.9535 Y61.8370
G01 X135.9623 Y61.8411
G01 X135.9714 Y61.8444
G01 X135.9808 Y61.8467
G01 X135.9903 Y61.8481
G01 X136.0000 Y61.8486
G01 X136.0097 Y61.8481
G01 X136.0192 Y61.8467
G01 X136.0286 Y61.8444
G01 X136.0377 Y61.8411
G01 X136.0465 Y61.8370
G01 X136.0548 Y61.8320
G01 X136.0626 Y61.8262
G01 X136.0697 Y61.8197
G01 X136.0762 Y61.8126
G01 X136.0820 Y61.8048
G01 X136.0870 Y61.7965
G01 X136.0911 Y61.7877
G01 X136.0944 Y61.7786
G01 X136.0967 Y61.7692
G01 X136.0981 Y61.7597
G01 X136.0986 Y61.7500
G01 X136.0981 Y61.7403
G01 X136.0967 Y61.7308
G01 X136.0944 Y61.7214
G01 X136.0911 Y61.7123
G01 X136.0870 Y61.7035
G01 X136.0820 Y61.6952
G01 X136.0762 Y61.6874
G01 X136.0697 Y61.6803
G01 X136.0626 Y61.6738
G01 X136.0548 Y61.6680
G01 X136.0465 Y61.6630
G01 X136.0377 Y61.6589
G01 X136.0286 Y61.6556
G01 X136.0192 Y61.6533
G01 X136.0097 Y61.6519
G01 X136.0000 Y61.6514
G01 X135.9903 Y61.6519
G01 X135.9808 Y61.6533
G01 X135.9714 Y61.6556
G01 X135.9623 Y61.6589
G01 X135.9535 Y61.6630
G01 X135.9452 Y61.6680
G01 X135.9374 Y61.6738
G01 X135.9303 Y61.6803
G01 X135.9238 Y61.6874
G01 X135.9180 Y61.6952
G01 X135.9130 Y61.7035
G01 X135.9089 Y61.7123
G01 X135.9056 Y61.7214
G01 X135.9033 Y61.7308
G01 X135.9019 Y61.7403
G01 X135.9014 Y61.7500
G00 X135.9014 Y61.7500
G01 F100.00
G01 Z-1.8000
G01 F200.00
G01 X135.9019 Y61.7597
G01 X135.9033 Y61.7692
G01 X135.9056 Y61.7786
G01 X135.9089 Y61.7877
G01 X135.9130 Y61.7965
G01 X135.9180 Y61.8048
G01 X135.9238 Y61.8126
G01 X135.9303 Y61.8197
G01 X135.9374 Y61.8262
G01 X135.9452 Y61.8320
G01 X135.9535 Y61.8370
G01 X135.9623 Y61.8411
G01 X135.9714 Y61.8444
G01 X135.9808 Y61.8467
G01 X135.9903 Y61.8481
G01 X136.0000 Y61.8486
G01 X136.0097 Y61.8481
G01 X136.0192 Y61.8467
G01 X136.0286 Y61.8444
G01 X136.0377 Y61.8411
G01 X136.0465 Y61.8370
G01 X136.0548 Y61.8320
G01 X136.0626 Y61.8262
G01 X136.0697 Y61.8197
G01 X136.0762 Y61.8126
G01 X136.0820 Y61.8048
G01 X136.0870 Y61.7965
G01 X136.0911 Y61.7877
G01 X136.0944 Y61.7786
G01 X136.0967 Y61.7692
G01 X136.0981 Y61.7597
G01 X136.0986 Y61.7500
G01 X136.0981 Y61.7403
G01 X136.0967 Y61.7308
G01 X136.0944 Y61.7214
G01 X136.0911 Y61.7123
G01 X136.0870 Y61.7035
G01 X136.0820 Y61.6952
G01 X136.0762 Y61.6874
G01 X136.0697 Y61.6803
G01 X136.0626 Y61.6738
G01 X136.0548 Y61.6680
G01 X136.0465 Y61.6630
G01 X136.0377 Y61.6589
G01 X136.0286 Y61.6556
G01 X136.0192 Y61.6533
G01 X136.0097 Y61.6519
G01 X136.0000 Y61.6514
G01 X135.9903 Y61.6519
G01 X135.9808 Y61.6533
G01 X135.9714 Y61.6556
G01 X135.9623 Y61.6589
G01 X135.9535 Y61.6630
G01 X135.9452 Y61.6680
G01 X135.9374 Y61.6738
G01 X135.9303 Y61.6803
G01 X135.9238 Y61.6874
G01 X135.9180 Y61.6952
G01 X135.9130 Y61.7035
G01 X135.9089 Y61.7123
G01 X135.9056 Y61.7214
G01 X135.9033 Y61.7308
G01 X135.9019 Y61.7403
G01 X135.9014 Y61.7500
G00 X135.9014 Y61.7500
G01 F100.00
G01 Z-2.4000
G01 F200.00
G01 X135.9019 Y61.7597
G01 X135.9033 Y61.7692
G01 X135.9056 Y61.7786
G01 X135.9089 Y61.7877
G01 X135.9130 Y61.7965
G01 X135.9180 Y61.8048
G01 X135.9238 Y61.8126
G01 X135.9303 Y61.8197
G01 X135.9374 Y61.8262
G01 X135.9452 Y61.8320
G01 X135.9535 Y61.8370
G01 X135.9623 Y61.8411
G01 X135.9714 Y61.8444
G01 X135.9808 Y61.8467
G01 X135.9903 Y61.8481
G01 X136.0000 Y61.8486
G01 X136.0097 Y61.8481
G01 X136.0192 Y61.8467
G01 X136.0286 Y61.8444
G01 X136.0377 Y61.8411
G01 X136.0465 Y61.8370
G01 X136.0548 Y61.8320
G01 X136.0626 Y61.8262
G01 X136.0697 Y61.8197
G01 X136.0762 Y61.8126
G01 X136.0820 Y61.8048
G01 X136.0870 Y61.7965
G01 X136.0911 Y61.7877
G01 X136.0944 Y61.7786
G01 X136.0967 Y61.7692
G01 X136.0981 Y61.7597
G01 X136.0986 Y61.7500
G01 X136.0981 Y61.7403
G01 X136.0967 Y61.7308
G01 X136.0944 Y61.7214
G01 X136.0911 Y61.7123
G01 X136.0870 Y61.7035
G01 X136.0820 Y61.6952
G01 X136.0762 Y61.6874
G01 X136.0697 Y61.6803
G01 X136.0626 Y61.6738
G01 X136.0548 Y61.6680
G01 X136.0465 Y61.6630
G01 X136.0377 Y61.6589
G01 X136.0286 Y61.6556
G01 X136.0192 Y61.6533
G01 X136.0097 Y61.6519
G01 X136.0000 Y61.6514
G01 X135.9903 Y61.6519
G01 X135.9808 Y61.6533
G01 X135.9714 Y61.6556
G01 X135.9623 Y61.6589
G01 X135.9535 Y61.6630
G01 X135.9452 Y61.6680
G01 X135.9374 Y61.6738
G01 X135.9303 Y61.6803
G01 X135.9238 Y61.6874
G01 X135.9180 Y61.6952
G01 X135.9130 Y61.7035
G01 X135.9089 Y61.7123
G01 X135.9056 Y61.7214
G01 X135.9033 Y61.7308
G01 X135.9019 Y61.7403
G01 X135.9014 Y61.7500
G00 X135.9014 Y61.7500
G01 F100.00
G01 Z-3.0000
G01 F200.00
G01 X135.9019 Y61.7597
G01 X135.9033 Y61.7692
G01 X135.9056 Y61.7786
G01 X135.9089 Y61.7877
G01 X135.9130 Y61.7965
G01 X135.9180 Y61.8048
G01 X135.9238 Y61.8126
G01 X135.9303 Y61.8197
G01 X135.9374 Y61.8262
G01 X135.9452 Y61.8320
G01 X135.9535 Y61.8370
G01 X135.9623 Y61.8411
G01 X135.9714 Y61.8444
G01 X135.9808 Y61.8467
G01 X135.9903 Y61.8481
G01 X136.0000 Y61.8486
G01 X136.0097 Y61.8481
G01 X136.0192 Y61.8467
G01 X136.0286 Y61.8444
G01 X136.0377 Y61.8411
G01 X136.0465 Y61.8370
G01 X136.0548 Y61.8320
G01 X136.0626 Y61.8262
G01 X136.0697 Y61.8197
G01 X136.0762 Y61.8126
G01 X136.0820 Y61.8048
G01 X136.0870 Y61.7965
G01 X136.0911 Y61.7877
G01 X136.0944 Y61.7786
G01 X136.0967 Y61.7692
G01 X136.0981 Y61.7597
G01 X136.0986 Y61.7500
G01 X136.0981 Y61.7403
G01 X136.0967 Y61.7308
G01 X136.0944 Y61.7214
G01 X136.0911 Y61.7123
G01 X136.0870 Y61.7035
G01 X136.0820 Y61.6952
G01 X136.0762 Y61.6874
G01 X136.0697 Y61.6803
G01 X136.0626 Y61.6738
G01 X136.0548 Y61.6680
G01 X136.0465 Y61.6630
G01 X136.0377 Y61.6589
G01 X136.0286 Y61.6556
G01 X136.0192 Y61.6533
G01 X136.0097 Y61.6519
G01 X136.0000 Y61.6514
G01 X135.9903 Y61.6519
G01 X135.9808 Y61.6533
G01 X135.9714 Y61.6556
G01 X135.9623 Y61.6589
G01 X135.9535 Y61.6630
G01 X135.9452 Y61.6680
G01 X135.9374 Y61.6738
G01 X135.9303 Y61.6803
G01 X135.9238 Y61.6874
G01 X135.9180 Y61.6952
G01 X135.9130 Y61.7035
G01 X135.9089 Y61.7123
G01 X135.9056 Y61.7214
G01 X135.9033 Y61.7308
G01 X135.9019 Y61.7403
G01 X135.9014 Y61.7500
G00 X135.9014 Y61.7500
G01 F100.00
G01 Z-3.6000
G01 F200.00
G01 X135.9019 Y61.7597
G01 X135.9033 Y61.7692
G01 X135.9056 Y61.7786
G01 X135.9089 Y61.7877
G01 X135.9130 Y61.7965
G01 X135.9180 Y61.8048
G01 X135.9238 Y61.8126
G01 X135.9303 Y61.8197
G01 X135.9374 Y61.8262
G01 X135.9452 Y61.8320
G01 X135.9535 Y61.8370
G01 X135.9623 Y61.8411
G01 X135.9714 Y61.8444
G01 X135.9808 Y61.8467
G01 X135.9903 Y61.8481
G01 X136.0000 Y61.8486
G01 X136.0097 Y61.8481
G01 X136.0192 Y61.8467
G01 X136.0286 Y61.8444
G01 X136.0377 Y61.8411
G01 X136.0465 Y61.8370
G01 X136.0548 Y61.8320
G01 X136.0626 Y61.8262
G01 X136.0697 Y61.8197
G01 X136.0762 Y61.8126
G01 X136.0820 Y61.8048
G01 X136.0870 Y61.7965
G01 X136.0911 Y61.7877
G01 X136.0944 Y61.7786
G01 X136.0967 Y61.7692
G01 X136.0981 Y61.7597
G01 X136.0986 Y61.7500
G01 X136.0981 Y61.7403
G01 X136.0967 Y61.7308
G01 X136.0944 Y61.7214
G01 X136.0911 Y61.7123
G01 X136.0870 Y61.7035
G01 X136.0820 Y61.6952
G01 X136.0762 Y61.6874
G01 X136.0697 Y61.6803
G01 X136.0626 Y61.6738
G01 X136.0548 Y61.6680
G01 X136.0465 Y61.6630
G01 X136.0377 Y61.6589
G01 X136.0286 Y61.6556
G01 X136.0192 Y61.6533
G01 X136.0097 Y61.6519
G01 X136.0000 Y61.6514
G01 X135.9903 Y61.6519
G01 X135.9808 Y61.6533
G01 X135.9714 Y61.6556
G01 X135.9623 Y61.6589
G01 X135.9535 Y61.6630
G01 X135.9452 Y61.6680
G01 X135.9374 Y61.6738
G01 X135.9303 Y61.6803
G01 X135.9238 Y61.6874
G01 X135.9180 Y61.6952
G01 X135.9130 Y61.7035
G01 X135.9089 Y61.7123
G01 X135.9056 Y61.7214
G01 X135.9033 Y61.7308
G01 X135.9019 Y61.7403
G01 X135.9014 Y61.7500
G00 X135.9014 Y61.7500
G01 F100.00
G01 Z-4.2000
G01 F200.00
G01 X135.9019 Y61.7597
G01 X135.9033 Y61.7692
G01 X135.9056 Y61.7786
G01 X135.9089 Y61.7877
G01 X135.9130 Y61.7965
G01 X135.9180 Y61.8048
G01 X135.9238 Y61.8126
G01 X135.9303 Y61.8197
G01 X135.9374 Y61.8262
G01 X135.9452 Y61.8320
G01 X135.9535 Y61.8370
G01 X135.9623 Y61.8411
G01 X135.9714 Y61.8444
G01 X135.9808 Y61.8467
G01 X135.9903 Y61.8481
G01 X136.0000 Y61.8486
G01 X136.0097 Y61.8481
G01 X136.0192 Y61.8467
G01 X136.0286 Y61.8444
G01 X136.0377 Y61.8411
G01 X136.0465 Y61.8370
G01 X136.0548 Y61.8320
G01 X136.0626 Y61.8262
G01 X136.0697 Y61.8197
G01 X136.0762 Y61.8126
G01 X136.0820 Y61.8048
G01 X136.0870 Y61.7965
G01 X136.0911 Y61.7877
G01 X136.0944 Y61.7786
G01 X136.0967 Y61.7692
G01 X136.0981 Y61.7597
G01 X136.0986 Y61.7500
G01 X136.0981 Y61.7403
G01 X136.0967 Y61.7308
G01 X136.0944 Y61.7214
G01 X136.0911 Y61.7123
G01 X136.0870 Y61.7035
G01 X136.0820 Y61.6952
G01 X136.0762 Y61.6874
G01 X136.0697 Y61.6803
G01 X136.0626 Y61.6738
G01 X136.0548 Y61.6680
G01 X136.0465 Y61.6630
G01 X136.0377 Y61.6589
G01 X136.0286 Y61.6556
G01 X136.0192 Y61.6533
G01 X136.0097 Y61.6519
G01 X136.0000 Y61.6514
G01 X135.9903 Y61.6519
G01 X135.9808 Y61.6533
G01 X135.9714 Y61.6556
G01 X135.9623 Y61.6589
G01 X135.9535 Y61.6630
G01 X135.9452 Y61.6680
G01 X135.9374 Y61.6738
G01 X135.9303 Y61.6803
G01 X135.9238 Y61.6874
G01 X135.9180 Y61.6952
G01 X135.9130 Y61.7035
G01 X135.9089 Y61.7123
G01 X135.9056 Y61.7214
G01 X135.9033 Y61.7308
G01 X135.9019 Y61.7403
G01 X135.9014 Y61.7500
G00 X135.9014 Y61.7500
G01 F100.00
G01 Z-4.8000
G01 F200.00
G01 X135.9019 Y61.7597
G01 X135.9033 Y61.7692
G01 X135.9056 Y61.7786
G01 X135.9089 Y61.7877
G01 X135.9130 Y61.7965
G01 X135.9180 Y61.8048
G01 X135.9238 Y61.8126
G01 X135.9303 Y61.8197
G01 X135.9374 Y61.8262
G01 X135.9452 Y61.8320
G01 X135.9535 Y61.8370
G01 X135.9623 Y61.8411
G01 X135.9714 Y61.8444
G01 X135.9808 Y61.8467
G01 X135.9903 Y61.8481
G01 X136.0000 Y61.8486
G01 X136.0097 Y61.8481
G01 X136.0192 Y61.8467
G01 X136.0286 Y61.8444
G01 X136.0377 Y61.8411
G01 X136.0465 Y61.8370
G01 X136.0548 Y61.8320
G01 X136.0626 Y61.8262
G01 X136.0697 Y61.8197
G01 X136.0762 Y61.8126
G01 X136.0820 Y61.8048
G01 X136.0870 Y61.7965
G01 X136.0911 Y61.7877
G01 X136.0944 Y61.7786
G01 X136.0967 Y61.7692
G01 X136.0981 Y61.7597
G01 X136.0986 Y61.7500
G01 X136.0981 Y61.7403
G01 X136.0967 Y61.7308
G01 X136.0944 Y61.7214
G01 X136.0911 Y61.7123
G01 X136.0870 Y61.7035
G01 X136.0820 Y61.6952
G01 X136.0762 Y61.6874
G01 X136.0697 Y61.6803
G01 X136.0626 Y61.6738
G01 X136.0548 Y61.6680
G01 X136.0465 Y61.6630
G01 X136.0377 Y61.6589
G01 X136.0286 Y61.6556
G01 X136.0192 Y61.6533
G01 X136.0097 Y61.6519
G01 X136.0000 Y61.6514
G01 X135.9903 Y61.6519
G01 X135.9808 Y61.6533
G01 X135.9714 Y61.6556
G01 X135.9623 Y61.6589
G01 X135.9535 Y61.6630
G01 X135.9452 Y61.6680
G01 X135.9374 Y61.6738
G01 X135.9303 Y61.6803
G01 X135.9238 Y61.6874
G01 X135.9180 Y61.6952
G01 X135.9130 Y61.7035
G01 X135.9089 Y61.7123
G01 X135.9056 Y61.7214
G01 X135.9033 Y61.7308
G01 X135.9019 Y61.7403
G01 X135.9014 Y61.7500
G00 X135.9014 Y61.7500
G01 F100.00
G01 Z-5.2000
G01 F200.00
G01 X135.9019 Y61.7597
G01 X135.9033 Y61.7692
G01 X135.9056 Y61.7786
G01 X135.9089 Y61.7877
G01 X135.9130 Y61.7965
G01 X135.9180 Y61.8048
G01 X135.9238 Y61.8126
G01 X135.9303 Y61.8197
G01 X135.9374 Y61.8262
G01 X135.9452 Y61.8320
G01 X135.9535 Y61.8370
G01 X135.9623 Y61.8411
G01 X135.9714 Y61.8444
G01 X135.9808 Y61.8467
G01 X135.9903 Y61.8481
G01 X136.0000 Y61.8486
G01 X136.0097 Y61.8481
G01 X136.0192 Y61.8467
G01 X136.0286 Y61.8444
G01 X136.0377 Y61.8411
G01 X136.0465 Y61.8370
G01 X136.0548 Y61.8320
G01 X136.0626 Y61.8262
G01 X136.0697 Y61.8197
G01 X136.0762 Y61.8126
G01 X136.0820 Y61.8048
G01 X136.0870 Y61.7965
G01 X136.0911 Y61.7877
G01 X136.0944 Y61.7786
G01 X136.0967 Y61.7692
G01 X136.0981 Y61.7597
G01 X136.0986 Y61.7500
G01 X136.0981 Y61.7403
G01 X136.0967 Y61.7308
G01 X136.0944 Y61.7214
G01 X136.0911 Y61.7123
G01 X136.0870 Y61.7035
G01 X136.0820 Y61.6952
G01 X136.0762 Y61.6874
G01 X136.0697 Y61.6803
G01 X136.0626 Y61.6738
G01 X136.0548 Y61.6680
G01 X136.0465 Y61.6630
G01 X136.0377 Y61.6589
G01 X136.0286 Y61.6556
G01 X136.0192 Y61.6533
G01 X136.0097 Y61.6519
G01 X136.0000 Y61.6514
G01 X135.9903 Y61.6519
G01 X135.9808 Y61.6533
G01 X135.9714 Y61.6556
G01 X135.9623 Y61.6589
G01 X135.9535 Y61.6630
G01 X135.9452 Y61.6680
G01 X135.9374 Y61.6738
G01 X135.9303 Y61.6803
G01 X135.9238 Y61.6874
G01 X135.9180 Y61.6952
G01 X135.9130 Y61.7035
G01 X135.9089 Y61.7123
G01 X135.9056 Y61.7214
G01 X135.9033 Y61.7308
G01 X135.9019 Y61.7403
G01 X135.9014 Y61.7500
G00 Z2.0000
M05
G00 Z2.0000
G00 Z5.00
G00 X0.0 Y0.0

