(G-CODE GENERATED BY FLATCAM v8.991 - www.flatcam.org - Version Date: 2019/12/27)

(Name: Plastron_cutout_cnc)
(Type: G-code from Geometry)
(Units: MM)

(Created on Sunday, 29 September 2024 at 13:37)

(TOOL DIAMETER: 2.0 mm)
(Feedrate: 200.0 mm/min)
(Feedrate_Z: 100.0 mm/min)
(Feedrate rapids 1500.0 mm/min)

(Z_Cut: -5.2 mm)
(DepthPerCut: 0.6 mm <=>9 passes)
(Z_Move: 2.0 mm)
(Z Toolchange: 15.0 mm)
(X,Y Toolchange: 0.00, 0.00 mm)
(Z Start: None mm)
(Z End: 5.0 mm)
(Steps per circle: 64)
(Preprocessor Geometry: default)

(X range:  113.9000 ...  158.1000  mm)
(Y range:   22.0000 ...   73.0000  mm)

(Spindle Speed: 8000 RPM)
G21
G90
G94




G01 F200.00
G00 Z2.0000

M03 S8000
G00 X113.9012 Y23.0509
G01 F100.00
G01 Z-0.6000
G01 F200.00
G01 X113.9016 Y23.0411
G01 X113.9113 Y22.9435
G01 X113.9127 Y22.9338
G01 X113.9318 Y22.8375
G01 X113.9342 Y22.8280
G01 X113.9627 Y22.7341
G01 X113.9660 Y22.7248
G01 X114.0036 Y22.6342
G01 X114.0078 Y22.6253
G01 X114.0540 Y22.5387
G01 X114.0591 Y22.5303
G01 X114.1136 Y22.4487
G01 X114.1195 Y22.4408
G01 X114.1817 Y22.3650
G01 X114.1883 Y22.3577
G01 X114.2577 Y22.2883
G01 X114.2650 Y22.2817
G01 X114.3408 Y22.2195
G01 X114.3487 Y22.2136
G01 X114.4303 Y22.1591
G01 X114.4387 Y22.1540
G01 X114.5253 Y22.1078
G01 X114.5342 Y22.1036
G01 X114.6248 Y22.0660
G01 X114.6341 Y22.0627
G01 X114.7280 Y22.0342
G01 X114.7375 Y22.0318
G01 X114.8338 Y22.0127
G01 X114.8435 Y22.0113
G01 X114.9411 Y22.0016
G01 X115.0000 Y22.0000
G01 X133.5000 Y22.0000
G00 X133.5000 Y22.0000
G01 F100.00
G01 Z-1.2000
G01 F200.00
G01 X115.0000 Y22.0000
G01 X114.9411 Y22.0016
G01 X114.8435 Y22.0113
G01 X114.8338 Y22.0127
G01 X114.7375 Y22.0318
G01 X114.7280 Y22.0342
G01 X114.6341 Y22.0627
G01 X114.6248 Y22.0660
G01 X114.5342 Y22.1036
G01 X114.5253 Y22.1078
G01 X114.4387 Y22.1540
G01 X114.4303 Y22.1591
G01 X114.3487 Y22.2136
G01 X114.3408 Y22.2195
G01 X114.2650 Y22.2817
G01 X114.2577 Y22.2883
G01 X114.1883 Y22.3577
G01 X114.1817 Y22.3650
G01 X114.1195 Y22.4408
G01 X114.1136 Y22.4487
G01 X114.0591 Y22.5303
G01 X114.0540 Y22.5387
G01 X114.0078 Y22.6253
G01 X114.0036 Y22.6342
G01 X113.9660 Y22.7248
G01 X113.9627 Y22.7341
G01 X113.9342 Y22.8280
G01 X113.9318 Y22.8375
G01 X113.9127 Y22.9338
G01 X113.9113 Y22.9435
G01 X113.9016 Y23.0411
G01 X113.9012 Y23.0509
G00 X113.9012 Y23.0509
G01 F100.00
G01 Z-1.8000
G01 F200.00
G01 X113.9016 Y23.0411
G01 X113.9113 Y22.9435
G01 X113.9127 Y22.9338
G01 X113.9318 Y22.8375
G01 X113.9342 Y22.8280
G01 X113.9627 Y22.7341
G01 X113.9660 Y22.7248
G01 X114.0036 Y22.6342
G01 X114.0078 Y22.6253
G01 X114.0540 Y22.5387
G01 X114.0591 Y22.5303
G01 X114.1136 Y22.4487
G01 X114.1195 Y22.4408
G01 X114.1817 Y22.3650
G01 X114.1883 Y22.3577
G01 X114.2577 Y22.2883
G01 X114.2650 Y22.2817
G01 X114.3408 Y22.2195
G01 X114.3487 Y22.2136
G01 X114.4303 Y22.1591
G01 X114.4387 Y22.1540
G01 X114.5253 Y22.1078
G01 X114.5342 Y22.1036
G01 X114.6248 Y22.0660
G01 X114.6341 Y22.0627
G01 X114.7280 Y22.0342
G01 X114.7375 Y22.0318
G01 X114.8338 Y22.0127
G01 X114.8435 Y22.0113
G01 X114.9411 Y22.0016
G01 X115.0000 Y22.0000
G01 X133.5000 Y22.0000
G00 X133.5000 Y22.0000
G01 F100.00
G01 Z-2.4000
G01 F200.00
G01 X115.0000 Y22.0000
G01 X114.9411 Y22.0016
G01 X114.8435 Y22.0113
G01 X114.8338 Y22.0127
G01 X114.7375 Y22.0318
G01 X114.7280 Y22.0342
G01 X114.6341 Y22.0627
G01 X114.6248 Y22.0660
G01 X114.5342 Y22.1036
G01 X114.5253 Y22.1078
G01 X114.4387 Y22.1540
G01 X114.4303 Y22.1591
G01 X114.3487 Y22.2136
G01 X114.3408 Y22.2195
G01 X114.2650 Y22.2817
G01 X114.2577 Y22.2883
G01 X114.1883 Y22.3577
G01 X114.1817 Y22.3650
G01 X114.1195 Y22.4408
G01 X114.1136 Y22.4487
G01 X114.0591 Y22.5303
G01 X114.0540 Y22.5387
G01 X114.0078 Y22.6253
G01 X114.0036 Y22.6342
G01 X113.9660 Y22.7248
G01 X113.9627 Y22.7341
G01 X113.9342 Y22.8280
G01 X113.9318 Y22.8375
G01 X113.9127 Y22.9338
G01 X113.9113 Y22.9435
G01 X113.9016 Y23.0411
G01 X113.9012 Y23.0509
G00 X113.9012 Y23.0509
G01 F100.00
G01 Z-3.0000
G01 F200.00
G01 X113.9016 Y23.0411
G01 X113.9113 Y22.9435
G01 X113.9127 Y22.9338
G01 X113.9318 Y22.8375
G01 X113.9342 Y22.8280
G01 X113.9627 Y22.7341
G01 X113.9660 Y22.7248
G01 X114.0036 Y22.6342
G01 X114.0078 Y22.6253
G01 X114.0540 Y22.5387
G01 X114.0591 Y22.5303
G01 X114.1136 Y22.4487
G01 X114.1195 Y22.4408
G01 X114.1817 Y22.3650
G01 X114.1883 Y22.3577
G01 X114.2577 Y22.2883
G01 X114.2650 Y22.2817
G01 X114.3408 Y22.2195
G01 X114.3487 Y22.2136
G01 X114.4303 Y22.1591
G01 X114.4387 Y22.1540
G01 X114.5253 Y22.1078
G01 X114.5342 Y22.1036
G01 X114.6248 Y22.0660
G01 X114.6341 Y22.0627
G01 X114.7280 Y22.0342
G01 X114.7375 Y22.0318
G01 X114.8338 Y22.0127
G01 X114.8435 Y22.0113
G01 X114.9411 Y22.0016
G01 X115.0000 Y22.0000
G01 X133.5000 Y22.0000
G00 X133.5000 Y22.0000
G01 F100.00
G01 Z-3.6000
G01 F200.00
G01 X115.0000 Y22.0000
G01 X114.9411 Y22.0016
G01 X114.8435 Y22.0113
G01 X114.8338 Y22.0127
G01 X114.7375 Y22.0318
G01 X114.7280 Y22.0342
G01 X114.6341 Y22.0627
G01 X114.6248 Y22.0660
G01 X114.5342 Y22.1036
G01 X114.5253 Y22.1078
G01 X114.4387 Y22.1540
G01 X114.4303 Y22.1591
G01 X114.3487 Y22.2136
G01 X114.3408 Y22.2195
G01 X114.2650 Y22.2817
G01 X114.2577 Y22.2883
G01 X114.1883 Y22.3577
G01 X114.1817 Y22.3650
G01 X114.1195 Y22.4408
G01 X114.1136 Y22.4487
G01 X114.0591 Y22.5303
G01 X114.0540 Y22.5387
G01 X114.0078 Y22.6253
G01 X114.0036 Y22.6342
G01 X113.9660 Y22.7248
G01 X113.9627 Y22.7341
G01 X113.9342 Y22.8280
G01 X113.9318 Y22.8375
G01 X113.9127 Y22.9338
G01 X113.9113 Y22.9435
G01 X113.9016 Y23.0411
G01 X113.9012 Y23.0509
G00 X113.9012 Y23.0509
G01 F100.00
G01 Z-4.2000
G01 F200.00
G01 X113.9016 Y23.0411
G01 X113.9113 Y22.9435
G01 X113.9127 Y22.9338
G01 X113.9318 Y22.8375
G01 X113.9342 Y22.8280
G01 X113.9627 Y22.7341
G01 X113.9660 Y22.7248
G01 X114.0036 Y22.6342
G01 X114.0078 Y22.6253
G01 X114.0540 Y22.5387
G01 X114.0591 Y22.5303
G01 X114.1136 Y22.4487
G01 X114.1195 Y22.4408
G01 X114.1817 Y22.3650
G01 X114.1883 Y22.3577
G01 X114.2577 Y22.2883
G01 X114.2650 Y22.2817
G01 X114.3408 Y22.2195
G01 X114.3487 Y22.2136
G01 X114.4303 Y22.1591
G01 X114.4387 Y22.1540
G01 X114.5253 Y22.1078
G01 X114.5342 Y22.1036
G01 X114.6248 Y22.0660
G01 X114.6341 Y22.0627
G01 X114.7280 Y22.0342
G01 X114.7375 Y22.0318
G01 X114.8338 Y22.0127
G01 X114.8435 Y22.0113
G01 X114.9411 Y22.0016
G01 X115.0000 Y22.0000
G01 X133.5000 Y22.0000
G00 X133.5000 Y22.0000
G01 F100.00
G01 Z-4.8000
G01 F200.00
G01 X115.0000 Y22.0000
G01 X114.9411 Y22.0016
G01 X114.8435 Y22.0113
G01 X114.8338 Y22.0127
G01 X114.7375 Y22.0318
G01 X114.7280 Y22.0342
G01 X114.6341 Y22.0627
G01 X114.6248 Y22.0660
G01 X114.5342 Y22.1036
G01 X114.5253 Y22.1078
G01 X114.4387 Y22.1540
G01 X114.4303 Y22.1591
G01 X114.3487 Y22.2136
G01 X114.3408 Y22.2195
G01 X114.2650 Y22.2817
G01 X114.2577 Y22.2883
G01 X114.1883 Y22.3577
G01 X114.1817 Y22.3650
G01 X114.1195 Y22.4408
G01 X114.1136 Y22.4487
G01 X114.0591 Y22.5303
G01 X114.0540 Y22.5387
G01 X114.0078 Y22.6253
G01 X114.0036 Y22.6342
G01 X113.9660 Y22.7248
G01 X113.9627 Y22.7341
G01 X113.9342 Y22.8280
G01 X113.9318 Y22.8375
G01 X113.9127 Y22.9338
G01 X113.9113 Y22.9435
G01 X113.9016 Y23.0411
G01 X113.9012 Y23.0509
G00 X113.9012 Y23.0509
G01 F100.00
G01 Z-5.2000
G01 F200.00
G01 X113.9016 Y23.0411
G01 X113.9113 Y22.9435
G01 X113.9127 Y22.9338
G01 X113.9318 Y22.8375
G01 X113.9342 Y22.8280
G01 X113.9627 Y22.7341
G01 X113.9660 Y22.7248
G01 X114.0036 Y22.6342
G01 X114.0078 Y22.6253
G01 X114.0540 Y22.5387
G01 X114.0591 Y22.5303
G01 X114.1136 Y22.4487
G01 X114.1195 Y22.4408
G01 X114.1817 Y22.3650
G01 X114.1883 Y22.3577
G01 X114.2577 Y22.2883
G01 X114.2650 Y22.2817
G01 X114.3408 Y22.2195
G01 X114.3487 Y22.2136
G01 X114.4303 Y22.1591
G01 X114.4387 Y22.1540
G01 X114.5253 Y22.1078
G01 X114.5342 Y22.1036
G01 X114.6248 Y22.0660
G01 X114.6341 Y22.0627
G01 X114.7280 Y22.0342
G01 X114.7375 Y22.0318
G01 X114.8338 Y22.0127
G01 X114.8435 Y22.0113
G01 X114.9411 Y22.0016
G01 X115.0000 Y22.0000
G01 X133.5000 Y22.0000
G00 Z2.0000
G00 X138.5000 Y22.0000
G01 F100.00
G01 Z-0.6000
G01 F200.00
G01 X157.0000 Y22.0000
G01 X157.0589 Y22.0016
G01 X157.1565 Y22.0113
G01 X157.1662 Y22.0127
G01 X157.2625 Y22.0318
G01 X157.2720 Y22.0342
G01 X157.3659 Y22.0627
G01 X157.3752 Y22.0660
G01 X157.4658 Y22.1036
G01 X157.4747 Y22.1078
G01 X157.5613 Y22.1540
G01 X157.5697 Y22.1591
G01 X157.6513 Y22.2136
G01 X157.6592 Y22.2195
G01 X157.7350 Y22.2817
G01 X157.7423 Y22.2883
G01 X157.8117 Y22.3577
G01 X157.8183 Y22.3650
G01 X157.8805 Y22.4408
G01 X157.8864 Y22.4487
G01 X157.9409 Y22.5303
G01 X157.9460 Y22.5387
G01 X157.9922 Y22.6253
G01 X157.9964 Y22.6342
G01 X158.0340 Y22.7248
G01 X158.0373 Y22.7341
G01 X158.0658 Y22.8280
G01 X158.0682 Y22.8375
G01 X158.0873 Y22.9338
G01 X158.0887 Y22.9435
G01 X158.0984 Y23.0411
G01 X158.1000 Y23.1000
G01 X158.1000 Y45.0000
G00 X158.1000 Y45.0000
G01 F100.00
G01 Z-1.2000
G01 F200.00
G01 X158.1000 Y23.1000
G01 X158.0984 Y23.0411
G01 X158.0887 Y22.9435
G01 X158.0873 Y22.9338
G01 X158.0682 Y22.8375
G01 X158.0658 Y22.8280
G01 X158.0373 Y22.7341
G01 X158.0340 Y22.7248
G01 X157.9964 Y22.6342
G01 X157.9922 Y22.6253
G01 X157.9460 Y22.5387
G01 X157.9409 Y22.5303
G01 X157.8864 Y22.4487
G01 X157.8805 Y22.4408
G01 X157.8183 Y22.3650
G01 X157.8117 Y22.3577
G01 X157.7423 Y22.2883
G01 X157.7350 Y22.2817
G01 X157.6592 Y22.2195
G01 X157.6513 Y22.2136
G01 X157.5697 Y22.1591
G01 X157.5613 Y22.1540
G01 X157.4747 Y22.1078
G01 X157.4658 Y22.1036
G01 X157.3752 Y22.0660
G01 X157.3659 Y22.0627
G01 X157.2720 Y22.0342
G01 X157.2625 Y22.0318
G01 X157.1662 Y22.0127
G01 X157.1565 Y22.0113
G01 X157.0589 Y22.0016
G01 X157.0000 Y22.0000
G01 X138.5000 Y22.0000
G00 X138.5000 Y22.0000
G01 F100.00
G01 Z-1.8000
G01 F200.00
G01 X157.0000 Y22.0000
G01 X157.0589 Y22.0016
G01 X157.1565 Y22.0113
G01 X157.1662 Y22.0127
G01 X157.2625 Y22.0318
G01 X157.2720 Y22.0342
G01 X157.3659 Y22.0627
G01 X157.3752 Y22.0660
G01 X157.4658 Y22.1036
G01 X157.4747 Y22.1078
G01 X157.5613 Y22.1540
G01 X157.5697 Y22.1591
G01 X157.6513 Y22.2136
G01 X157.6592 Y22.2195
G01 X157.7350 Y22.2817
G01 X157.7423 Y22.2883
G01 X157.8117 Y22.3577
G01 X157.8183 Y22.3650
G01 X157.8805 Y22.4408
G01 X157.8864 Y22.4487
G01 X157.9409 Y22.5303
G01 X157.9460 Y22.5387
G01 X157.9922 Y22.6253
G01 X157.9964 Y22.6342
G01 X158.0340 Y22.7248
G01 X158.0373 Y22.7341
G01 X158.0658 Y22.8280
G01 X158.0682 Y22.8375
G01 X158.0873 Y22.9338
G01 X158.0887 Y22.9435
G01 X158.0984 Y23.0411
G01 X158.1000 Y23.1000
G01 X158.1000 Y45.0000
G00 X158.1000 Y45.0000
G01 F100.00
G01 Z-2.4000
G01 F200.00
G01 X158.1000 Y23.1000
G01 X158.0984 Y23.0411
G01 X158.0887 Y22.9435
G01 X158.0873 Y22.9338
G01 X158.0682 Y22.8375
G01 X158.0658 Y22.8280
G01 X158.0373 Y22.7341
G01 X158.0340 Y22.7248
G01 X157.9964 Y22.6342
G01 X157.9922 Y22.6253
G01 X157.9460 Y22.5387
G01 X157.9409 Y22.5303
G01 X157.8864 Y22.4487
G01 X157.8805 Y22.4408
G01 X157.8183 Y22.3650
G01 X157.8117 Y22.3577
G01 X157.7423 Y22.2883
G01 X157.7350 Y22.2817
G01 X157.6592 Y22.2195
G01 X157.6513 Y22.2136
G01 X157.5697 Y22.1591
G01 X157.5613 Y22.1540
G01 X157.4747 Y22.1078
G01 X157.4658 Y22.1036
G01 X157.3752 Y22.0660
G01 X157.3659 Y22.0627
G01 X157.2720 Y22.0342
G01 X157.2625 Y22.0318
G01 X157.1662 Y22.0127
G01 X157.1565 Y22.0113
G01 X157.0589 Y22.0016
G01 X157.0000 Y22.0000
G01 X138.5000 Y22.0000
G00 X138.5000 Y22.0000
G01 F100.00
G01 Z-3.0000
G01 F200.00
G01 X157.0000 Y22.0000
G01 X157.0589 Y22.0016
G01 X157.1565 Y22.0113
G01 X157.1662 Y22.0127
G01 X157.2625 Y22.0318
G01 X157.2720 Y22.0342
G01 X157.3659 Y22.0627
G01 X157.3752 Y22.0660
G01 X157.4658 Y22.1036
G01 X157.4747 Y22.1078
G01 X157.5613 Y22.1540
G01 X157.5697 Y22.1591
G01 X157.6513 Y22.2136
G01 X157.6592 Y22.2195
G01 X157.7350 Y22.2817
G01 X157.7423 Y22.2883
G01 X157.8117 Y22.3577
G01 X157.8183 Y22.3650
G01 X157.8805 Y22.4408
G01 X157.8864 Y22.4487
G01 X157.9409 Y22.5303
G01 X157.9460 Y22.5387
G01 X157.9922 Y22.6253
G01 X157.9964 Y22.6342
G01 X158.0340 Y22.7248
G01 X158.0373 Y22.7341
G01 X158.0658 Y22.8280
G01 X158.0682 Y22.8375
G01 X158.0873 Y22.9338
G01 X158.0887 Y22.9435
G01 X158.0984 Y23.0411
G01 X158.1000 Y23.1000
G01 X158.1000 Y45.0000
G00 X158.1000 Y45.0000
G01 F100.00
G01 Z-3.6000
G01 F200.00
G01 X158.1000 Y23.1000
G01 X158.0984 Y23.0411
G01 X158.0887 Y22.9435
G01 X158.0873 Y22.9338
G01 X158.0682 Y22.8375
G01 X158.0658 Y22.8280
G01 X158.0373 Y22.7341
G01 X158.0340 Y22.7248
G01 X157.9964 Y22.6342
G01 X157.9922 Y22.6253
G01 X157.9460 Y22.5387
G01 X157.9409 Y22.5303
G01 X157.8864 Y22.4487
G01 X157.8805 Y22.4408
G01 X157.8183 Y22.3650
G01 X157.8117 Y22.3577
G01 X157.7423 Y22.2883
G01 X157.7350 Y22.2817
G01 X157.6592 Y22.2195
G01 X157.6513 Y22.2136
G01 X157.5697 Y22.1591
G01 X157.5613 Y22.1540
G01 X157.4747 Y22.1078
G01 X157.4658 Y22.1036
G01 X157.3752 Y22.0660
G01 X157.3659 Y22.0627
G01 X157.2720 Y22.0342
G01 X157.2625 Y22.0318
G01 X157.1662 Y22.0127
G01 X157.1565 Y22.0113
G01 X157.0589 Y22.0016
G01 X157.0000 Y22.0000
G01 X138.5000 Y22.0000
G00 X138.5000 Y22.0000
G01 F100.00
G01 Z-4.2000
G01 F200.00
G01 X157.0000 Y22.0000
G01 X157.0589 Y22.0016
G01 X157.1565 Y22.0113
G01 X157.1662 Y22.0127
G01 X157.2625 Y22.0318
G01 X157.2720 Y22.0342
G01 X157.3659 Y22.0627
G01 X157.3752 Y22.0660
G01 X157.4658 Y22.1036
G01 X157.4747 Y22.1078
G01 X157.5613 Y22.1540
G01 X157.5697 Y22.1591
G01 X157.6513 Y22.2136
G01 X157.6592 Y22.2195
G01 X157.7350 Y22.2817
G01 X157.7423 Y22.2883
G01 X157.8117 Y22.3577
G01 X157.8183 Y22.3650
G01 X157.8805 Y22.4408
G01 X157.8864 Y22.4487
G01 X157.9409 Y22.5303
G01 X157.9460 Y22.5387
G01 X157.9922 Y22.6253
G01 X157.9964 Y22.6342
G01 X158.0340 Y22.7248
G01 X158.0373 Y22.7341
G01 X158.0658 Y22.8280
G01 X158.0682 Y22.8375
G01 X158.0873 Y22.9338
G01 X158.0887 Y22.9435
G01 X158.0984 Y23.0411
G01 X158.1000 Y23.1000
G01 X158.1000 Y45.0000
G00 X158.1000 Y45.0000
G01 F100.00
G01 Z-4.8000
G01 F200.00
G01 X158.1000 Y23.1000
G01 X158.0984 Y23.0411
G01 X158.0887 Y22.9435
G01 X158.0873 Y22.9338
G01 X158.0682 Y22.8375
G01 X158.0658 Y22.8280
G01 X158.0373 Y22.7341
G01 X158.0340 Y22.7248
G01 X157.9964 Y22.6342
G01 X157.9922 Y22.6253
G01 X157.9460 Y22.5387
G01 X157.9409 Y22.5303
G01 X157.8864 Y22.4487
G01 X157.8805 Y22.4408
G01 X157.8183 Y22.3650
G01 X157.8117 Y22.3577
G01 X157.7423 Y22.2883
G01 X157.7350 Y22.2817
G01 X157.6592 Y22.2195
G01 X157.6513 Y22.2136
G01 X157.5697 Y22.1591
G01 X157.5613 Y22.1540
G01 X157.4747 Y22.1078
G01 X157.4658 Y22.1036
G01 X157.3752 Y22.0660
G01 X157.3659 Y22.0627
G01 X157.2720 Y22.0342
G01 X157.2625 Y22.0318
G01 X157.1662 Y22.0127
G01 X157.1565 Y22.0113
G01 X157.0589 Y22.0016
G01 X157.0000 Y22.0000
G01 X138.5000 Y22.0000
G00 X138.5000 Y22.0000
G01 F100.00
G01 Z-5.2000
G01 F200.00
G01 X157.0000 Y22.0000
G01 X157.0589 Y22.0016
G01 X157.1565 Y22.0113
G01 X157.1662 Y22.0127
G01 X157.2625 Y22.0318
G01 X157.2720 Y22.0342
G01 X157.3659 Y22.0627
G01 X157.3752 Y22.0660
G01 X157.4658 Y22.1036
G01 X157.4747 Y22.1078
G01 X157.5613 Y22.1540
G01 X157.5697 Y22.1591
G01 X157.6513 Y22.2136
G01 X157.6592 Y22.2195
G01 X157.7350 Y22.2817
G01 X157.7423 Y22.2883
G01 X157.8117 Y22.3577
G01 X157.8183 Y22.3650
G01 X157.8805 Y22.4408
G01 X157.8864 Y22.4487
G01 X157.9409 Y22.5303
G01 X157.9460 Y22.5387
G01 X157.9922 Y22.6253
G01 X157.9964 Y22.6342
G01 X158.0340 Y22.7248
G01 X158.0373 Y22.7341
G01 X158.0658 Y22.8280
G01 X158.0682 Y22.8375
G01 X158.0873 Y22.9338
G01 X158.0887 Y22.9435
G01 X158.0984 Y23.0411
G01 X158.1000 Y23.1000
G01 X158.1000 Y45.0000
G00 Z2.0000
G00 X158.1000 Y50.0000
G01 F100.00
G01 Z-0.6000
G01 F200.00
G01 X158.1000 Y71.9000
G01 X158.0984 Y71.9589
G01 X158.0887 Y72.0565
G01 X158.0873 Y72.0662
G01 X158.0682 Y72.1625
G01 X158.0658 Y72.1720
G01 X158.0373 Y72.2659
G01 X158.0340 Y72.2752
G01 X157.9964 Y72.3658
G01 X157.9922 Y72.3747
G01 X157.9460 Y72.4613
G01 X157.9409 Y72.4697
G01 X157.8864 Y72.5513
G01 X157.8805 Y72.5592
G01 X157.8183 Y72.6350
G01 X157.8117 Y72.6423
G01 X157.7423 Y72.7117
G01 X157.7350 Y72.7183
G01 X157.6592 Y72.7805
G01 X157.6513 Y72.7864
G01 X157.5697 Y72.8409
G01 X157.5613 Y72.8460
G01 X157.4747 Y72.8922
G01 X157.4658 Y72.8964
G01 X157.3752 Y72.9340
G01 X157.3659 Y72.9373
G01 X157.2720 Y72.9658
G01 X157.2625 Y72.9682
G01 X157.1662 Y72.9873
G01 X157.1565 Y72.9887
G01 X157.0589 Y72.9984
G01 X157.0000 Y73.0000
G01 X138.5000 Y73.0000
G00 X138.5000 Y73.0000
G01 F100.00
G01 Z-1.2000
G01 F200.00
G01 X157.0000 Y73.0000
G01 X157.0589 Y72.9984
G01 X157.1565 Y72.9887
G01 X157.1662 Y72.9873
G01 X157.2625 Y72.9682
G01 X157.2720 Y72.9658
G01 X157.3659 Y72.9373
G01 X157.3752 Y72.9340
G01 X157.4658 Y72.8964
G01 X157.4747 Y72.8922
G01 X157.5613 Y72.8460
G01 X157.5697 Y72.8409
G01 X157.6513 Y72.7864
G01 X157.6592 Y72.7805
G01 X157.7350 Y72.7183
G01 X157.7423 Y72.7117
G01 X157.8117 Y72.6423
G01 X157.8183 Y72.6350
G01 X157.8805 Y72.5592
G01 X157.8864 Y72.5513
G01 X157.9409 Y72.4697
G01 X157.9460 Y72.4613
G01 X157.9922 Y72.3747
G01 X157.9964 Y72.3658
G01 X158.0340 Y72.2752
G01 X158.0373 Y72.2659
G01 X158.0658 Y72.1720
G01 X158.0682 Y72.1625
G01 X158.0873 Y72.0662
G01 X158.0887 Y72.0565
G01 X158.0984 Y71.9589
G01 X158.1000 Y71.9000
G01 X158.1000 Y50.0000
G00 X158.1000 Y50.0000
G01 F100.00
G01 Z-1.8000
G01 F200.00
G01 X158.1000 Y71.9000
G01 X158.0984 Y71.9589
G01 X158.0887 Y72.0565
G01 X158.0873 Y72.0662
G01 X158.0682 Y72.1625
G01 X158.0658 Y72.1720
G01 X158.0373 Y72.2659
G01 X158.0340 Y72.2752
G01 X157.9964 Y72.3658
G01 X157.9922 Y72.3747
G01 X157.9460 Y72.4613
G01 X157.9409 Y72.4697
G01 X157.8864 Y72.5513
G01 X157.8805 Y72.5592
G01 X157.8183 Y72.6350
G01 X157.8117 Y72.6423
G01 X157.7423 Y72.7117
G01 X157.7350 Y72.7183
G01 X157.6592 Y72.7805
G01 X157.6513 Y72.7864
G01 X157.5697 Y72.8409
G01 X157.5613 Y72.8460
G01 X157.4747 Y72.8922
G01 X157.4658 Y72.8964
G01 X157.3752 Y72.9340
G01 X157.3659 Y72.9373
G01 X157.2720 Y72.9658
G01 X157.2625 Y72.9682
G01 X157.1662 Y72.9873
G01 X157.1565 Y72.9887
G01 X157.0589 Y72.9984
G01 X157.0000 Y73.0000
G01 X138.5000 Y73.0000
G00 X138.5000 Y73.0000
G01 F100.00
G01 Z-2.4000
G01 F200.00
G01 X157.0000 Y73.0000
G01 X157.0589 Y72.9984
G01 X157.1565 Y72.9887
G01 X157.1662 Y72.9873
G01 X157.2625 Y72.9682
G01 X157.2720 Y72.9658
G01 X157.3659 Y72.9373
G01 X157.3752 Y72.9340
G01 X157.4658 Y72.8964
G01 X157.4747 Y72.8922
G01 X157.5613 Y72.8460
G01 X157.5697 Y72.8409
G01 X157.6513 Y72.7864
G01 X157.6592 Y72.7805
G01 X157.7350 Y72.7183
G01 X157.7423 Y72.7117
G01 X157.8117 Y72.6423
G01 X157.8183 Y72.6350
G01 X157.8805 Y72.5592
G01 X157.8864 Y72.5513
G01 X157.9409 Y72.4697
G01 X157.9460 Y72.4613
G01 X157.9922 Y72.3747
G01 X157.9964 Y72.3658
G01 X158.0340 Y72.2752
G01 X158.0373 Y72.2659
G01 X158.0658 Y72.1720
G01 X158.0682 Y72.1625
G01 X158.0873 Y72.0662
G01 X158.0887 Y72.0565
G01 X158.0984 Y71.9589
G01 X158.1000 Y71.9000
G01 X158.1000 Y50.0000
G00 X158.1000 Y50.0000
G01 F100.00
G01 Z-3.0000
G01 F200.00
G01 X158.1000 Y71.9000
G01 X158.0984 Y71.9589
G01 X158.0887 Y72.0565
G01 X158.0873 Y72.0662
G01 X158.0682 Y72.1625
G01 X158.0658 Y72.1720
G01 X158.0373 Y72.2659
G01 X158.0340 Y72.2752
G01 X157.9964 Y72.3658
G01 X157.9922 Y72.3747
G01 X157.9460 Y72.4613
G01 X157.9409 Y72.4697
G01 X157.8864 Y72.5513
G01 X157.8805 Y72.5592
G01 X157.8183 Y72.6350
G01 X157.8117 Y72.6423
G01 X157.7423 Y72.7117
G01 X157.7350 Y72.7183
G01 X157.6592 Y72.7805
G01 X157.6513 Y72.7864
G01 X157.5697 Y72.8409
G01 X157.5613 Y72.8460
G01 X157.4747 Y72.8922
G01 X157.4658 Y72.8964
G01 X157.3752 Y72.9340
G01 X157.3659 Y72.9373
G01 X157.2720 Y72.9658
G01 X157.2625 Y72.9682
G01 X157.1662 Y72.9873
G01 X157.1565 Y72.9887
G01 X157.0589 Y72.9984
G01 X157.0000 Y73.0000
G01 X138.5000 Y73.0000
G00 X138.5000 Y73.0000
G01 F100.00
G01 Z-3.6000
G01 F200.00
G01 X157.0000 Y73.0000
G01 X157.0589 Y72.9984
G01 X157.1565 Y72.9887
G01 X157.1662 Y72.9873
G01 X157.2625 Y72.9682
G01 X157.2720 Y72.9658
G01 X157.3659 Y72.9373
G01 X157.3752 Y72.9340
G01 X157.4658 Y72.8964
G01 X157.4747 Y72.8922
G01 X157.5613 Y72.8460
G01 X157.5697 Y72.8409
G01 X157.6513 Y72.7864
G01 X157.6592 Y72.7805
G01 X157.7350 Y72.7183
G01 X157.7423 Y72.7117
G01 X157.8117 Y72.6423
G01 X157.8183 Y72.6350
G01 X157.8805 Y72.5592
G01 X157.8864 Y72.5513
G01 X157.9409 Y72.4697
G01 X157.9460 Y72.4613
G01 X157.9922 Y72.3747
G01 X157.9964 Y72.3658
G01 X158.0340 Y72.2752
G01 X158.0373 Y72.2659
G01 X158.0658 Y72.1720
G01 X158.0682 Y72.1625
G01 X158.0873 Y72.0662
G01 X158.0887 Y72.0565
G01 X158.0984 Y71.9589
G01 X158.1000 Y71.9000
G01 X158.1000 Y50.0000
G00 X158.1000 Y50.0000
G01 F100.00
G01 Z-4.2000
G01 F200.00
G01 X158.1000 Y71.9000
G01 X158.0984 Y71.9589
G01 X158.0887 Y72.0565
G01 X158.0873 Y72.0662
G01 X158.0682 Y72.1625
G01 X158.0658 Y72.1720
G01 X158.0373 Y72.2659
G01 X158.0340 Y72.2752
G01 X157.9964 Y72.3658
G01 X157.9922 Y72.3747
G01 X157.9460 Y72.4613
G01 X157.9409 Y72.4697
G01 X157.8864 Y72.5513
G01 X157.8805 Y72.5592
G01 X157.8183 Y72.6350
G01 X157.8117 Y72.6423
G01 X157.7423 Y72.7117
G01 X157.7350 Y72.7183
G01 X157.6592 Y72.7805
G01 X157.6513 Y72.7864
G01 X157.5697 Y72.8409
G01 X157.5613 Y72.8460
G01 X157.4747 Y72.8922
G01 X157.4658 Y72.8964
G01 X157.3752 Y72.9340
G01 X157.3659 Y72.9373
G01 X157.2720 Y72.9658
G01 X157.2625 Y72.9682
G01 X157.1662 Y72.9873
G01 X157.1565 Y72.9887
G01 X157.0589 Y72.9984
G01 X157.0000 Y73.0000
G01 X138.5000 Y73.0000
G00 X138.5000 Y73.0000
G01 F100.00
G01 Z-4.8000
G01 F200.00
G01 X157.0000 Y73.0000
G01 X157.0589 Y72.9984
G01 X157.1565 Y72.9887
G01 X157.1662 Y72.9873
G01 X157.2625 Y72.9682
G01 X157.2720 Y72.9658
G01 X157.3659 Y72.9373
G01 X157.3752 Y72.9340
G01 X157.4658 Y72.8964
G01 X157.4747 Y72.8922
G01 X157.5613 Y72.8460
G01 X157.5697 Y72.8409
G01 X157.6513 Y72.7864
G01 X157.6592 Y72.7805
G01 X157.7350 Y72.7183
G01 X157.7423 Y72.7117
G01 X157.8117 Y72.6423
G01 X157.8183 Y72.6350
G01 X157.8805 Y72.5592
G01 X157.8864 Y72.5513
G01 X157.9409 Y72.4697
G01 X157.9460 Y72.4613
G01 X157.9922 Y72.3747
G01 X157.9964 Y72.3658
G01 X158.0340 Y72.2752
G01 X158.0373 Y72.2659
G01 X158.0658 Y72.1720
G01 X158.0682 Y72.1625
G01 X158.0873 Y72.0662
G01 X158.0887 Y72.0565
G01 X158.0984 Y71.9589
G01 X158.1000 Y71.9000
G01 X158.1000 Y50.0000
G00 X158.1000 Y50.0000
G01 F100.00
G01 Z-5.2000
G01 F200.00
G01 X158.1000 Y71.9000
G01 X158.0984 Y71.9589
G01 X158.0887 Y72.0565
G01 X158.0873 Y72.0662
G01 X158.0682 Y72.1625
G01 X158.0658 Y72.1720
G01 X158.0373 Y72.2659
G01 X158.0340 Y72.2752
G01 X157.9964 Y72.3658
G01 X157.9922 Y72.3747
G01 X157.9460 Y72.4613
G01 X157.9409 Y72.4697
G01 X157.8864 Y72.5513
G01 X157.8805 Y72.5592
G01 X157.8183 Y72.6350
G01 X157.8117 Y72.6423
G01 X157.7423 Y72.7117
G01 X157.7350 Y72.7183
G01 X157.6592 Y72.7805
G01 X157.6513 Y72.7864
G01 X157.5697 Y72.8409
G01 X157.5613 Y72.8460
G01 X157.4747 Y72.8922
G01 X157.4658 Y72.8964
G01 X157.3752 Y72.9340
G01 X157.3659 Y72.9373
G01 X157.2720 Y72.9658
G01 X157.2625 Y72.9682
G01 X157.1662 Y72.9873
G01 X157.1565 Y72.9887
G01 X157.0589 Y72.9984
G01 X157.0000 Y73.0000
G01 X138.5000 Y73.0000
G00 Z2.0000
G00 X133.5000 Y73.0000
G01 F100.00
G01 Z-0.6000
G01 F200.00
G01 X115.0000 Y73.0000
G01 X114.9411 Y72.9984
G01 X114.8435 Y72.9887
G01 X114.8338 Y72.9873
G01 X114.7375 Y72.9682
G01 X114.7280 Y72.9658
G01 X114.6341 Y72.9373
G01 X114.6248 Y72.9340
G01 X114.5342 Y72.8964
G01 X114.5253 Y72.8922
G01 X114.4387 Y72.8460
G01 X114.4303 Y72.8409
G01 X114.3487 Y72.7864
G01 X114.3408 Y72.7805
G01 X114.2650 Y72.7183
G01 X114.2577 Y72.7117
G01 X114.1883 Y72.6423
G01 X114.1817 Y72.6350
G01 X114.1195 Y72.5592
G01 X114.1136 Y72.5513
G01 X114.0591 Y72.4697
G01 X114.0540 Y72.4613
G01 X114.0078 Y72.3747
G01 X114.0036 Y72.3658
G01 X113.9660 Y72.2752
G01 X113.9627 Y72.2659
G01 X113.9342 Y72.1720
G01 X113.9318 Y72.1625
G01 X113.9127 Y72.0662
G01 X113.9113 Y72.0565
G01 X113.9016 Y71.9589
G01 X113.9000 Y71.9000
G01 X113.9000 Y50.0000
G00 X113.9000 Y50.0000
G01 F100.00
G01 Z-1.2000
G01 F200.00
G01 X113.9000 Y71.9000
G01 X113.9016 Y71.9589
G01 X113.9113 Y72.0565
G01 X113.9127 Y72.0662
G01 X113.9318 Y72.1625
G01 X113.9342 Y72.1720
G01 X113.9627 Y72.2659
G01 X113.9660 Y72.2752
G01 X114.0036 Y72.3658
G01 X114.0078 Y72.3747
G01 X114.0540 Y72.4613
G01 X114.0591 Y72.4697
G01 X114.1136 Y72.5513
G01 X114.1195 Y72.5592
G01 X114.1817 Y72.6350
G01 X114.1883 Y72.6423
G01 X114.2577 Y72.7117
G01 X114.2650 Y72.7183
G01 X114.3408 Y72.7805
G01 X114.3487 Y72.7864
G01 X114.4303 Y72.8409
G01 X114.4387 Y72.8460
G01 X114.5253 Y72.8922
G01 X114.5342 Y72.8964
G01 X114.6248 Y72.9340
G01 X114.6341 Y72.9373
G01 X114.7280 Y72.9658
G01 X114.7375 Y72.9682
G01 X114.8338 Y72.9873
G01 X114.8435 Y72.9887
G01 X114.9411 Y72.9984
G01 X115.0000 Y73.0000
G01 X133.5000 Y73.0000
G00 X133.5000 Y73.0000
G01 F100.00
G01 Z-1.8000
G01 F200.00
G01 X115.0000 Y73.0000
G01 X114.9411 Y72.9984
G01 X114.8435 Y72.9887
G01 X114.8338 Y72.9873
G01 X114.7375 Y72.9682
G01 X114.7280 Y72.9658
G01 X114.6341 Y72.9373
G01 X114.6248 Y72.9340
G01 X114.5342 Y72.8964
G01 X114.5253 Y72.8922
G01 X114.4387 Y72.8460
G01 X114.4303 Y72.8409
G01 X114.3487 Y72.7864
G01 X114.3408 Y72.7805
G01 X114.2650 Y72.7183
G01 X114.2577 Y72.7117
G01 X114.1883 Y72.6423
G01 X114.1817 Y72.6350
G01 X114.1195 Y72.5592
G01 X114.1136 Y72.5513
G01 X114.0591 Y72.4697
G01 X114.0540 Y72.4613
G01 X114.0078 Y72.3747
G01 X114.0036 Y72.3658
G01 X113.9660 Y72.2752
G01 X113.9627 Y72.2659
G01 X113.9342 Y72.1720
G01 X113.9318 Y72.1625
G01 X113.9127 Y72.0662
G01 X113.9113 Y72.0565
G01 X113.9016 Y71.9589
G01 X113.9000 Y71.9000
G01 X113.9000 Y50.0000
G00 X113.9000 Y50.0000
G01 F100.00
G01 Z-2.4000
G01 F200.00
G01 X113.9000 Y71.9000
G01 X113.9016 Y71.9589
G01 X113.9113 Y72.0565
G01 X113.9127 Y72.0662
G01 X113.9318 Y72.1625
G01 X113.9342 Y72.1720
G01 X113.9627 Y72.2659
G01 X113.9660 Y72.2752
G01 X114.0036 Y72.3658
G01 X114.0078 Y72.3747
G01 X114.0540 Y72.4613
G01 X114.0591 Y72.4697
G01 X114.1136 Y72.5513
G01 X114.1195 Y72.5592
G01 X114.1817 Y72.6350
G01 X114.1883 Y72.6423
G01 X114.2577 Y72.7117
G01 X114.2650 Y72.7183
G01 X114.3408 Y72.7805
G01 X114.3487 Y72.7864
G01 X114.4303 Y72.8409
G01 X114.4387 Y72.8460
G01 X114.5253 Y72.8922
G01 X114.5342 Y72.8964
G01 X114.6248 Y72.9340
G01 X114.6341 Y72.9373
G01 X114.7280 Y72.9658
G01 X114.7375 Y72.9682
G01 X114.8338 Y72.9873
G01 X114.8435 Y72.9887
G01 X114.9411 Y72.9984
G01 X115.0000 Y73.0000
G01 X133.5000 Y73.0000
G00 X133.5000 Y73.0000
G01 F100.00
G01 Z-3.0000
G01 F200.00
G01 X115.0000 Y73.0000
G01 X114.9411 Y72.9984
G01 X114.8435 Y72.9887
G01 X114.8338 Y72.9873
G01 X114.7375 Y72.9682
G01 X114.7280 Y72.9658
G01 X114.6341 Y72.9373
G01 X114.6248 Y72.9340
G01 X114.5342 Y72.8964
G01 X114.5253 Y72.8922
G01 X114.4387 Y72.8460
G01 X114.4303 Y72.8409
G01 X114.3487 Y72.7864
G01 X114.3408 Y72.7805
G01 X114.2650 Y72.7183
G01 X114.2577 Y72.7117
G01 X114.1883 Y72.6423
G01 X114.1817 Y72.6350
G01 X114.1195 Y72.5592
G01 X114.1136 Y72.5513
G01 X114.0591 Y72.4697
G01 X114.0540 Y72.4613
G01 X114.0078 Y72.3747
G01 X114.0036 Y72.3658
G01 X113.9660 Y72.2752
G01 X113.9627 Y72.2659
G01 X113.9342 Y72.1720
G01 X113.9318 Y72.1625
G01 X113.9127 Y72.0662
G01 X113.9113 Y72.0565
G01 X113.9016 Y71.9589
G01 X113.9000 Y71.9000
G01 X113.9000 Y50.0000
G00 X113.9000 Y50.0000
G01 F100.00
G01 Z-3.6000
G01 F200.00
G01 X113.9000 Y71.9000
G01 X113.9016 Y71.9589
G01 X113.9113 Y72.0565
G01 X113.9127 Y72.0662
G01 X113.9318 Y72.1625
G01 X113.9342 Y72.1720
G01 X113.9627 Y72.2659
G01 X113.9660 Y72.2752
G01 X114.0036 Y72.3658
G01 X114.0078 Y72.3747
G01 X114.0540 Y72.4613
G01 X114.0591 Y72.4697
G01 X114.1136 Y72.5513
G01 X114.1195 Y72.5592
G01 X114.1817 Y72.6350
G01 X114.1883 Y72.6423
G01 X114.2577 Y72.7117
G01 X114.2650 Y72.7183
G01 X114.3408 Y72.7805
G01 X114.3487 Y72.7864
G01 X114.4303 Y72.8409
G01 X114.4387 Y72.8460
G01 X114.5253 Y72.8922
G01 X114.5342 Y72.8964
G01 X114.6248 Y72.9340
G01 X114.6341 Y72.9373
G01 X114.7280 Y72.9658
G01 X114.7375 Y72.9682
G01 X114.8338 Y72.9873
G01 X114.8435 Y72.9887
G01 X114.9411 Y72.9984
G01 X115.0000 Y73.0000
G01 X133.5000 Y73.0000
G00 X133.5000 Y73.0000
G01 F100.00
G01 Z-4.2000
G01 F200.00
G01 X115.0000 Y73.0000
G01 X114.9411 Y72.9984
G01 X114.8435 Y72.9887
G01 X114.8338 Y72.9873
G01 X114.7375 Y72.9682
G01 X114.7280 Y72.9658
G01 X114.6341 Y72.9373
G01 X114.6248 Y72.9340
G01 X114.5342 Y72.8964
G01 X114.5253 Y72.8922
G01 X114.4387 Y72.8460
G01 X114.4303 Y72.8409
G01 X114.3487 Y72.7864
G01 X114.3408 Y72.7805
G01 X114.2650 Y72.7183
G01 X114.2577 Y72.7117
G01 X114.1883 Y72.6423
G01 X114.1817 Y72.6350
G01 X114.1195 Y72.5592
G01 X114.1136 Y72.5513
G01 X114.0591 Y72.4697
G01 X114.0540 Y72.4613
G01 X114.0078 Y72.3747
G01 X114.0036 Y72.3658
G01 X113.9660 Y72.2752
G01 X113.9627 Y72.2659
G01 X113.9342 Y72.1720
G01 X113.9318 Y72.1625
G01 X113.9127 Y72.0662
G01 X113.9113 Y72.0565
G01 X113.9016 Y71.9589
G01 X113.9000 Y71.9000
G01 X113.9000 Y50.0000
G00 X113.9000 Y50.0000
G01 F100.00
G01 Z-4.8000
G01 F200.00
G01 X113.9000 Y71.9000
G01 X113.9016 Y71.9589
G01 X113.9113 Y72.0565
G01 X113.9127 Y72.0662
G01 X113.9318 Y72.1625
G01 X113.9342 Y72.1720
G01 X113.9627 Y72.2659
G01 X113.9660 Y72.2752
G01 X114.0036 Y72.3658
G01 X114.0078 Y72.3747
G01 X114.0540 Y72.4613
G01 X114.0591 Y72.4697
G01 X114.1136 Y72.5513
G01 X114.1195 Y72.5592
G01 X114.1817 Y72.6350
G01 X114.1883 Y72.6423
G01 X114.2577 Y72.7117
G01 X114.2650 Y72.7183
G01 X114.3408 Y72.7805
G01 X114.3487 Y72.7864
G01 X114.4303 Y72.8409
G01 X114.4387 Y72.8460
G01 X114.5253 Y72.8922
G01 X114.5342 Y72.8964
G01 X114.6248 Y72.9340
G01 X114.6341 Y72.9373
G01 X114.7280 Y72.9658
G01 X114.7375 Y72.9682
G01 X114.8338 Y72.9873
G01 X114.8435 Y72.9887
G01 X114.9411 Y72.9984
G01 X115.0000 Y73.0000
G01 X133.5000 Y73.0000
G00 X133.5000 Y73.0000
G01 F100.00
G01 Z-5.2000
G01 F200.00
G01 X115.0000 Y73.0000
G01 X114.9411 Y72.9984
G01 X114.8435 Y72.9887
G01 X114.8338 Y72.9873
G01 X114.7375 Y72.9682
G01 X114.7280 Y72.9658
G01 X114.6341 Y72.9373
G01 X114.6248 Y72.9340
G01 X114.5342 Y72.8964
G01 X114.5253 Y72.8922
G01 X114.4387 Y72.8460
G01 X114.4303 Y72.8409
G01 X114.3487 Y72.7864
G01 X114.3408 Y72.7805
G01 X114.2650 Y72.7183
G01 X114.2577 Y72.7117
G01 X114.1883 Y72.6423
G01 X114.1817 Y72.6350
G01 X114.1195 Y72.5592
G01 X114.1136 Y72.5513
G01 X114.0591 Y72.4697
G01 X114.0540 Y72.4613
G01 X114.0078 Y72.3747
G01 X114.0036 Y72.3658
G01 X113.9660 Y72.2752
G01 X113.9627 Y72.2659
G01 X113.9342 Y72.1720
G01 X113.9318 Y72.1625
G01 X113.9127 Y72.0662
G01 X113.9113 Y72.0565
G01 X113.9016 Y71.9589
G01 X113.9000 Y71.9000
G01 X113.9000 Y50.0000
G00 Z2.0000
G00 X113.9000 Y45.0000
G01 F100.00
G01 Z-0.6000
G01 F200.00
G01 X113.9000 Y23.1000
G01 X113.9012 Y23.0509
G00 X113.9012 Y23.0509
G01 F100.00
G01 Z-1.2000
G01 F200.00
G01 X113.9000 Y23.1000
G01 X113.9000 Y45.0000
G00 X113.9000 Y45.0000
G01 F100.00
G01 Z-1.8000
G01 F200.00
G01 X113.9000 Y23.1000
G01 X113.9012 Y23.0509
G00 X113.9012 Y23.0509
G01 F100.00
G01 Z-2.4000
G01 F200.00
G01 X113.9000 Y23.1000
G01 X113.9000 Y45.0000
G00 X113.9000 Y45.0000
G01 F100.00
G01 Z-3.0000
G01 F200.00
G01 X113.9000 Y23.1000
G01 X113.9012 Y23.0509
G00 X113.9012 Y23.0509
G01 F100.00
G01 Z-3.6000
G01 F200.00
G01 X113.9000 Y23.1000
G01 X113.9000 Y45.0000
G00 X113.9000 Y45.0000
G01 F100.00
G01 Z-4.2000
G01 F200.00
G01 X113.9000 Y23.1000
G01 X113.9012 Y23.0509
G00 X113.9012 Y23.0509
G01 F100.00
G01 Z-4.8000
G01 F200.00
G01 X113.9000 Y23.1000
G01 X113.9000 Y45.0000
G00 X113.9000 Y45.0000
G01 F100.00
G01 Z-5.2000
G01 F200.00
G01 X113.9000 Y23.1000
G01 X113.9012 Y23.0509
G00 Z2.0000
M05
G00 Z2.0000
G00 Z5.00
G00 X0.0 Y0.0

